/* XPM */
static char *_0f1f0de007945d2854a3c31e384b6f2gEfujCJ7VjsqvrxE[] = {
/* columns rows colors chars-per-pixel */
"356 472 252 2 ",
"   c #010000",
".  c #0C0000",
"X  c #050409",
"o  c #130000",
"O  c #1B0000",
"+  c #170407",
"@  c #020014",
"#  c #01001B",
"$  c #090615",
"%  c #160018",
"&  c #1B001D",
"*  c #190016",
"=  c #0A1113",
"-  c #230001",
";  c #2C0000",
":  c #24000B",
">  c #29000A",
",  c #330000",
"<  c #3B0000",
"1  c #270013",
"2  c #010025",
"3  c #01002B",
"4  c #090127",
"5  c #1A0021",
"6  c #000033",
"7  c #00003A",
"8  c #040734",
"9  c #230020",
"0  c #430000",
"q  c #4D0000",
"w  c #540000",
"e  c #590000",
"r  c #6D3D0A",
"t  c #753D02",
"y  c #7A3D01",
"u  c #733E0B",
"i  c #7A3C09",
"p  c #703300",
"a  c #673F1A",
"s  c #713E11",
"d  c #6A3E25",
"f  c #703D25",
"g  c #5D2915",
"h  c #5E421C",
"j  c #6D410D",
"k  c #6B4207",
"l  c #734103",
"z  c #72400B",
"x  c #7A4103",
"c  c #6D4112",
"v  c #63421D",
"b  c #68431A",
"n  c #724114",
"m  c #7C531E",
"M  c #5E4222",
"N  c #5B4529",
"B  c #564736",
"V  c #644322",
"C  c #694322",
"Z  c #654529",
"A  c #7B4E28",
"S  c #7C5225",
"D  c #7B522B",
"F  c #755334",
"G  c #000049",
"H  c #000054",
"J  c #00005D",
"K  c #000064",
"L  c #00006A",
"P  c #000071",
"I  c #1B2977",
"U  c #262A6E",
"Y  c #222463",
"T  c #6B5744",
"R  c #813C02",
"E  c #813A09",
"W  c #DA3E1A",
"Q  c #DA3A09",
"!  c #FD2F01",
"~  c #F82E01",
"^  c #E4360C",
"/  c #E63B0D",
"(  c #E93B0E",
")  c #E83908",
"_  c #FE3300",
"`  c #FC3901",
"'  c #FE330A",
"]  c #F53705",
"[  c #E53B12",
"{  c #EA3B12",
"}  c #E93814",
"|  c #F13912",
" . c #EF2E00",
".. c #D63F27",
"X. c #D73E31",
"o. c #E63D23",
"O. c #814004",
"+. c #8F4F0C",
"@. c #8B4D07",
"#. c #974E01",
"$. c #9A4C01",
"%. c #914D0C",
"&. c #9A4A0C",
"*. c #8E500C",
"=. c #8E5003",
"-. c #92510E",
";. c #9A5102",
":. c #8E4E12",
">. c #8A4E19",
",. c #934D12",
"<. c #994E12",
"1. c #8D5112",
"2. c #88531A",
"3. c #945216",
"4. c #815225",
"5. c #815329",
"6. c #8A5625",
"7. c #884F2C",
"8. c #BB462B",
"9. c #B64B2B",
"0. c #BC4B2D",
"q. c #BA4924",
"w. c #B85129",
"e. c #AC4C35",
"r. c #BD4C32",
"t. c #B84A35",
"y. c #B65237",
"u. c #A95134",
"i. c #B04A15",
"p. c #DA4116",
"a. c #D5431B",
"s. c #DA411B",
"d. c #D74518",
"f. c #D64212",
"g. c #E6410B",
"h. c #E34112",
"j. c #F44415",
"k. c #C14B2D",
"l. c #C54828",
"z. c #D4402B",
"x. c #D64124",
"c. c #C14B32",
"v. c #C54734",
"b. c #C15132",
"n. c #CC4A2D",
"m. c #97564A",
"M. c #A95248",
"N. c #A3625A",
"B. c #FFFF01",
"V. c #FFFF0B",
"C. c #F9F318",
"Z. c #F8F822",
"A. c #F0F23D",
"S. c #EEF545",
"D. c #F3F64C",
"F. c #F5FA4B",
"G. c #F2F652",
"H. c #F4F364",
"J. c #EEF26D",
"K. c #1A268E",
"L. c #16298D",
"P. c #1A298D",
"I. c #192887",
"U. c #1B2692",
"Y. c #162993",
"T. c #1A2993",
"R. c #182797",
"E. c #152C90",
"W. c #222789",
"Q. c #212896",
"!. c #243289",
"~. c #1C1DA5",
"^. c #0E1EBB",
"/. c #241EA6",
"(. c #1725AA",
"). c #0C24BE",
"_. c #0C23B2",
"`. c #1124BE",
"'. c #1525B3",
"]. c #0F28AE",
"[. c #2221A4",
"{. c #2221AA",
"}. c #2821A5",
"|. c #2522B0",
" X c #1B1E93",
".X c #111FC4",
"XX c #0C1EDB",
"oX c #071ED8",
"OX c #101FD4",
"+X c #0D25C3",
"@X c #0D26C7",
"#X c #1123C3",
"$X c #1129C4",
"%X c #1226CA",
"&X c #0622D6",
"*X c #0A22D6",
"=X c #0623DB",
"-X c #0A22DB",
";X c #0828DB",
":X c #1127D9",
">X c #0C1FE2",
",X c #061EE2",
"<X c #0422E1",
"1X c #0B23E1",
"2X c #0E26E4",
"3X c #1026E1",
"4X c #FCCC8E",
"5X c #FDC795",
"6X c #FECC96",
"7X c #FEC79B",
"8X c #F6CC9D",
"9X c #FECC9A",
"0X c #F5CA96",
"qX c #FDD09B",
"wX c #F8D199",
"eX c #EDD09D",
"rX c #ECCDAD",
"tX c #E7CCA9",
"yX c #F5CDA3",
"uX c #FBCDA2",
"iX c #F3CEAA",
"pX c #FBCCAA",
"aX c #FCC7A3",
"sX c #ECD1AE",
"dX c #E9D1A8",
"fX c #F4D1A4",
"gX c #FBD1A3",
"hX c #F3D1AB",
"jX c #FCD1AA",
"kX c #EDCEB3",
"lX c #E8CDB8",
"zX c #F1CEB3",
"xX c #F5CCBA",
"cX c #ECD1B3",
"vX c #EBD2BA",
"bX c #E6D2B7",
"nX c #F1D1B3",
"mX c #F4D2B9",
"MX c #E4DEA1",
"NX c #DBD1C6",
"BX c #E9D3C6",
"VX c #FEFAED",
"CX c #FFFCF5",
"ZX c #F6FCFE",
"AX c #FDFDFD",
"SX c white",
"DX c #FEFEFE",
"FX c #FDFEFE",
"GX c #FFFFFF",
"HX c #FBF7F9",
"JX c #EDF5FB",
"KX c #FABF8C",
/* pixels */
"DXDXHX  DXDXDXDXDXDXDXDXDXDXDXDXDXDXDXDXDXDXDXDXDXDXDXDXAXDX  DXDXDXDXDXDXDXDXDXDXDXDXDXDXDXDXDXDXDXDXDXDXDXDXDXDX  DXHXDXDXDXDXDXDXDXDXDXDXDXDXDXDXDXDXDXDXDXDXDXDXAXDX  DXHXDXDXDXDXDXDXDXDXDXDXDXDXDXDXDXDXDXDXDXDXDXDXAXDX  DXDXDXDXDXDXDXDXDXDXAXAXDXDXDXDXDXDXDXDXDXDXDXDXAXDX  AXDXDXDXDXDXDXDXDXDXDXDXDXAXAXAXAXAXAXAXAXAXAXDXAXCX  DXAXDXDXDXDXDXDXDXDXDXDXDXDXDXDXDXDXAXAXAXAXAXAXAXAX  DXCXDXDXDXAXAXDXDXDXDXDXDXDXDXDXDXDXDXAXAXAXAXDXDXDXX DXAXAXAXDXDXDXDXDXDXDXDXAXAXZXZXZXZXAXAXDXDXDXDXAXDX  HXDXDXDXDXDXDXDXDXDXDXDXDXDXDXDXDXDXDXDXDXDXDXDXDXDX  DXAXDXDXDXDXDXDXDXDXDXDXDXDXDXDXDXDXDXDXDXDXDXDXDXDX  DXDXDXDXDXDXDXDXDXDXDXDXDXDXDXDXDXDXDXDXDXDXDXDXDXHX  DXDXDXDXDXDXDXDXDXDXDXDXDXDXDXDXDXDXDXDXDXDXDXDXAXDX  DX",
"DXDXDX  DXDXDXDXDXDXDXDXDXDXDXDXDXDXDXDXDXDXDXDXDXDXDXDXDXDX  DXDXDXDXDXDXDXDXDXDXDXDXDXDXDXDXDXDXDXDXDXDXDXDXDXDX  DXDXDXDXDXDXDXDXDXDXDXDXDXDXDXDXDXDXDXDXDXDXDXDXDXDX  DXDXDXAXAXDXDXDXDXDXDXDXDXDXDXDXDXDXAXAXAXAXAXAXAXDX  DXDXDXDXDXDXDXDXDXDXDXDXDXDXDXDXDXDXDXDXDXDXDXDXDXDXX DXDXDXDXDXDXDXDXDXDXDXDXDXDXAXAXAXAXAXAXAXAXAXDXDXAX  DXDXDXDXDXDXDXDXDXDXDXDXDXDXDXDXDXDXDXDXDXDXDXDXDXDX  DXCXAXDXDXDXAXDXDXDXDXDXDXDXDXDXDXDXDXAXAXAXAXAXAXDX  AXAXAXAXAXDXDXDXDXDXDXDXAXAXAXAXAXAXAXAXAXAXDXDXDXDX  AXAXAXDXDXDXDXDXDXDXDXDXDXDXDXDXDXDXDXDXDXDXDXDXDXDX  DXDXDXDXDXDXDXDXDXDXDXDXDXDXDXDXDXDXDXDXDXDXDXDXDXDX  DXDXAXDXDXDXDXDXDXDXDXDXDXDXDXDXDXDXDXDXDXDXDXHXDXDX  DXDXDXDXDXDXDXDXDXDXDXDXDXDXDXDXDXDXDXDXDXDXDXDXDXDX  DX",
"HXDXHX  DXDXDXDXDXDXDXDXDXDXDXDXDXDXDXDXDXDXDXDXDXDXDXDXHXAX  DXDXDXDXDXDXDXDXDXDXDXDXDXDXDXDXDXDXDXDXDXDXDXDXDXDX  DXAXDXDXDXDXDXDXDXDXDXDXDXDXDXDXDXDXDXDXDXDXDXDXDXDX  AXDXDXDXDXDXDXDXDXDXDXDXDXDXDXDXDXDXDXDXDXDXDXDXDXAX  AXAXAXAXDXDXDXDXDXDXDXDXDXDXDXDXDXDXDXDXDXDXDXDXAXDX  DXDXDXDXDXDXDXDXDXDXDXDXDXDXDXDXDXDXDXDXDXAXAXDXDXDX  DXAXDXDXDXDXDXDXDXDXAXAXAXAXAXAXAXAXDXDXDXDXDXAXDXAX  CXCXAXDXDXDXDXDXDXDXDXDXDXDXDXDXDXDXDXDXDXDXDXDXDXAX  CXCXCXCXAXDXAXAXAXAXDXDXAXAXAXAXAXAXZXZXZXZXAXAXZXDX  DXDXDXDXDXDXDXDXDXDXDXDXDXDXDXDXDXDXDXDXDXDXDXDXDXDX  AXHXDXDXDXDXDXDXDXDXDXDXDXDXDXDXDXDXDXDXDXDXDXDXDXDX  HXDXHXDXDXDXDXDXDXDXDXDXDXDXDXDXDXDXDXDXDXDXDXHXDXHX  DXDXDXDXDXDXDXDXDXDXDXDXDXDXDXDXDXDXDXDXDXDXDXDXHXAX  DX",
"                                                                                                                                                                        . . - ; - - - - - - - - - - - - - - - - - O O - ; - o o - ; ; ; ; ; ; - - - - - - - - - ; ; ; ; ; ; - - - - O O O - - - - - - - - - - - - - - - O O O - - - - O o o - O - - - - - - - - O O O O O O O O - - - - - - - O o o - ; - - - - ; ; ; ; - - - - - - - - - - - - - O . o O - - - - - - - - - - - - - - - - - O O - - - - O - .                                                                                                             X                                                 X                                                           ",
"DXDXDX  DXDXDXDXDXDXDXDXDXDXDXDXDXDXDXDXDXDXDXDXDXDXDXDXDXDX  DXDXDXDXDXDXDXDXDXDXDXDXDXDXDXDXDXDXDXDXDXDXDXDXDXDX  DXDXDXDXDXDXDXDXDXDXDXDXDXDXDXDXDXDXDXDXDXDXDXDXDXAX- u.n.[ p.p.p.p.p.p.p.p.p.p.p.p.p.p.p.p.a.a.a.s.p.l.u.0 l.d.d.W d.d.d.d.p.p.p.p.p.p.d.p.d.d.d.W d.d.d.W o.z.0 u.l.a.W W W W W W W W s.s.p.p.p.p.d.d.d.p.d.a.a.l.u.0 n.W W W W W s.W s.s.s.s.s.s.s.s.d.d.s.s.p.p.p.p.p.x.0 e.l.W W W a.a.W W W W W W W W W W W W W W W W ..n.u.< l.a.W W W W W p.p.p.p.p.p.p.d.d.d.d.d.d.W W a.d.p.k.O DXDXDXDXDXDXDXDXDXDXDXDXDXDXDXDXDXDXDXDXDXDXDXDXDXDX  DXDXDXDXDXDXDXDXDXDXDXDXDXDXDXDXDXDXDXDXDXDXDXDXDXDX  DXDXDXDXDXDXDXDXDXDXDXDXDXDXDXDXDXDXDXDXDXDXDXDXDXDX  DXDXDXDXDXDXDXDXDXDXDXDXDXDXDXDXDXDXDXDXDXDXDXDXDXDX  DX",
"DXDXDX  DXDXDXDXDXDXDXDXDXDXDXDXDXDXDXDXDXDXDXDXDXDXDXDXDXDX  DXDXDXDXDXDXDXDXDXDXDXDXDXDXDXDXDXDXDXDXDXDXDXDXDXDX  DXDXDXDXDXDXDXDXDXDXDXDXDXDXDXDXDXDXDXDXDXDXDXDXDXCX, 0.| _ _ _ _ _ _ _ _ _ _ _ _ _ _ _ _ _ ] ] _ _ _ ) q.w ( _ _ _ _ _ _ _ _ _ _ _ _ _ _ _ _ _ _ _ _ _ _ _ _ | w k.[ _ _ ! _ _ _ _ ! _ _ _ _ _ _ _ _ _ _ _ _ _ _ / 0.w } ! _ _ _ _ _ _ _ _ _ _ _ _ _ _ _ _ _ _ _ _ _ _ _ ) e 8.{ _ _ _ ] ] _ ! ! ! _ _ _ _ _ _ _ _ _ _ _ _ _ { q.w [ ] _ _ _ _ _ _ _ _ _ _ _ _ _ _ _ _ _ _ ! ! _ _ _ W - DXDXDXDXDXDXDXDXDXDXDXDXDXDXDXDXDXDXDXDXDXDXDXDXDXDX  DXDXDXDXDXDXDXDXDXDXDXDXDXDXDXDXDXDXDXDXDXDXDXDXDXDX  DXDXDXDXDXDXDXDXDXDXDXDXDXDXDXDXDXDXDXDXDXDXDXDXDXDX  DXDXDXDXDXDXDXDXDXDXDXDXDXDXDXDXDXDXDXDXDXDXDXDXDXDX  DX",
"DXDXDX  DXDXDXDXDXDXDXDXDXDXDXDXDXDXDXDXDXDXDXDXDXDXDXDXDXDX  DXDXDXDXDXDXDXDXDXDXDXDXDXDXDXDXDXDXDXDXDXDXDXDXDXDX  DXDXDXDXDXDXDXDXDXDXDXDXDXDXDXDXDXDXDXDXDXDXDXDXDXHX, 0.{ _ _ _ _ _ _ _ _ _ _ _ _ _ _ _ _ _ _ ] ' _ _ ) q.e ( _ _ _ _ _ _ _ _ _ _ _ _ _ _ _ _ _ _ _ _ _ _ _ _ ( w 0./ ] _ _ _ _ _ _ _ _ _ _ _ _ _ _ _ _ _ _ _ _ _ [ 0.w } ! _ _ _ _ _ _ _ _ _ ' ' ' ' _ _ _ _ _ _ _ _ _ _ ( e q.) _ _ _ ' _ _ ! ! ! _ _ _ _ _ _ _ _ _ _ _ _ _ { q.e [ _ _ _ _ _ _ _ _ _ _ _ _ _ _ _ _ _ _ _ _ _ _ _ _ p.- DXDXDXDXDXDXDXDXDXDXDXDXDXDXDXDXDXDXDXDXDXDXDXDXDXDX  DXDXDXDXDXDXDXDXDXDXDXDXDXDXDXDXDXDXDXDXDXDXDXDXDXDX  DXDXDXDXDXDXDXDXDXDXDXDXDXDXDXDXDXDXDXDXDXDXDXDXDXDX  DXDXDXDXDXDXDXDXDXDXDXDXDXDXDXDXDXDXDXDXDXDXDXDXDXDX  DX",
"DXDXDX  DXDXDXDXDXDXDXDXDXDXDXDXDXDXDXDXDXDXDXDXDXDXDXDXDXDX  DXDXDXDXDXDXDXDXDXDXDXDXDXDXDXDXDXDXDXDXDXDXDXDXDXDX  DXDXDXDXDXDXDXDXDXDXDXDXDXDXDXDXDXDXDXDXDXDXDXDXDXHX, 0.( _ _ _ _ _ _ _ _ _ _ _ _ _ _ _ _ _ _ _ ' _ _ ) 8.e ( _ _ _ _ _ _ _ _ _ _ _ _ _ _ _ _ _ _ _ _ _ _ _ ` g.w 9./ ] _ _ _ _ _ _ _ _ _ _ _ _ _ _ _ _ _ _ _ _ _ [ 0.w } ! _ _ _ _ _ _ _ _ _ _ _ _ _ _ _ _ _ _ _ _ _ _ _ ( e q.) _ _ _ _ _ _ _ _ _ _ _ _ _ _ _ _ _ _ _ _ _ _ ( 8.e [ _ _ _ _ _ _ _ _ _ _ _ _ _ _ _ _ _ _ _ _ _ _ _ _ p.- DXAXAXDXDXDXDXDXDXDXDXDXDXDXDXDXDXDXDXDXDXDXDXDXDXDX  DXDXDXDXDXDXDXDXDXDXDXDXDXDXDXDXDXDXDXDXDXDXDXDXDXDX  DXDXDXDXDXDXDXDXDXDXDXDXDXDXDXDXDXDXDXDXDXDXDXDXDXDX  DXDXDXDXDXDXDXDXDXDXDXDXDXDXDXDXDXDXDXDXDXDXDXDXDXDX  DX",
"DXDXDX  DXDXDXDXDXDXDXDXDXDXDXDXDXDXDXDXDXDXDXDXDXDXDXDXDXDX  DXDXDXDXDXDXDXDXDXDXDXDXDXDXDXDXDXDXDXDXDXDXDXDXDXDX  DXDXDXDXDXDXDXDXDXDXDXDXDXDXDXDXDXDXDXDXDXDXDXDXDXCX, 8.( _ _ _ _ _ _ _ _ _ _ _ _ _ _ _ _ _ _ _ _ _ _ ( 8.w ( _ _ _ _ _ _ _ _ _ _ _ _ _ _ _ _ _ _ _ _ _ _ _ _ ( w 0./ _ _ _ _ _ _ _ _ _ _ _ _ _ _ _ _ _ _ _ _ _ _ ( 0.e ( _ _ _ _ _ _ _ _ _ _ _ _ _ _ _ _ _ _ _ _ _ _ _ _ { w 8.( ! _ _ _ _ _ _ _ _ _ _ _ _ _ _ _ _ _ _ _ _ _ ( 8.w / _ _ _ _ _ _ _ _ _ _ _ _ _ _ _ _ _ _ _ _ _ _ _ _ p.- DXDXAXDXDXDXDXAXAXDXDXDXDXDXDXDXDXDXDXDXDXDXDXDXDXDX  DXDXDXDXDXDXDXDXDXDXDXDXDXDXDXDXDXDXDXDXDXDXDXDXDXDX  DXDXDXDXDXDXDXDXDXDXDXDXDXDXDXDXDXDXDXDXDXDXDXDXDXDX  DXDXDXDXDXDXDXDXDXDXDXDXDXDXDXDXDXDXDXDXDXDXDXDXDXDX  DX",
"DXDXDX  DXDXDXDXDXDXDXDXDXDXDXDXDXDXDXDXDXDXDXDXDXDXDXDXDXDX  DXDXDXDXDXDXDXDXDXDXDXDXDXDXDXDXDXDXDXDXDXDXDXDXDXDX  DXDXDXDXDXDXDXDXDXDXDXDXDXDXDXDXDXDXDXDXDXDXDXDXDXCX, 8.( _ _ _ _ _ _ _ _ _ _ _ _ _ _ _ _ _ _ _ _ _ _ ( 8.w ( _ _ _ _ _ _ _ _ _ _ _ _ _ _ _ _ _ _ _ _ _ _ _ _ { w r./ _ _ _ _ _ _ _ _ _ _ _ _ _ _ _ _ _ _ _ _ _ _ ( 0.w ( _ _ _ _ _ _ _ _ _ _ _ _ _ _ _ _ _ _ _ _ _ _ _ _ { w 8.{ ! ! _ _ _ _ _ _ _ _ _ _ _ _ _ _ _ _ _ _ _ _ ( 8.w / _ _ _ _ _ _ _ _ _ _ _ _ _ _ _ _ _ _ _ _ _ _ _ _ d.- AXDXAXAXAXAXAXAXAXDXDXDXDXDXDXDXDXDXDXDXDXDXDXDXDXDX  DXDXDXDXDXDXDXDXDXDXDXDXDXDXDXDXDXDXDXDXDXDXDXDXDXDX  DXDXDXDXDXDXDXDXDXDXDXDXDXDXDXDXDXDXDXDXDXDXDXDXDXDX  DXDXDXDXDXDXDXDXDXDXDXDXDXDXDXDXDXDXDXDXDXDXDXDXDXDX  DX",
"DXDXDX  DXDXDXDXDXDXDXDXDXDXDXDXDXDXDXDXDXDXDXDXDXDXDXDXDXDX  DXDXDXDXDXDXDXDXDXDXDXDXDXDXDXDXDXDXDXDXDXDXDXDXDXDX  DXDXDXDXDXDXDXDXDXDXDXDXDXDXDXDXDXDXDXDXDXDXDXDXDXCX, 0.( _ _ _ _ _ _ _ _ _ _ _ _ _ _ _ _ _ _ _ _ _ _ ( 8.w ( _ _ _ _ _ _ _ _ _ _ _ _ _ _ _ _ _ _ _ _ _ _ _ _ { w r./ _ _ _ _ _ _ _ _ _ _ _ _ _ _ _ _ _ _ _ _ _ _ ( 0.w ( _ _ _ _ _ _ _ _ _ _ _ _ _ _ _ _ _ _ _ _ _ _ _ _ { w 8.{ ! ! _ _ _ _ _ _ _ _ _ _ _ _ _ _ _ _ _ _ _ _ ( 8.w / _ _ _ _ _ _ _ _ _ _ _ _ _ _ _ _ _ _ _ _ _ _ _ _ d.; AXDXAXAXAXAXAXAXAXDXDXDXDXDXDXDXDXDXDXDXDXDXDXDXDXDX  DXDXDXDXDXDXDXDXDXDXDXDXDXDXDXDXDXDXDXDXDXDXDXDXDXDX  DXDXDXDXDXDXDXDXDXDXDXDXDXDXDXDXDXDXDXDXDXDXDXDXDXDX  DXDXDXDXDXDXDXDXDXDXDXDXDXDXDXDXDXDXDXDXDXDXDXDXDXDX  DX",
"DXDXDX  DXDXDXDXDXDXDXDXDXDXDXDXDXDXDXDXDXDXDXDXDXDXDXDXDXDX  DXDXDXDXDXDXDXDXDXDXDXDXDXDXDXDXDXDXDXDXDXDXDXDXDXDX  DXDXDXDXDXDXDXDXDXDXDXDXDXDXDXDXDXDXDXDXDXDXDXDXDXCX, 0.( _ _ _ _ _ _ _ _ _ _ _ _ _ _ _ _ _ _ _ _ _ _ ( 8.w ( _ _ _ _ _ _ _ _ _ _ _ _ _ _ _ _ _ _ _ _ _ _ _ _ { w r./ _ _ _ _ _ _ _ _ _ _ _ _ _ _ _ _ _ _ _ _ _ _ ( 0.w ( _ _ _ _ _ _ _ _ _ _ _ _ _ _ _ _ _ _ _ _ _ _ _ _ { w 8.{ ! ! _ _ _ _ _ _ _ _ _ _ _ _ _ _ _ _ _ _ _ _ ( 8.w / _ _ _ _ _ _ _ _ _ _ _ _ _ _ _ _ _ _ _ _ _ _ _ _ d.; AXDXAXAXAXAXAXAXAXDXDXDXDXDXDXDXDXDXDXDXDXDXDXDXDXDX  DXDXDXDXDXDXDXDXDXDXDXDXDXDXDXDXDXDXDXDXDXDXDXDXDXDX  DXDXDXDXDXDXDXDXDXDXDXDXDXDXDXDXDXDXDXDXDXDXDXDXDXDX  DXDXDXDXDXDXDXDXDXDXDXDXDXDXDXDXDXDXDXDXDXDXDXDXDXDX  DX",
"DXDXDX  DXDXDXDXDXDXDXDXDXDXDXDXDXDXDXDXDXDXDXDXDXDXDXDXDXDX  DXDXDXDXDXDXDXDXDXDXDXDXDXDXDXDXDXDXDXDXDXDXDXDXDXDX  DXDXDXDXDXDXDXDXDXDXDXDXDXDXDXDXDXDXDXDXDXDXDXDXDXCX, 8.( _ _ _ _ _ _ _ _ _ _ _ _ _ _ _ _ _ _ _ _ _ _ ( 8.w ( _ _ _ _ _ _ _ _ _ _ _ _ _ _ _ _ _ _ _ _ _ _ _ _ { w r.( _ _ _ _ _ _ _ _ _ _ _ _ _ _ _ _ _ _ _ _ _ _ ( 0.w ( _ _ _ _ _ _ _ _ _ _ _ _ _ _ _ _ _ _ _ _ _ _ _ _ { w 0.{ _ _ _ _ _ _ _ _ _ _ _ _ _ _ _ _ _ _ _ _ _ _ ( 8.w / _ _ _ _ _ _ _ _ _ _ _ _ _ _ _ _ _ _ _ _ _ _ _ _ d.; AXDXAXAXAXAXAXAXAXDXDXDXDXDXDXDXDXDXDXDXDXDXDXDXDXDX  DXDXDXDXDXDXDXDXDXDXDXDXDXDXDXDXDXDXDXDXDXDXDXDXDXDX  DXDXDXDXDXDXDXDXDXDXDXDXDXDXDXDXDXDXDXDXDXDXDXDXDXDX  DXDXDXDXDXDXDXDXDXDXDXDXDXDXDXDXDXDXDXDXDXDXDXDXDXDX  DX",
"DXDXDX  DXDXDXDXDXDXDXDXDXDXDXDXDXDXDXDXDXDXDXDXDXDXDXDXDXDX  DXDXDXDXDXDXDXDXDXDXDXDXDXDXDXDXDXDXDXDXDXDXDXDXDXDX  DXDXDXDXDXDXDXDXDXDXDXDXDXDXDXDXDXDXDXDXDXDXDXDXDXCX, 8.( _ _ _ _ _ _ _ _ _ _ _ _ _ _ _ _ _ _ _ _ _ _ ( 8.w ( _ _ _ _ _ _ _ _ _ _ _ _ _ _ _ _ _ _ _ _ _ _ _ _ { w r.( _ _ _ _ _ _ _ _ _ _ _ _ _ _ _ _ _ _ _ _ _ _ ( 0.w ( _ _ _ _ _ _ _ _ _ _ _ _ _ _ _ _ _ _ _ _ _ _ _ _ { w 0.{ _ _ _ _ _ _ _ _ _ _ _ _ _ _ _ _ _ _ _ _ _ _ ( 8.w / _ _ _ _ _ _ _ _ _ _ _ _ _ _ _ _ _ _ _ _ _ _ _ _ d.; AXDXAXAXAXAXAXAXAXDXDXDXDXDXDXDXDXDXDXDXDXDXDXDXDXDX  DXDXDXDXDXDXDXDXDXDXDXDXDXDXDXDXDXDXDXDXDXDXDXDXDXDX  DXDXDXDXDXDXDXDXDXDXDXDXDXDXDXDXDXDXDXDXDXDXDXDXDXDX  DXDXDXDXDXDXDXDXDXDXDXDXDXDXDXDXDXDXDXDXDXDXDXDXDXDX  DX",
"DXDXDX  DXDXDXDXDXDXDXDXDXDXDXDXDXDXDXDXDXDXDXDXDXDXDXDXDXDX  DXDXDXDXDXDXDXDXDXDXDXDXDXDXDXDXDXDXDXDXDXDXDXDXDXDX  DXDXDXDXDXDXDXDXDXDXDXDXDXDXDXDXDXDXDXDXDXDXDXDXDXCX, 8.( _ _ _ _ _ _ _ _ _ _ _ _ _ _ _ _ _ _ _ _ _ _ ( 8.w ( _ _ _ _ _ _ _ _ _ _ _ _ _ _ _ _ _ _ _ _ _ _ _ _ { w r.( _ _ _ _ _ _ _ _ _ _ _ _ _ _ _ _ _ _ _ _ _ _ ( 0.w ( _ _ _ _ _ _ _ _ _ _ _ _ _ _ _ _ _ _ _ _ _ _ _ _ { w 9.{ _ _ _ _ _ _ _ _ _ _ _ _ _ _ _ _ _ _ _ _ _ _ ( 8.w / _ _ _ _ _ _ _ _ _ _ _ _ _ _ _ _ _ _ _ _ _ _ _ _ d.; AXDXAXAXAXAXAXAXAXDXDXDXDXDXDXDXDXDXDXDXDXDXDXDXDXDX  DXDXDXDXDXDXDXDXDXDXDXDXDXDXDXDXDXDXDXDXDXDXDXDXDXDX  DXDXDXDXDXDXDXDXDXDXDXDXDXDXDXDXDXDXDXDXDXDXDXDXDXDX  DXDXDXDXDXDXDXDXDXDXDXDXDXDXDXDXDXDXDXDXDXDXDXDXDXDX  DX",
"DXDXDX  DXDXDXDXDXDXDXDXDXDXDXDXDXDXDXDXDXDXDXDXDXDXDXDXDXDX  DXDXDXDXDXDXDXDXDXDXDXDXDXDXDXDXDXDXDXDXDXDXDXDXDXDX  DXDXDXDXDXDXDXDXDXDXDXDXDXDXDXDXDXDXDXDXDXDXDXDXDXCX, 8.( _ _ _ _ _ _ _ _ _ _ _ _ _ _ _ _ _ _ _ _ _ _ ( 8.w ( _ _ _ _ _ _ _ _ _ _ _ _ _ _ _ _ _ _ _ _ _ _ _ _ { w r.( _ _ _ _ _ _ _ _ _ _ _ _ _ _ _ _ _ _ _ _ _ _ ( 0.w ( _ _ _ _ _ _ _ _ _ _ _ _ _ _ _ _ _ _ _ _ _ _ _ _ { w 9.{ _ _ _ _ _ _ _ _ _ _ _ _ _ _ _ _ _ _ _ _ _ _ ( 8.w / _ _ _ _ _ _ _ _ _ _ _ _ _ _ _ _ _ _ _ _ _ _ _ _ d.; AXDXAXAXAXAXAXAXAXDXDXDXDXDXDXDXDXDXDXDXDXDXDXDXDXDX  DXDXDXDXDXDXDXDXDXDXDXDXDXDXDXDXDXDXDXDXDXDXDXDXDXDX  DXDXDXDXDXDXDXDXDXDXDXDXDXDXDXDXDXDXDXDXDXDXDXDXDXDX  DXDXDXDXDXDXDXDXDXDXDXDXDXDXDXDXDXDXDXDXDXDXDXDXDXDX  DX",
"DXDXDX  DXDXDXDXDXDXDXDXDXDXDXDXDXDXDXDXDXDXDXDXDXDXDXDXDXDX  DXDXDXDXDXDXDXDXDXDXDXDXDXDXDXDXDXDXDXDXDXDXDXDXDXDX  DXDXDXDXDXDXDXDXDXDXDXDXDXDXDXDXDXDXDXDXDXDXDXDXDXCX, 8.( _ _ _ _ _ _ _ _ _ _ _ _ _ _ _ _ _ _ _ _ _ _ ( 8.w ( _ _ _ _ _ _ _ _ _ _ _ _ _ _ _ _ _ _ _ _ _ _ _ _ { q 0./ _ _ _ _ _ _ _ _ _ _ _ _ _ _ _ _ _ _ _ _ _ _ ( 0.w ( ! _ _ _ _ _ _ _ _ _ _ _ _ _ _ _ _ _ _ _ _ _ _ _ ( w 0.{ _ _ _ _ _ _ _ _ _ _ _ _ _ _ _ _ _ _ _ _ _ _ ( 0.e ( _ _ _ _ _ _ _ _ _ _ _ _ _ _ _ _ _ _ _ _ _ _ _ _ d.; AXDXDXDXDXDXDXDXDXDXDXDXDXDXDXDXDXDXDXDXDXDXDXDXDXDX  DXDXDXDXDXDXDXDXDXDXDXDXDXDXDXDXDXDXDXDXDXDXDXDXDXDX  DXDXDXDXDXDXDXDXDXDXDXDXDXDXDXDXDXDXDXDXDXDXDXDXDXDX  DXDXDXDXDXDXDXDXDXDXDXDXDXDXDXDXDXDXDXDXDXDXDXDXDXDX  DX",
"DXDXDX  DXDXDXDXDXDXDXDXDXDXDXDXDXDXDXDXDXDXDXDXDXDXDXDXDXDX  DXDXDXDXDXDXDXDXDXDXDXDXDXDXDXDXDXDXDXDXDXDXDXDXDXDX  DXDXDXDXDXDXDXDXDXDXDXDXDXDXDXDXDXDXDXDXDXDXDXDXDXCX, 0.( _ _ _ _ _ _ _ _ _ _ _ _ _ _ _ _ _ _ _ _ _ _ ( 8.w ( _ _ _ _ _ _ _ _ _ _ _ _ _ _ _ _ _ _ _ _ _ _ _ _ { q 0./ _ _ _ _ _ _ _ _ _ _ _ _ _ _ _ _ _ _ _ _ _ _ / 0.w ( ! _ _ _ _ _ _ _ _ _ _ _ _ _ _ _ _ _ _ _ _ _ _ _ ( w 0.{ _ _ _ _ _ _ _ _ _ _ _ _ _ _ _ _ _ _ _ _ _ _ ( 0.e ( _ _ _ _ _ _ _ _ _ _ _ _ _ _ _ _ _ _ _ _ _ _ _ _ d.; AXDXDXDXDXDXDXDXDXDXDXDXDXDXDXDXDXDXDXDXDXDXDXDXDXDX  DXDXDXDXDXDXDXDXDXDXDXDXDXDXDXDXDXDXDXDXDXDXDXDXDXDX  DXDXDXDXDXDXDXDXDXDXDXDXDXDXDXDXDXDXDXDXDXDXDXDXDXDX  DXDXDXDXDXDXDXDXDXDXDXDXDXDXDXDXDXDXDXDXDXDXDXDXDXDX  DX",
"DXDXDX  DXDXDXDXDXDXDXDXDXDXDXDXDXDXDXDXDXDXDXDXDXDXDXDXDXDX  DXDXDXDXDXDXDXDXDXDXDXDXDXDXDXDXDXDXDXDXDXDXDXDXDXDX  DXDXDXDXDXDXDXDXDXDXDXDXDXDXDXDXDXDXDXDXDXDXDXDXDXCX, 8.( _ _ _ _ _ _ _ _ _ _ _ _ _ _ _ _ _ _ _ _ _ _ ( 8.w ( _ _ _ _ _ _ _ _ _ _ _ _ _ _ _ _ _ _ _ _ _ _ _ _ { q 0./ _ _ _ _ _ _ _ _ _ _ _ _ _ _ _ _ _ _ _ _ _ _ / r.w ( ! _ _ _ _ _ _ _ _ _ _ _ _ _ _ _ _ _ _ _ _ _ _ _ ( w 0.{ _ _ _ _ _ _ _ _ _ _ _ _ _ _ _ _ _ _ _ _ _ _ ( 0.e ( _ _ _ _ _ _ _ _ _ _ _ _ _ _ _ _ _ _ _ _ _ _ _ _ d.; AXDXDXDXDXDXDXDXDXDXDXDXDXDXDXDXDXDXDXDXDXDXDXDXDXDX  DXDXDXDXDXDXDXDXDXDXDXDXDXDXDXDXDXDXDXDXDXDXDXDXDXDX  DXDXDXDXDXDXDXDXDXDXDXDXDXDXDXDXDXDXDXDXDXDXDXDXDXDX  DXDXDXDXDXDXDXDXDXDXDXDXDXDXDXDXDXDXDXDXDXDXDXDXDXDX  DX",
"DXDXDX  DXDXDXDXDXDXDXDXDXDXDXDXDXDXDXDXDXDXDXDXDXDXDXDXDXDX  DXDXDXDXDXDXDXDXDXDXDXDXDXDXDXDXDXDXDXDXDXDXDXDXDXDX  DXDXDXDXDXDXDXDXDXDXDXDXDXDXDXDXDXDXDXDXDXDXDXDXDXCX, 8.( _ _ _ _ _ _ _ _ _ _ _ _ _ _ _ _ _ _ _ _ _ _ ( 8.w ( _ _ _ _ _ _ _ _ _ _ _ _ _ _ _ _ _ _ _ _ _ _ _ _ { q r./ _ _ _ _ _ _ _ _ _ _ _ _ _ _ _ _ _ _ _ _ _ _ / r.w ( ! _ _ _ _ _ _ _ _ _ _ _ _ _ _ _ _ _ _ _ _ _ _ _ ( w 0.{ _ _ _ _ _ _ _ _ _ _ _ _ _ _ _ _ _ _ _ _ _ _ ( 0.e ( _ _ _ _ _ _ _ _ _ _ _ _ _ _ _ _ _ _ _ _ _ _ _ _ d.; AXDXDXDXDXDXDXDXDXDXDXDXDXDXDXDXDXDXDXDXDXDXDXDXDXDX  DXDXDXDXDXDXDXDXDXDXDXDXDXDXDXDXDXDXDXDXDXDXDXDXDXDX  DXDXDXDXDXDXDXDXDXDXDXDXDXDXDXDXDXDXDXDXDXDXDXDXDXDX  DXDXDXDXDXDXDXDXDXDXDXDXDXDXDXDXDXDXDXDXDXDXDXDXDXDX  DX",
"DXDXDX  DXDXDXDXDXDXDXDXDXDXDXDXDXDXDXDXDXDXDXDXDXDXDXDXDXDX  DXDXDXDXDXDXDXDXDXDXDXDXDXDXDXDXDXDXDXDXDXDXDXDXDXDX  DXDXDXDXDXDXDXDXDXDXDXDXDXDXDXDXDXDXDXDXDXDXDXDXDXCX, 8.( _ _ _ _ _ _ _ _ _ _ _ _ _ _ _ _ _ _ _ _ _ _ ( 8.w ( _ _ _ _ _ _ _ _ _ _ _ _ _ _ _ _ _ _ _ _ _ _ _ _ { q 0./ _ _ _ _ _ _ _ _ _ _ _ _ _ _ _ _ _ _ _ _ _ _ / 0.w ( ! _ _ _ _ _ _ _ _ _ _ _ _ _ _ _ _ _ _ _ _ _ _ _ ( w 0.{ _ _ _ _ _ _ _ _ _ _ _ _ _ _ _ _ _ _ _ _ _ _ ( 0.e ( _ _ _ _ _ _ _ _ _ _ _ _ _ _ _ _ _ _ _ _ _ _ _ _ d.; AXDXDXDXDXDXDXDXDXDXDXDXDXDXDXDXDXDXDXDXDXDXDXDXDXDX  DXDXDXDXDXDXDXDXDXDXDXDXDXDXDXDXDXDXDXDXDXDXDXDXDXDX  DXDXDXDXDXDXDXDXDXDXDXDXDXDXDXDXDXDXDXDXDXDXDXDXDXDX  DXDXDXDXDXDXDXDXDXDXDXDXDXDXDXDXDXDXDXDXDXDXDXDXDXDX  DX",
"DXDXDX  DXDXDXDXDXDXDXDXDXDXDXDXDXDXDXDXDXDXDXDXDXDXDXDXDXDX  DXDXDXDXDXDXDXDXDXDXDXDXDXDXDXDXDXDXDXDXDXDXDXDXDXDX  DXDXDXDXDXDXDXDXDXDXDXDXDXDXDXDXDXDXDXDXDXDXDXDXDXCX, 8.( _ _ _ _ _ _ _ _ _ _ _ _ _ _ _ _ _ _ _ _ _ _ ( 8.w ( _ _ _ _ _ _ _ _ _ _ _ _ _ _ _ _ _ _ _ _ _ _ _ _ { q 0./ _ _ _ _ _ _ _ _ _ _ _ _ _ _ _ _ _ _ _ _ _ _ / 0.w ( ! _ _ _ _ _ _ _ _ _ _ _ _ _ _ _ _ _ _ _ _ _ _ _ ( w 0.{ _ _ _ _ _ _ _ _ _ _ _ _ _ _ _ _ _ _ _ _ _ _ ( 0.e ( _ _ _ _ _ _ _ _ _ _ _ _ _ _ _ _ _ _ _ _ _ _ _ _ d.; DXDXDXDXDXDXDXDXDXDXDXDXDXDXDXDXDXDXDXDXDXDXDXDXDXDX  DXDXDXDXDXDXDXDXDXDXDXDXDXDXDXDXDXDXDXDXDXDXDXDXDXDX  DXDXDXDXDXDXDXDXDXDXDXDXDXDXDXDXDXDXDXDXDXDXDXDXDXDX  DXDXDXDXDXDXDXDXDXDXDXDXDXDXDXDXDXDXDXDXDXDXDXDXDXDX  DX",
"DXDXDX  DXDXDXDXDXDXDXDXDXDXDXDXDXDXDXDXDXDXDXDXDXDXDXDXDXDX  DXDXDXDXDXDXDXDXDXDXDXDXDXDXDXDXDXDXDXDXDXDXDXDXDXDX  DXDXDXDXDXDXDXDXDXDXDXDXDXDXDXDXDXDXDXDXDXDXDXDXDXCX, 8.( _ _ _ _ _ _ _ _ _ _ _ _ _ _ _ _ _ _ _ _ _ _ ( 8.w ( _ _ _ _ _ _ _ _ _ _ _ _ _ _ _ _ _ _ _ _ _ _ _ _ { q 0./ _ _ _ _ _ _ _ _ _ _ _ _ _ _ _ _ _ _ _ _ _ _ / 0.w ( ! _ _ _ _ _ _ _ _ _ _ _ _ _ _ _ _ _ _ _ _ _ _ _ ( w 0.{ _ _ _ _ _ _ _ _ _ _ _ _ _ _ _ _ _ _ _ _ _ _ ( 0.e ( _ _ _ _ _ _ _ _ _ _ _ _ _ _ _ _ _ _ _ _ _ _ _ _ d.; DXDXDXDXDXDXDXDXDXDXDXDXDXDXDXDXDXDXDXDXDXDXDXDXDXDX  DXDXDXDXDXDXDXDXDXDXDXDXDXDXDXDXDXDXDXDXDXDXDXDXDXDX  DXDXDXDXDXDXDXDXDXDXDXDXDXDXDXDXDXDXDXDXDXDXDXDXDXDX  DXDXDXDXDXDXDXDXDXDXDXDXDXDXDXDXDXDXDXDXDXDXDXDXDXDX  DX",
"DXDXDX  DXDXDXDXDXDXDXDXDXDXDXDXDXDXDXDXDXDXDXDXDXDXDXDXDXDX  DXDXDXDXDXDXDXDXDXDXDXDXDXDXDXDXDXDXDXDXDXDXDXDXDXDX  DXDXDXDXDXDXDXDXDXDXDXDXDXDXDXDXDXDXDXDXDXDXDXDXDXCX, 8.( _ _ _ _ _ _ _ _ _ _ _ _ _ _ _ _ _ _ _ _ _ _ ( 8.w ( _ _ _ _ _ _ _ _ _ _ _ _ _ _ _ _ _ _ _ _ _ _ _ _ { q 0./ _ _ _ _ _ _ _ _ _ _ _ _ _ _ _ _ _ _ _ _ _ _ / 0.w ( ! _ _ _ _ _ _ _ _ _ _ _ _ _ _ _ _ _ _ _ _ _ _ _ ( w 0.{ _ _ _ _ _ _ _ _ _ _ _ _ _ _ _ _ _ _ _ _ _ _ ( 0.e ( _ _ _ _ _ _ _ _ _ _ _ _ _ _ _ _ _ _ _ _ _ _ _ _ d.; DXDXDXDXDXDXDXDXDXDXDXDXDXDXDXDXDXDXDXDXDXDXDXDXDXDX  DXDXDXDXDXDXDXDXDXDXDXDXDXDXDXDXDXDXDXDXDXDXDXDXDXDX  DXDXDXDXDXDXDXDXDXDXDXDXDXDXDXDXDXDXDXDXDXDXDXDXDXDX  DXDXDXDXDXDXDXDXDXDXDXDXDXDXDXDXDXDXDXDXDXDXDXDXDXDX  DX",
"DXDXDX  DXDXDXDXDXDXDXDXDXDXDXDXDXDXDXDXDXDXDXDXDXDXDXDXDXDX  DXDXDXDXDXDXDXDXDXDXDXDXDXDXDXDXDXDXDXDXDXDXDXDXDXDX  DXDXDXDXDXDXDXDXDXDXDXDXDXDXDXDXDXDXDXDXDXDXDXDXDXCX, 8.( _ _ _ _ _ _ _ _ _ _ _ _ _ _ _ _ _ _ _ _ _ _ ( 8.w ( _ _ _ _ _ _ _ _ _ _ _ _ _ _ _ _ _ _ _ _ _ _ _ _ { q 0./ _ _ _ _ _ _ _ _ _ _ _ _ _ _ _ _ _ _ _ _ _ _ / 0.w ( ! _ _ _ _ _ _ _ _ _ _ _ _ _ _ _ _ _ _ _ _ _ _ _ ( w 0.{ _ _ _ _ _ _ _ _ _ _ _ _ _ _ _ _ _ _ _ _ _ _ ( 0.e ( _ _ _ _ _ _ _ _ _ _ _ _ _ _ _ _ _ _ _ _ _ _ _ _ d.- DXDXDXDXDXDXDXDXDXDXDXDXDXDXDXDXDXDXDXDXDXDXDXDXDXDX  DXDXDXDXDXDXDXDXDXDXDXDXDXDXDXDXDXDXDXDXDXDXDXDXDXDX  DXDXDXDXDXDXDXDXDXDXDXDXDXDXDXDXDXDXDXDXDXDXDXDXDXDX  DXDXDXDXDXDXDXDXDXDXDXDXDXDXDXDXDXDXDXDXDXDXDXDXDXDX  DX",
"DXDXDX  DXDXDXDXDXDXDXDXDXDXDXDXDXDXDXDXDXDXDXDXDXDXDXDXDXDX  DXDXDXDXDXDXDXDXDXDXDXDXDXDXDXDXDXDXDXDXDXDXDXDXDXDX  DXDXDXDXDXDXDXDXDXDXDXDXDXDXDXDXDXDXDXDXDXDXDXDXDXCX, 8.( _ _ _ _ _ _ _ _ _ _ _ _ _ _ _ _ _ _ _ _ _ _ ( 8.w ( _ _ _ _ _ _ _ _ _ _ _ _ _ _ _ _ _ _ _ _ _ _ _ _ { q 0./ _ _ _ _ _ _ _ _ _ _ _ _ _ _ _ _ _ _ _ _ _ _ / r.w ( ! _ _ _ _ _ _ _ _ _ _ _ _ _ _ _ _ _ _ _ _ _ _ _ ( w 0.{ _ _ _ _ _ _ _ _ _ _ _ _ _ _ _ _ _ _ _ _ _ _ ( 0.e ( _ _ _ _ _ _ _ _ _ _ _ _ _ _ _ _ _ _ _ _ _ _ _ _ d.- DXDXDXDXDXDXDXDXDXDXDXDXDXDXDXDXDXDXDXDXDXDXDXDXDXDX  DXDXDXDXDXDXDXDXDXDXDXDXDXDXDXDXDXDXDXDXDXDXDXDXDXDX  DXDXDXDXDXDXDXDXDXDXDXDXDXDXDXDXDXDXDXDXDXDXDXDXDXDX  DXDXDXDXDXDXDXDXDXDXDXDXDXDXDXDXDXDXDXDXDXDXDXDXDXDX  DX",
"DXDXDX  DXDXDXDXDXDXDXDXDXDXDXDXDXDXDXDXDXDXDXDXDXDXDXDXDXDX  DXDXDXDXDXDXDXDXDXDXDXDXDXDXDXDXDXDXDXDXDXDXDXDXDXDX  DXDXDXDXDXDXDXDXDXDXDXDXDXDXDXDXDXDXDXDXDXDXDXDXDXCX, 8.( _ _ _ _ _ _ _ _ _ _ _ _ _ _ _ _ _ _ _ _ _ _ ( 8.w ( _ _ _ _ _ _ _ _ _ _ _ _ _ _ _ _ _ _ _ _ _ _ _ _ { q 0./ _ _ _ _ _ _ _ _ _ _ _ _ _ _ _ _ _ _ _ _ _ _ / r.w ( ! _ _ _ _ _ _ _ _ _ _ _ _ _ _ _ _ _ _ _ _ _ _ _ ( w 0.{ _ _ _ _ _ _ _ _ _ _ _ _ _ _ _ _ _ _ _ _ _ _ ( 0.e ( _ _ _ _ _ _ _ _ _ _ _ _ _ _ _ _ _ _ _ _ _ _ _ _ d.- DXDXDXDXDXDXDXDXDXDXDXDXDXDXDXDXDXDXDXDXDXDXDXDXDXDX  DXDXDXDXDXDXDXDXDXDXDXDXDXDXDXDXDXDXDXDXDXDXDXDXDXDX  DXDXDXDXDXDXDXDXDXDXDXDXDXDXDXDXDXDXDXDXDXDXDXDXDXDX  DXDXDXDXDXDXDXDXDXDXDXDXDXDXDXDXDXDXDXDXDXDXDXDXDXDX  DX",
"DXDXDX  DXDXDXDXDXDXDXDXDXDXDXDXDXDXDXDXDXDXDXDXDXDXDXDXDXDX  DXDXDXDXDXDXDXDXDXDXDXDXDXDXDXDXDXDXDXDXDXDXDXDXDXDX  DXDXDXDXDXDXDXDXDXDXDXDXDXDXDXDXDXDXDXDXDXDXDXDXDXCX, 8.( _ _ _ _ _ _ _ _ _ _ _ _ _ _ _ _ _ _ _ _ _ _ ( 8.w ( _ _ _ _ _ _ _ _ _ _ _ _ _ _ _ _ _ _ _ _ _ _ _ _ { q 0./ _ _ _ _ _ _ _ _ _ _ _ _ _ _ _ _ _ _ _ _ _ _ / r.w ( ! _ _ _ _ _ _ _ _ _ _ _ _ _ _ _ _ _ _ _ _ _ _ _ ( w 0.{ _ _ _ _ _ _ _ _ _ _ _ _ _ _ _ _ _ _ _ _ _ _ ( 0.e ( _ _ _ _ _ _ _ _ _ _ _ _ _ _ _ _ _ _ _ _ ` _ _ _ d.- DXDXDXDXDXDXDXDXDXDXDXDXDXDXDXDXDXDXDXDXDXDXDXDXDXDX  DXDXDXDXDXDXDXDXDXDXDXDXDXDXDXDXDXDXDXDXDXDXDXDXDXDX  DXDXDXDXDXDXDXDXDXDXDXDXDXDXDXDXDXDXDXDXDXDXDXDXDXDX  DXDXDXDXDXDXDXDXDXDXDXDXDXDXDXDXDXDXDXDXDXDXDXDXDXDX  DX",
"DXDXDX  DXDXDXDXDXDXDXDXDXDXDXDXDXDXDXDXDXDXDXDXDXDXDXDXDXDX  DXDXDXDXDXDXDXDXDXDXDXDXDXDXDXDXDXDXDXDXDXDXDXDXDXDX  DXDXDXDXDXDXDXDXDXDXDXDXDXDXDXDXDXDXDXDXDXDXDXDXDXCX, 0.( _ _ _ _ _ _ _ _ _ _ _ _ _ _ _ _ _ _ _ _ _ _ ( 8.w ( _ _ _ _ _ _ _ _ _ _ _ _ _ _ _ _ _ _ _ _ _ _ _ _ { q 0./ _ _ _ _ _ _ _ _ _ _ _ _ _ _ _ _ _ _ _ _ _ _ / 0.w ( ! _ _ _ _ _ _ _ _ _ _ _ _ _ _ _ _ _ _ _ _ _ _ _ ( w 0.{ _ _ _ _ _ _ _ _ _ _ _ _ _ _ _ _ _ _ _ _ _ _ ( 0.e ( _ _ _ _ _ _ _ _ _ _ _ _ _ _ _ _ _ _ _ _ ` _ ` _ d.- DXDXDXDXDXDXDXDXDXDXDXDXDXDXDXDXDXDXDXDXDXDXDXDXDXDX  DXDXDXDXDXDXDXDXDXDXDXDXDXDXDXDXDXDXDXDXDXDXDXDXDXDX  DXDXDXDXDXDXDXDXDXDXDXDXDXDXDXDXDXDXDXDXDXDXDXDXDXDX  DXDXDXDXDXDXDXDXDXDXDXDXDXDXDXDXDXDXDXDXDXDXDXDXDXDX  DX",
"DXDXDX  DXDXDXDXDXDXDXDXDXDXDXDXDXDXDXDXDXDXDXDXDXDXDXDXDXDX  DXDXDXDXDXDXDXDXDXDXDXDXDXDXDXDXDXDXDXDXDXDXDXDXDXDX  DXDXDXDXDXDXDXDXDXDXDXDXDXDXDXDXDXDXDXDXDXDXDXDXDXCX, 0.( _ _ _ _ _ _ _ _ _ _ _ _ _ _ _ _ _ _ _ _ _ _ ( 8.w ( _ _ _ _ _ _ _ _ _ _ _ _ _ _ _ _ _ _ _ _ _ _ _ _ { q 0./ _ _ _ _ _ _ _ _ _ _ _ _ _ _ _ _ _ _ _ _ _ _ / 0.w ( ! _ _ _ _ _ _ _ _ _ _ _ _ _ _ _ _ _ _ _ _ _ _ _ ( w 0.{ _ _ _ _ _ _ _ _ _ _ _ _ _ _ _ _ _ _ _ _ _ _ ( 0.e ( _ _ _ _ _ _ _ _ _ _ _ _ _ _ _ _ _ _ _ _ ` _ ` _ d.- DXDXDXDXDXDXDXDXDXDXDXDXDXDXDXDXDXDXDXDXDXDXDXDXDXDX  DXDXDXDXDXDXDXDXDXDXDXDXDXDXDXDXDXDXDXDXDXDXDXDXDXDX  DXDXDXDXDXDXDXDXDXDXDXDXDXDXDXDXDXDXDXDXDXDXDXDXDXDX  DXDXDXDXDXDXDXDXDXDXDXDXDXDXDXDXDXDXDXDXDXDXDXDXDXDX  DX",
"DXDXDX  DXDXDXDXDXDXDXDXDXDXDXDXDXDXDXDXDXDXDXDXDXDXDXDXDXDX  DXDXDXDXDXDXDXDXDXDXDXDXDXDXDXDXDXDXDXDXDXDXDXDXDXDX  DXDXDXDXDXDXDXDXDXDXDXDXDXDXDXDXDXDXDXDXDXDXDXDXDXCX, 0.( _ _ _ _ _ _ _ _ _ _ _ _ _ _ _ _ _ _ _ _ _ _ ( 8.w ( _ _ _ _ _ _ _ _ _ _ _ _ _ _ _ _ _ _ _ _ _ _ _ _ { q 0./ _ _ _ _ _ _ _ _ _ _ _ _ _ _ _ _ _ _ _ _ _ _ / 0.w ( ! _ _ _ _ _ _ _ _ _ _ _ _ _ _ _ _ _ _ _ _ _ _ _ / w 0.{ _ _ _ _ _ _ _ _ _ _ _ _ _ _ _ _ _ _ _ _ _ _ ( 0.e ( _ _ _ _ _ _ _ _ _ _ _ _ _ _ _ _ _ _ _ _ ` _ ` _ d.- DXDXDXDXDXDXDXDXDXDXDXDXDXDXDXDXDXDXDXDXDXDXDXDXDXDX  DXDXDXDXDXDXDXDXDXDXDXDXDXDXDXDXDXDXDXDXDXDXDXDXDXDX  DXDXDXDXDXDXDXDXDXDXDXDXDXDXDXDXDXDXDXDXDXDXDXDXDXDX  DXDXDXDXDXDXDXDXDXDXDXDXDXDXDXDXDXDXDXDXDXDXDXDXDXDX  DX",
"DXDXDX  DXDXDXDXDXDXDXDXDXDXDXDXDXDXDXDXDXDXDXDXDXDXDXDXDXDX  DXDXDXDXDXDXDXDXDXDXDXDXDXDXDXDXDXDXDXDXDXDXDXDXDXDX  CXCXHXCXCXCXCXCXCXCXCXCXCXCXCXCXCXCXCXCXCXCXCXCXCXVX, e.d.( ( { { { { { { [ { { { { [ [ [ [ ( ( ( ( ( d.e.q a.( ( ( ( ( ( ( ( ( ( ( ( ( ( ( ( ( ( ( ( ( ( / { a.0 y.a.( ( ( ( { { { { ( ( ( ( ( ( ( ( ( ( ( ( ( ( a.e.0 a.^ ( { { ( ( ( ( ( ( ( ( ( ( ( ( ( ( ( ( ( ( { { a.q e.s.( ( ( ( ( ( ( ( ( ( ( ( ( ( ( ( ( ( ( ( ( ( a.e.q a.( ( ( ( ( ( ( ( ( ( ( ( { { { { { [ [ [ g.g.g.) l.- HXCXCXCXCXCXCXCXCXCXCXCXCXCXCXCXCXCXCXCXCXCXCXCXHXAX. CXCXCXCXCXCXCXCXCXCXCXCXCXCXCXCXCXCXCXCXCXCXCXCXCXCX. HXCXCXCXCXCXCXCXCXCXCXCXCXCXCXCXCXCXCXCXCXCXCXCXCXHX  DXDXDXDXDXDXDXDXDXDXDXDXDXDXDXDXDXDXDXDXDXDXDXDXDXDX  DX",
"                                                        X                                                         . O , , ; ; ; ; , , , , , , , , , , , , , , , , , , , ; , < q w w w w w w w w w w w w w w w w w w w w e w , - q w w w w w w w w w w w w w w w w w w w w w w w w < ; , q e e e e e e e e e e e e e e e e e e e w w w q ; O , q w e e e e e e e e e e e e e e e e e e e e e e q O ; q q q q w w e e e e e e e e e e e e w w w w q < ; ; q e e w w w w w w w w w w w w w w w w w w w w w e 0 O O - ; ; ; ; ; ; ; ; ; ; ; ; ; ; ; ; ; ; ; ; - - - O O , , ; ; ; ; ; ; ; ; ; ; ; ; ; ; ; ; ; ; ; ; , , , ; O O - ; , , , , , , , , , , , , , , , , , , ; ; , , O .                                                 X       ",
"HXDXHX  DXDXDXDXDXDXDXDXDXDXDXDXDXDXDXDXDXDXDXDXDXDXDXDXDXAXX DXDXDXDXDXDXDXDXDXDXDXDXDXDXDXDXDXDXDXDXDXDXDXDXDXHXO u.r.t.t.0.0.t.t.t.t.t.t.t.t.t.t.t.t.t.t.t.0.8.8.k.t., N.y.9.9.t.t.8.8.8.t.8.r.r.r.c.r.r.r.r.t.t.9.9.l.r.m., y.r.r.r.r.r.r.r.r.c.c.c.r.r.r.r.r.r.r.r.r.r.r.r.y.u., m.y.v.l.l.k.c.c.c.c.c.c.v.v.v.k.k.k.k.k.k.k.0.k.y.m., u.w.r.c.c.c.v.v.v.v.v.v.v.v.v.v.v.v.v.v.v.v.c.c.c.y., m.y.q.w.w.0.r.v.v.v.v.v.v.v.v.v.v.v.v.r.r.r.r.w.u.m.< y.v.l.l.0.r.r.r.r.r.r.r.r.r.r.t.t.t.t.t.c.r.w.w.l.w.< m.e.t.t.t.r.r.r.r.0.0.8.8.8.8.t.0.t.t.t.t.t.t.t.e.m., r.q.q.q.8.8.8.9.9.9.9.9.t.t.t.t.r.r.t.t.t.r.l.l.l.y., m.e.0.0.r.r.r.r.r.r.r.r.r.r.r.r.r.r.r.v.r.0.9.l.0.u.O HXDXDXDXDXDXDXDXDXDXDXDXDXDXDXDXDXDXDXDXDXDXDXDXDXHXX AX",
"DXDXDX  DXDXDXDXDXDXDXDXDXDXDXDXDXDXDXDXDXDXDXDXDXDXDXDXDXDX  AXAXAXAXAXAXAXAXAXAXAXAXAXAXAXAXAXAXAXAXAXAXAXAXHXDX- l.h.[ { [ [ [ [ [ [ [ [ [ [ [ [ [ [ [ [ [ [ / / / a.0 y.f./ [ [ [ [ [ [ [ [ } { { { { { { } } [ h.h./ f.9.q a.[ [ [ { { { { { { { { { { { { / / / / / / / / / f.0 9.a./ ) ) / / / / / [ / / / / / / / / / / ) ) / W t.q a.Q / } } } / / / / / / / / / / / / / / / / } } } W q 9.f./ Q ^ / ( ( ( ( ( / / / / / / / / / / / / / d.9.q W ( ) ) / / / / / / / / / / / } } } } } } { / / Q f.q w.W { } } } ( ( ( ( ( ( ( ( ( ^ ^ ^ ^ / [ [ [ [ W t.q W ^ / / } } / ^ ^ / / / / / / / { { { { } } ( ( { ..q t.W { / / [ [ [ [ [ [ / / [ [ [ [ [ [ } } [ / ( p.9.; CXDXDXDXDXDXDXDXDXDXDXDXDXDXDXDXDXDXDXDXDXDXDXDXDXDX  DX",
"DXDXHX  DXDXDXDXDXDXDXDXDXDXDXDXDXDXDXDXDXDXDXDXDXDXDXDXDXDX  DXDXDXDXDXDXDXDXDXDXDXDXDXDXDXDXDXDXDXDXDXDXDXDXDXHX; Q ` _ _ _ _ _ _ _ _ _ _ _ _ _ _ _ _ _ _ _ _ _ _ _ / w q.( _ _ _ _ _ _ _ _ _ _ _ _ ' _ _ _ _ ' ' ` `  .) q.e ( _ _ _ _ _ _ _ _ _ _ _ _ _ _ _ _ _ _ _ _ _ _ _ _ g.q w./ _ _ _ _ _ _ _ _ _ _ _ _ _ _ _ _ _ _ _ _ _ _ ( k.w j.! _ _ _ _ _ _ _ _ _ _ _ _ _ _ _ _ _ _ _ _ _ _ _ ( w q.g.` _ _ _ _ _ _ _ _ _ _ _ _ _ _ _ _ _ _ _ _ _ j.l.w ( _ _ _ _ _ _ _ _ _ _ _ _ _ _ _ _ _ _ _ _ _ ' `  .g.w n.( _ _ _ _ _ _ _ _ _ _ _ _ _ _ _ _ _ _ _ _ _ _ { k.w { _ ' ' ' ' _ _ _ _ _ _ _ _ _ _ _ ' ' ' ' ' ' ' ' | w c.{ ' ` ` ' ' ' ' ' ' ' ` ' ' ' ' ` ' ' ' ' ` ` g.l., CXDXDXDXDXDXDXDXDXDXDXDXDXDXDXDXDXDXDXDXDXDXDXDXAXDX  DX",
"DXDXHX  DXDXDXDXDXDXDXDXDXDXDXDXDXDXDXDXDXDXDXDXDXDXDXDXDXDX  DXDXDXDXDXDXDXDXDXDXDXDXDXDXDXDXDXDXDXDXDXDXDXDXDXAX; [ _ _ _ _ _ _ _ _ _ _ _ _ _ _ _ _ _ _ _ _ _ _ _ _ ( w q.( _ _ _ _ _ _ _ _ _ _ _ _ _ _ _ _ _ _ _ _ _ _ ( q.e ( _ _ _ _ _ _ _ _ _ _ _ _ _ _ _ _ _ _ _ _ _ _ _ _ ( q q./ _ _ _ _ _ _ _ _ _ _ _ _ _ _ _ _ _ _ _ _ _ _ / q.w ( ! _ _ _ _ _ _ _ _ _ _ _ _ _ _ _ _ _ _ _ _ _ _ _ / w w.g.] _ _ _ _ _ _ _ _ _ _ _ _ _ _ _ _ _ _ _ _ _ ( q.w ( _ _ _ _ _ _ _ _ _ _ _ _ _ _ _ _ _ _ _ _ ' _ ` ` h.q 9.( _ _ _ _ _ _ _ _ _ _ _ _ _ _ _ _ _ _ _ _ _ _ / 9.w / ' ' ' ' _ _ ` ` _ _ _ _ _ _ _ _ _ _ _ _ _ _ _ ' [ q r.} ! _ _ _ _ _ _ _ _ _ _ _ _ _ _ _ _ _ _ _ _ _ g.0.; CXDXDXDXDXDXDXDXDXDXDXDXDXDXDXDXDXDXDXDXDXDXDXDXDXDX  DX",
"DXDXHX  DXDXDXDXDXDXDXDXDXDXDXDXDXDXDXDXDXDXDXDXDXDXDXDXDXDX  DXDXDXDXDXDXDXDXDXDXDXDXDXDXDXDXDXDXDXDXDXDXDXDXDXAX; [ _ _ _ _ _ _ _ _ _ _ _ _ _ _ _ _ _ _ _ _ _ _ _ _ ( w q.( _ _ _ _ _ _ _ _ _ _ _ _ _ _ _ _ _ _ _ _ _ _ ( 8.w ( _ _ _ _ _ _ _ _ _ _ _ _ _ _ _ _ _ _ _ _ _ _ _ _ ( q 9./ _ _ _ _ _ _ _ _ _ _ _ _ _ _ _ _ _ _ _ _ _ _ [ 9.w ( ! _ _ _ _ _ _ _ _ _ _ _ _ _ _ _ _ _ _ _ _ _ _ _ / w w.g._ _ _ _ _ _ _ _ _ _ _ _ _ _ _ _ _ _ _ _ _ _ ( 8.w ( _ _ _ _ _ _ _ _ _ _ _ _ _ _ _ _ _ _ _ _ _ _ _ ` h.q 9.( _ _ _ _ _ _ _ _ _ _ _ _ _ _ _ _ _ _ _ _ _ _ / 9.w / _ ' ' ' _ _ ` ` _ _ _ _ _ _ _ _ _ _ _ _ _ _ _ _ [ q 0.} ! _ _ _ _ _ _ _ _ _ _ _ _ _ _ _ _ _ _ _ _ _ [ r.; CXDXDXDXDXDXDXDXDXDXDXDXDXDXDXDXDXDXDXDXDXDXDXDXDXDX  DX",
"DXDXHX  DXDXDXDXDXDXDXDXDXDXDXDXDXDXDXDXDXDXDXDXDXDXDXDXDXDX  DXDXDXDXDXDXDXDXDXDXDXDXDXDXDXDXDXDXDXDXDXDXDXDXDXAX; W ' _ _ ! ! _ _ _ _ _ _ _ _ _ _ _ _ _ _ _ _ _ _ ' { w 8.{ _ _ _ _ _ _ _ _ _ _ _ _ _ _ ! ! _ _ _ _ _ _ { 8.w { _ _ _ _ _ _ _ _ _ _ _ _ _ _ _ _ _ _ _ _ _ _ _ _ { w r./ _ ' _ _ _ _ _ _ _ _ _ _ _ _ _ _ _ _ _ _ _ ' } k.e { ! _ _ _ _ _ _ _ _ _ _ _ _ _ _ _ _ _ _ _ _ _ _ _ / w q.{ _ _ _ ' _ _ _ _ _ _ _ _ _ _ _ _ _ _ _ _ _ _ | c.e ( _ _ _ _ _ _ _ _ _ _ _ _ _ _ _ _ _ _ _ _ _ _ _ _ { w 8.{ _ _ _ _ _ _ _ _ _ _ _ _ _ _ _ _ _ _ _ _ _ _ / l.e ) _ _ _ _ _ _ _ _ _ _ _ _ _ _ _ _ _ _ _ _ _ _ _ _ { e l.( _ _ _ _ _ _ _ _ _ _ _ _ _ _ _ _ _ _ _ _ _ ! { c., CXDXDXDXDXDXDXDXDXDXDXDXDXDXDXDXDXDXDXDXDXDXDXDXDXDX  DX",
"DXDXHX  DXDXDXDXDXDXDXDXDXDXDXDXDXDXDXDXDXDXDXDXDXDXDXDXDXDX  DXDXDXDXDXDXDXDXDXDXDXDXDXDXDXDXDXDXDXDXDXDXDXDXDXDX- s.' ] _ ! ! _ _ _ _ _ _ _ _ _ _ _ _ _ _ _ _ _ _ ' { w 8.{ _ _ _ _ _ _ _ _ _ _ _ _ _ _ _ _ _ _ _ _ _ _ } 8.w { _ _ _ _ _ _ _ _ _ _ _ _ _ _ _ _ _ _ _ _ _ _ _ _ { w r.[ _ ' _ _ _ _ _ _ _ _ _ _ _ _ _ _ _ _ _ _ _ ' } v.e } ! _ _ _ _ _ _ _ _ _ _ _ _ _ _ _ _ _ _ _ _ _ _ _ ( e 8.{ _ _ _ ' _ _ _ _ _ _ _ _ _ _ _ _ _ _ _ _ _ _ | v.e ( _ _ _ _ _ _ _ _ _ _ _ _ _ _ _ _ _ _ _ _ _ _ _ _ | w 0.{ _ _ _ _ _ _ _ _ _ _ _ _ _ _ _ _ _ _ _ _ _ _ ( l.e ( _ _ _ ' ' _ _ _ _ _ _ _ _ _ _ _ _ _ _ _ _ _ _ _ ( e l.) _ _ _ _ _ _ _ _ _ _ _ _ _ _ _ _ _ _ _ _ _ ! { c., CXDXDXDXDXDXDXDXDXDXDXDXDXDXDXDXDXDXDXDXDXDXDXDXDXDX  DX",
"DXDXHX  DXDXDXDXDXDXDXDXDXDXDXDXDXDXDXDXDXDXDXDXDXDXDXDXDXDX  DXDXDXDXDXDXDXDXDXDXDXDXDXDXDXDXDXDXDXDXDXDXDXDXDXDX- d.` _ _ _ _ _ _ _ _ _ _ _ _ _ _ _ _ _ _ _ _ _ _ _ ( w 0.{ _ _ _ _ _ _ _ _ _ _ _ _ _ _ _ _ _ _ _ _ _ _ { 8.w { _ _ _ _ _ _ _ _ _ _ _ _ _ _ _ _ _ _ _ _ _ _ _ _ { w r./ _ _ _ _ _ _ _ _ _ _ _ _ _ _ _ _ _ _ _ _ _ _ { r.w { ! _ _ _ _ _ _ _ _ _ _ _ _ _ _ _ _ _ _ _ _ _ _ _ ( w 0.{ _ _ _ _ _ _ _ _ _ _ _ _ _ _ _ _ _ _ _ _ _ _ { r.e ( _ _ _ _ _ _ _ _ _ _ _ _ _ _ _ _ _ _ _ _ _ _ _ _ { w 0.( _ _ _ _ _ _ _ _ _ _ _ _ _ _ _ _ _ _ _ _ _ _ ( 8.w ^ _ _ _ _ _ _ _ _ _ _ _ _ _ _ _ _ _ _ _ _ _ _ _ _ ( w k./ _ _ _ _ _ _ _ _ _ _ _ _ _ _ _ _ _ _ _ _ _ _ { v., CXDXDXDXDXDXDXDXDXDXDXDXDXDXDXDXDXDXDXDXDXDXDXDXDXDX  DX",
"DXDXHX  DXDXDXDXDXDXDXDXDXDXDXDXDXDXDXDXDXDXDXDXDXDXDXDXDXDX  DXDXDXDXDXDXDXDXDXDXDXDXDXDXDXDXDXDXDXDXDXDXDXDXDXAX- d.` _ _ _ _ _ _ _ _ _ _ _ _ _ _ _ _ _ _ _ _ _ _ _ ( w 0.( _ _ _ _ _ _ _ _ _ _ _ _ _ _ _ _ _ _ _ _ _ _ { 8.w { _ _ _ _ _ _ _ _ _ _ _ _ _ _ _ _ _ _ _ _ _ _ _ _ { q r./ _ _ _ _ _ _ _ _ _ _ _ _ _ _ _ _ _ _ _ _ _ _ / t.w { ! _ _ _ _ _ _ _ _ _ _ _ _ _ _ _ _ _ _ _ _ _ _ _ ( w 0.} _ _ _ _ _ _ _ _ _ _ _ _ _ _ _ _ _ _ _ _ _ _ { 0.e ( _ _ _ _ _ _ _ _ _ _ _ _ _ _ _ _ _ _ _ _ _ _ _ _ { w 0.( _ _ _ _ _ _ _ _ _ _ _ _ _ _ _ _ _ _ _ _ _ _ ( 0.w ^ _ _ _ _ _ _ _ _ _ _ _ _ _ _ _ _ _ _ _ _ _ _ _ _ / w r./ _ _ _ _ _ _ _ _ _ _ _ _ _ _ _ _ _ _ _ _ _ _ { 0., CXDXDXDXDXDXDXDXDXDXDXDXDXDXDXDXDXDXDXDXDXDXDXDXDXDX  DX",
"DXDXHX  DXDXDXDXDXDXDXDXDXDXDXDXDXDXDXDXDXDXDXDXDXDXDXDXDXDX  DXDXDXDXDXDXDXDXDXDXDXDXDXDXDXDXDXDXDXDXDXDXDXDXDXAX; d.` _ _ _ _ _ _ _ _ _ _ _ _ _ _ _ _ _ _ _ _ _ _ _ ( w 0.( _ _ _ _ _ _ _ _ _ _ _ _ _ _ _ _ _ _ _ _ _ _ { 0.w { _ _ _ _ _ _ _ _ _ _ _ _ _ _ _ _ _ _ _ _ _ _ _ _ { q r./ _ _ _ _ _ _ _ _ _ _ _ _ _ _ _ _ _ _ _ _ _ _ / t.w { ! _ _ _ _ _ _ _ _ _ _ _ _ _ _ _ _ _ _ _ _ _ _ _ ( w 0.} _ _ _ _ _ _ _ _ _ _ _ _ _ _ _ _ _ _ _ _ _ _ { 0.e ( _ _ _ _ _ _ _ _ _ _ _ _ _ _ _ _ _ _ _ _ _ _ _ _ { w 0.( _ _ _ _ _ _ _ _ _ _ _ _ _ _ _ _ _ _ _ _ _ _ ( 0.w ^ _ _ _ _ _ _ _ _ _ _ _ _ _ _ _ _ _ _ _ _ _ _ _ _ / w r./ _ _ _ _ _ _ _ _ _ _ _ _ _ _ _ _ _ _ _ _ _ _ { 0., CXDXDXDXDXDXDXDXDXDXDXDXDXDXDXDXDXDXDXDXDXDXDXDXDXDX  DX",
"DXDXHX  DXDXDXDXDXDXDXDXDXDXDXDXDXDXDXDXDXDXDXDXDXDXDXDXDXDX  DXDXDXDXDXDXDXDXDXDXDXDXDXDXDXDXDXDXDXDXDXDXDXDXDXAX; d.` _ _ _ _ _ _ _ _ _ _ _ _ _ _ _ _ _ _ _ _ _ _ _ ( w 0.( _ _ _ _ _ _ _ _ _ _ _ _ _ _ _ _ _ _ _ _ _ _ { 0.w { _ _ _ _ _ _ _ _ _ _ _ _ _ _ _ _ _ _ _ _ _ _ _ _ { q r.[ _ _ _ _ _ _ _ _ _ _ _ _ _ _ _ _ _ _ _ _ _ _ / t.w { ! _ _ _ _ _ _ _ _ _ _ _ _ _ _ _ _ _ _ _ _ _ _ _ ( w 0.} _ _ _ _ _ _ _ _ _ _ _ _ _ _ _ _ _ _ _ _ _ _ { 0.e ( _ _ _ _ _ _ _ _ _ _ _ _ _ _ _ _ _ _ _ _ _ _ _ _ { w 0.( _ _ _ _ _ _ _ _ _ _ _ _ _ _ _ _ _ _ _ _ _ _ ( 0.w ^ _ _ _ _ _ _ _ _ _ _ _ _ _ _ _ _ _ _ _ _ _ _ _ _ / w r./ _ _ _ _ _ _ _ _ _ _ _ _ _ _ _ _ _ _ _ _ _ _ { 0., CXDXDXDXDXDXDXDXDXDXDXDXDXDXDXDXDXDXDXDXDXDXDXDXDXDX  DX",
"DXDXHX  DXDXDXDXDXDXDXDXDXDXDXDXDXDXDXDXDXDXDXDXDXDXDXDXDXDX  DXDXDXDXDXDXDXDXDXDXDXDXDXDXDXDXDXDXDXDXDXDXDXDXDXAX; d.` _ _ _ _ _ _ _ _ _ _ _ _ _ _ _ _ _ _ _ _ _ _ _ ( w 0.( _ _ _ _ _ _ _ _ _ _ _ _ _ _ _ _ _ _ _ _ _ _ { 0.w { _ _ _ _ _ _ _ _ _ _ _ _ _ _ _ _ _ _ _ _ _ _ _ _ { q 0.[ _ _ _ _ _ _ _ _ _ _ _ _ _ _ _ _ _ _ _ _ _ _ [ 0.w ( ! _ _ _ _ _ _ _ _ _ _ _ _ _ _ _ _ _ _ _ _ _ _ _ ( w 0.} _ _ _ _ _ _ _ _ _ _ _ _ _ _ _ _ _ _ _ _ _ _ ( 0.e ( _ _ _ _ _ _ _ _ _ _ _ _ _ _ _ _ _ _ _ _ _ _ _ _ { w 0.( _ _ _ _ _ _ _ _ _ _ _ _ _ _ _ _ _ _ _ _ _ _ ( 0.w ^ _ _ _ _ _ _ _ _ _ _ _ _ _ _ _ _ _ _ _ _ _ _ _ _ / w r./ _ _ _ _ _ _ _ _ _ _ _ _ _ _ _ _ _ _ _ _ _ _ { 0., CXDXDXDXDXDXDXDXDXDXDXDXDXDXDXDXDXDXDXDXDXDXDXDXDXDX  DX",
"DXDXHX  DXDXDXDXDXDXDXDXDXDXDXDXDXDXDXDXDXDXDXDXDXDXDXDXDXDX  DXDXDXDXDXDXDXDXDXDXDXDXDXDXDXDXDXDXDXDXDXDXDXDXDXAX; d.` _ _ _ _ _ _ _ _ _ _ _ _ _ _ _ _ _ _ _ _ _ _ _ ( w 0.( _ _ _ _ _ _ _ _ _ _ _ _ _ _ _ _ _ _ _ _ _ _ { 0.w { _ _ _ _ _ _ _ _ _ _ _ _ _ _ _ _ _ _ _ _ _ _ _ _ { q r./ _ _ _ _ _ _ _ _ _ _ _ _ _ _ _ _ _ _ _ _ _ _ / 0.w ( ! _ _ _ _ _ _ _ _ _ _ _ _ _ _ _ _ _ _ _ _ _ _ _ ( w 0.{ _ _ _ _ _ _ _ _ _ _ _ _ _ _ _ _ _ _ _ _ _ _ ( 0.e ( _ _ _ _ _ _ _ _ _ _ _ _ _ _ _ _ _ _ _ _ _ _ _ _ { w 0.( _ _ _ _ _ _ _ _ _ _ _ _ _ _ _ _ _ _ _ _ _ _ ( 0.w ^ _ _ _ _ _ _ _ _ _ _ _ _ _ _ _ _ _ _ _ _ _ _ _ _ / w r./ _ _ _ _ _ _ _ _ _ _ _ _ _ _ _ _ _ _ _ _ _ _ { r., CXDXDXDXDXDXDXDXDXDXDXDXDXDXDXDXDXDXDXDXDXDXDXDXDXDX  DX",
"DXDXHX  DXDXDXDXDXDXDXDXDXDXDXDXDXDXDXDXDXDXDXDXDXDXDXDXDXDX  DXDXDXDXDXDXDXDXDXDXDXDXDXDXDXDXDXDXDXDXDXDXDXDXDXAX; d.` _ _ _ _ _ _ _ _ _ _ _ _ _ _ _ _ _ _ _ _ _ _ _ ( w 0.( _ _ _ _ _ _ _ _ _ _ _ _ _ _ _ _ _ _ _ _ _ _ { 0.w { _ _ _ _ _ _ _ _ _ _ _ _ _ _ _ _ _ _ _ _ _ _ _ _ { q 0./ _ _ _ _ _ _ _ _ _ _ _ _ _ _ _ _ _ _ _ _ _ _ / 0.w ( ! _ _ _ _ _ _ _ _ _ _ _ _ _ _ _ _ _ _ _ _ _ _ _ ( w 0.{ _ _ _ _ _ _ _ _ _ _ _ _ _ _ _ _ _ _ _ _ _ _ ( 0.e ( _ _ _ _ _ _ _ _ _ _ _ _ _ _ _ _ _ _ _ _ _ _ _ _ { w 0.( _ _ _ _ _ _ _ _ _ _ _ _ _ _ _ _ _ _ _ _ _ _ ( 0.w ^ _ _ _ _ _ _ _ _ _ _ _ _ _ _ _ _ _ _ _ _ _ _ _ _ / w r./ _ _ _ _ _ _ _ _ _ _ _ _ _ _ _ _ _ _ _ _ _ _ { r., CXDXDXDXDXDXDXDXDXDXDXDXDXDXDXDXDXDXDXDXDXDXDXDXDXDX  DX",
"DXDXHX  DXDXDXDXDXDXDXDXDXDXDXDXDXDXDXDXDXDXDXDXDXDXDXDXDXDX  DXDXDXDXDXDXDXDXDXDXDXDXDXDXDXDXDXDXDXDXDXDXDXDXDXAX; d.` _ _ _ _ _ _ _ _ _ _ _ _ _ _ _ _ _ _ _ _ _ _ _ ( w 0.( _ _ _ _ _ _ _ _ _ _ _ _ _ _ _ _ _ _ _ _ _ _ { 0.w { _ _ _ _ _ _ _ _ _ _ _ _ _ _ _ _ _ _ _ _ _ _ _ _ { q 0./ _ _ _ _ _ _ _ _ _ _ _ _ _ _ _ _ _ _ _ _ _ _ / 0.w ( ! _ _ _ _ _ _ _ _ _ _ _ _ _ _ _ _ _ _ _ _ _ _ _ ( w 0.{ _ _ _ _ _ _ _ _ _ _ _ _ _ _ _ _ _ _ _ _ _ _ ( 0.e ( _ _ _ _ _ _ _ _ _ _ _ _ _ _ _ _ _ _ _ _ _ _ _ _ { w 0.( _ _ _ _ _ _ _ _ _ _ _ _ _ _ _ _ _ _ _ _ _ _ ( 0.w ^ _ _ _ _ _ _ _ _ _ _ _ _ _ _ _ _ _ _ _ _ _ _ _ _ / w r./ _ _ _ _ _ _ _ _ _ _ _ _ _ _ _ _ _ _ _ _ _ _ { r., CXDXDXDXDXDXDXDXDXDXDXDXDXDXDXDXDXDXDXDXDXDXDXDXDXDX  DX",
"DXDXHX  DXDXDXDXDXDXDXDXDXDXDXDXDXDXDXDXDXDXDXDXDXDXDXDXDXDX  DXDXDXDXDXDXDXDXDXDXDXDXDXDXDXDXDXDXDXDXDXDXDXDXDXAX; d.` _ _ _ _ _ _ _ _ _ _ _ _ _ _ _ _ _ _ _ _ _ _ _ ( w 0.( _ _ _ _ _ _ _ _ _ _ _ _ _ _ _ _ _ _ _ _ _ _ { 0.w ( _ _ _ _ _ _ _ _ _ _ _ _ _ _ _ _ _ _ _ _ _ _ _ _ { q 0./ _ _ _ _ _ _ _ _ _ _ _ _ _ _ _ _ _ _ _ _ _ _ / r.w ( ! _ _ _ _ _ _ _ _ _ _ _ _ _ _ _ _ _ _ _ _ _ _ _ ( w 0.{ _ _ _ _ _ _ _ _ _ _ _ _ _ _ _ _ _ _ _ _ _ _ ( 0.e ( _ _ _ _ _ _ _ _ _ _ _ _ _ _ _ _ _ _ _ _ _ _ _ _ { w 0.( _ _ _ _ _ _ _ _ _ _ _ _ _ _ _ _ _ _ _ _ _ _ / 0.w ^ _ _ _ _ _ _ _ _ _ _ _ _ _ _ _ _ _ _ _ _ _ _ _ _ ( w r.( _ _ _ _ _ _ _ _ _ _ _ _ _ _ _ _ _ _ _ _ _ _ { r., CXDXDXDXDXDXDXDXDXDXDXDXDXDXDXDXDXDXDXDXDXDXDXDXDXDX  DX",
"DXDXHX  DXDXDXDXDXDXDXDXDXDXDXDXDXDXDXDXDXDXDXDXDXDXDXDXDXDX  DXDXDXDXDXDXDXDXDXDXDXDXDXDXDXDXDXDXDXDXDXDXDXDXDXAX; d.` _ _ _ _ _ _ _ _ _ _ _ _ _ _ _ _ _ _ _ _ _ _ _ ( w 0.( _ _ _ _ _ _ _ _ _ _ _ _ _ _ _ _ _ _ _ _ _ _ { 8.w ( _ _ _ _ _ _ _ _ _ _ _ _ _ _ _ _ _ _ _ _ _ _ _ _ { q 0./ _ _ _ _ _ _ _ _ _ _ _ _ _ _ _ _ _ _ _ _ _ _ / 0.w ( ! _ _ _ _ _ _ _ _ _ _ _ _ _ _ _ _ _ _ _ _ _ _ _ ( w 0.{ _ _ _ _ _ _ _ _ _ _ _ _ _ _ _ _ _ _ _ _ _ _ ( 0.e ( _ _ _ _ _ _ _ _ _ _ _ _ _ _ _ _ _ _ _ _ _ _ _ ' { w 0.( _ _ _ _ _ _ _ _ _ _ _ _ _ _ _ _ _ _ _ _ _ _ / 0.w ^ _ _ _ _ _ _ _ _ _ _ _ _ _ _ _ _ _ _ _ _ _ ' _ _ ( w r.( _ _ _ _ _ _ _ _ _ _ _ _ _ _ _ _ _ _ _ _ _ _ } r., CXDXDXDXDXDXDXDXDXDXDXDXDXDXDXDXDXDXDXDXDXDXDXDXDXDX  DX",
"DXDXHX  DXDXDXDXDXDXDXDXDXDXDXDXDXDXDXDXDXDXDXDXDXDXDXDXDXDX  DXDXDXDXDXDXDXDXDXDXDXDXDXDXDXDXDXDXDXDXDXDXDXDXDXAX; d.` _ _ _ _ _ _ _ _ _ _ _ _ _ _ _ _ _ _ _ _ _ _ _ ( w 0.( _ _ _ _ _ _ _ _ _ _ _ _ _ _ _ _ _ _ _ _ _ _ { 8.w ( _ _ _ _ _ _ _ _ _ _ _ _ _ _ _ _ _ _ _ _ _ _ _ _ { q 0./ _ _ _ _ _ _ _ _ _ _ _ _ _ _ _ _ _ _ _ _ _ _ / 0.w ( ! _ _ _ _ _ _ _ _ _ _ _ _ _ _ _ _ _ _ _ _ _ _ _ ( w 0.{ _ _ _ _ _ _ _ _ _ _ _ _ _ _ _ _ _ _ _ _ _ _ ( 0.e ( _ _ _ _ _ _ _ _ _ _ _ _ _ _ _ _ _ _ _ _ _ _ _ ' { w 0.( _ _ _ _ _ _ _ _ _ _ _ _ _ _ _ _ _ _ _ _ _ _ / 0.w ^ _ _ _ _ _ _ _ _ _ _ _ _ _ _ _ _ _ _ _ _ _ ' _ _ ( w r.( _ _ _ _ _ _ _ _ _ _ _ _ _ _ _ _ _ _ _ _ _ _ } r., CXDXDXDXDXDXDXDXDXDXDXDXDXDXDXDXDXDXDXDXDXDXDXDXDXDX  DX",
"DXDXHX  DXDXDXDXDXDXDXDXDXDXDXDXDXDXDXDXDXDXDXDXDXDXDXDXDXDX  DXDXDXDXDXDXDXDXDXDXDXDXDXDXDXDXDXDXDXDXDXDXDXDXDXAX; d.` _ _ _ _ _ _ _ _ _ _ _ _ _ _ _ _ _ _ _ _ _ _ _ ( w 0.( _ _ _ _ _ _ _ _ _ _ _ _ _ _ _ _ _ _ _ _ _ _ { 8.w ( _ _ _ _ _ _ _ _ _ _ _ _ _ _ _ _ _ _ _ _ _ _ _ _ { q 0./ _ _ _ _ _ _ _ _ _ _ _ _ _ _ _ _ _ _ _ _ _ _ / 0.w ( ! _ _ _ _ _ _ _ _ _ _ _ _ _ _ _ _ _ _ _ _ _ _ _ ( w 0.{ _ _ _ _ _ _ _ _ _ _ _ _ _ _ _ _ _ _ _ _ _ _ ( 0.e ( _ _ _ _ _ _ _ _ _ _ _ _ _ _ _ _ _ _ _ _ _ _ _ ' { w 0.( _ _ _ _ _ _ _ _ _ _ _ _ _ _ _ _ _ _ _ _ _ _ / 0.w ^ _ _ _ _ _ _ _ _ _ _ _ _ _ _ _ _ _ _ _ _ _ ' _ _ ( w r.( _ _ _ _ _ _ _ _ _ _ _ _ _ _ _ _ _ _ _ _ _ _ } r., CXDXDXDXDXDXDXDXDXDXDXDXDXDXDXDXDXDXDXDXDXDXDXDXDXDX  DX",
"DXDXHX  DXDXDXDXDXDXDXDXDXDXDXDXDXDXDXDXDXDXDXDXDXDXDXDXDXDX  DXDXDXDXDXDXDXDXDXDXDXDXDXDXDXDXDXDXDXDXDXDXDXDXDXAX; d.` _ _ _ _ _ _ _ _ _ _ _ _ _ _ _ _ _ _ _ _ _ _ _ ( w 0.( _ _ _ _ _ _ _ _ _ _ _ _ _ _ _ _ _ _ _ _ _ _ { 0.w ( _ _ _ _ _ _ _ _ _ _ _ _ _ _ _ _ _ _ _ _ _ _ _ _ ( q 0./ _ _ _ _ _ _ _ _ _ _ _ _ _ _ _ _ _ _ _ _ _ _ / 0.w ( ! _ _ _ _ _ _ _ _ _ _ _ _ _ _ _ _ _ _ _ _ _ _ _ ( w 8.{ _ _ _ _ _ _ _ _ _ _ _ _ _ _ _ _ _ _ _ _ _ _ ( 8.e ( _ _ _ _ _ _ _ _ _ _ _ _ _ _ _ _ _ _ _ _ _ _ _ ' { w 0.( _ _ _ _ _ _ _ _ _ _ _ _ _ _ _ _ _ _ _ _ _ _ / 0.w ^ _ _ _ _ _ _ _ _ _ _ _ _ _ _ _ _ _ _ _ _ _ ' _ _ ( w r.( _ _ _ _ _ _ _ _ _ _ _ _ _ _ _ _ _ _ _ _ _ _ } r., CXDXDXDXDXDXDXDXDXDXDXDXDXDXDXDXDXDXDXDXDXDXDXDXDXDX  DX",
"DXDXHX  DXDXDXDXDXDXDXDXDXDXDXDXDXDXDXDXDXDXDXDXDXDXDXDXDXDX  DXDXDXDXDXDXDXDXDXDXDXDXDXDXDXDXDXDXDXDXDXDXDXDXDXAX- d.` _ _ _ _ _ _ _ _ _ _ _ _ _ _ _ _ _ _ _ _ _ _ _ ( w 0.( _ _ _ _ _ _ _ _ _ _ _ _ _ _ _ _ _ _ _ _ _ _ { 0.w ( _ _ _ _ _ _ _ _ _ _ _ _ _ _ _ _ _ _ _ _ _ _ _ _ ( q 0./ _ _ _ _ _ _ _ _ _ _ _ _ _ _ _ _ _ _ _ _ _ _ / 0.w ( ! _ _ _ _ _ _ _ _ _ _ _ _ _ _ _ _ _ _ _ _ _ _ _ ( w 8.{ _ _ _ _ _ _ _ _ _ _ _ _ _ _ _ _ _ _ _ _ _ _ ( 8.e ( _ _ _ _ _ _ _ _ _ _ _ _ _ _ _ _ _ _ _ _ _ _ _ ' { w 0.( _ _ _ _ _ _ _ _ _ _ _ _ _ _ _ _ _ _ _ _ _ _ / 0.w ^ _ _ _ _ _ _ _ _ _ _ _ _ _ _ _ _ _ _ _ _ _ ' _ _ ( w r.( _ _ _ _ _ _ _ _ _ _ _ _ _ _ _ _ _ _ _ _ _ _ } t., CXDXDXDXDXDXDXDXDXDXDXDXDXDXDXDXDXDXDXDXDXDXDXDXDXDX  DX",
"DXDXHX  DXDXDXDXDXDXDXDXDXDXDXDXDXDXDXDXDXDXDXDXDXDXDXDXDXDX  DXDXDXDXDXDXDXDXDXDXDXDXDXDXDXDXDXDXDXDXDXDXDXDXDXAX- d.` _ _ _ _ _ _ _ _ _ _ _ _ _ _ _ _ _ _ _ _ _ _ _ ( w 0.( _ _ _ _ _ _ _ _ _ _ _ _ _ _ _ _ _ _ _ _ _ _ { 0.w ( _ _ _ _ _ _ _ _ _ _ _ _ _ _ _ _ _ _ _ _ _ _ _ _ ( q 0./ _ _ _ _ _ _ _ _ _ _ _ _ _ _ _ _ _ _ _ _ _ _ / 0.w ( ! _ _ _ _ _ _ _ _ _ _ _ _ _ _ _ _ _ _ _ _ _ _ _ ( w 8.{ _ _ _ _ _ _ _ _ _ _ _ _ _ _ _ _ _ _ _ _ _ _ ( 8.e ( _ _ _ _ _ _ _ _ _ _ _ _ _ _ _ _ _ _ _ _ _ _ _ ' { w 0.( _ _ _ _ _ _ _ _ _ _ _ _ _ _ _ _ _ _ _ _ _ _ / 0.w ^ _ _ _ _ _ _ _ _ _ _ _ _ _ _ _ _ _ _ _ _ _ ' _ _ ( w r.( _ _ _ _ _ _ _ _ _ _ _ _ _ _ _ _ _ _ _ _ _ _ } t., CXDXDXDXDXDXDXDXDXDXDXDXDXDXDXDXDXDXDXDXDXDXDXDXDXDX  DX",
"DXDXHX  DXDXDXDXDXDXDXDXDXDXDXDXDXDXDXDXDXDXDXDXDXDXDXDXDXDX  DXDXDXDXDXDXDXDXDXDXDXDXDXDXDXDXDXDXDXDXDXDXDXDXDXDX- a.` _ _ _ _ _ _ _ _ _ _ _ _ _ _ _ _ _ _ _ _ _ _ _ ( w 0.{ _ _ _ _ _ _ _ _ _ _ _ _ _ _ _ _ _ _ _ _ _ ! { 8.w ( _ _ _ _ _ _ _ _ _ _ _ _ _ _ _ _ _ _ _ _ _ _ _ _ { w 0./ _ _ _ _ _ _ _ _ _ _ _ _ _ _ _ _ _ _ _ _ _ _ / 0.w ( _ _ _ _ _ _ _ _ _ _ _ _ _ _ _ _ _ _ _ _ _ _ _ _ ( w 8.{ _ _ _ _ _ _ _ _ _ _ _ _ _ _ _ _ _ _ _ _ _ _ ( 8.w ( _ _ _ _ _ _ _ _ _ _ _ _ _ _ _ _ _ _ _ _ _ ' ' _ g.w 0.( _ _ _ _ _ _ _ _ _ _ _ _ _ _ _ _ _ _ _ _ _ _ / 0.w ^ _ _ _ _ _ _ _ _ _ _ _ _ _ _ _ _ _ _ _ _ _ _ _ _ ( w r.( _ _ _ _ _ _ _ _ _ _ _ _ _ _ _ _ _ _ _ _ _ _ { t., CXDXDXDXDXDXDXDXDXDXDXDXDXDXDXDXDXDXDXDXDXDXDXDXDXDX  DX",
"DXDXHX  DXDXDXDXDXDXDXDXDXDXDXDXDXDXDXDXDXDXDXDXDXDXDXDXDXDX  DXDXDXDXDXDXDXDXDXDXDXDXDXDXDXDXDXDXDXDXDXDXDXDXDXAX- x.' ' _ _ _ _ _ _ _ _ _ _ _ _ _ _ _ _ _ _ _ ! ! _ [ w 9.[ ' _ _ _ _ _ _ _ _ _ _ _ _ _ _ _ _ _ _ _ _ ! { 8.w ( _ _ _ _ _ _ _ _ _ _ _ _ _ _ _ _ _ _ _ _ _ _ _ ' } w 0.[ _ _ _ _ _ _ _ _ _ _ _ _ _ _ _ _ _ _ _ _ _ _ / 0.w / _ _ _ _ _ _ _ _ _ _ _ _ _ _ _ _ _ _ _ _ _ _ _ _ ( w t.{ _ _ _ _ _ _ _ _ _ _ _ _ _ _ _ _ _ _ _ _ _ _ g.9.w / _ _ _ _ _ _ _ _ _ _ _ _ _ _ _ _ _ _ _ ' ' ' ' _ g.w 8.( _ _ _ _ _ _ _ _ _ _ _ _ _ _ _ _ _ _ _ _ ! ! { 0.w ) _ _ _ _ _ _ _ _ _ _ _ _ _ _ _ _ _ _ _ _ _ _ _ _ | w c./ _ _ _ _ _ _ _ _ _ _ _ _ _ _ _ _ _ _ _ _ _ _ { t., CXDXDXDXDXDXDXDXDXDXDXDXDXDXDXDXDXDXDXDXDXDXDXDXDXDX  DX",
"DXDXHX  DXDXDXDXDXDXDXDXDXDXDXDXDXDXDXDXDXDXDXDXDXDXDXDXDXDX  DXDXDXDXDXDXDXDXDXDXDXDXDXDXDXDXDXDXDXDXDXDXDXDXDXAX- x.' ! _ _ _ _ _ _ _ _ _ _ _ _ _ _ _ _ _ _ _ ! ! _ [ w 8.[ ] _ _ _ _ _ _ _ _ _ _ _ _ _ _ _ _ _ ' _ _ ! { 8.w ( _ _ _ _ _ _ _ _ _ _ _ _ _ _ _ _ _ _ _ _ _ _ _ ' } w k.{ _ _ _ _ _ _ _ _ _ _ _ _ _ _ _ _ _ _ _ _ _ _ [ r.e { ! _ _ _ _ _ _ _ _ _ _ _ _ _ _ _ _ _ _ _ _ _ _ _ ( e 8.{ _ _ _ ] _ _ _ _ _ _ _ _ _ _ _ _ _ _ _ _ _ ` g.9.w / _ _ _ _ _ _ _ _ _ _ _ _ _ _ _ _ _ _ _ ' ' ' ' _ g.w 8.( _ _ _ _ _ _ _ _ _ _ _ _ _ _ _ _ _ _ ! ! _ ! ( 8.q Q _ _ _ _ _ _ _ _ _ _ _ _ _ _ _ _ _ _ _ _ _ _ _ _ | e c.( _ _ _ _ _ _ _ _ _ _ _ _ _ _ _ _ _ _ _ _ _ _ { r., CXDXDXDXDXDXDXDXDXDXDXDXDXDXDXDXDXDXDXDXDXDXDXDXDXDX  DX",
"DXDXHX  DXDXDXDXDXDXDXDXDXDXDXDXDXDXDXDXDXDXDXDXDXDXDXDXDXDX  DXDXDXDXDXDXDXDXDXDXDXDXDXDXDXDXDXDXDXDXDXDXDXDXDXAX- s._ ! _ _ _ _ _ _ _ _ _ _ _ _ _ _ _ _ _ _ _ _ _ ' [ w 0.[ ] _ _ _ _ _ _ _ _ _ _ _ _ _ _ _ _ ' ' ' _ _ { 8.w ( _ _ _ _ _ _ _ _ _ _ _ _ _ _ _ _ _ _ _ _ _ _ _ ' | e v.} ' ! _ _ _ _ _ _ _ _ _ _ _ _ _ _ _ _ _ _ ' ' [ v.e } ! _ _ _ _ _ _ _ _ _ _ _ _ _ _ _ _ _ _ _ _ _ _ _ ( e v.} ' _ _ ' _ _ _ _ _ _ _ _ _ _ _ _ _ _ _ _ _ ` h.9.w / _ _ _ _ _ _ _ _ _ _ _ _ _ _ _ _ _ _ _ _ _ _ _ _ g.w q.( _ _ _ _ _ _ _ _ _ _ _ _ _ _ _ _ _ _ _ _ _ _ ( q.q Q _ _ _ _ _ _ _ _ _ _ _ _ _ _ _ _ _ _ _ _ _ ` _ _ ] e n.( _ _ _ _ _ _ _ _ _ _ _ _ _ _ _ _ _ _ _ _ ] ] [ k., CXDXDXDXDXDXDXDXDXDXDXDXDXDXDXDXDXDXDXDXDXDXDXDXDXDX  DX",
"DXDXHX  DXDXDXDXDXDXDXDXDXDXDXDXDXDXDXDXDXDXDXDXDXDXDXDXDXDX  DXDXDXDXDXDXDXDXDXDXDXDXDXDXDXDXDXDXDXDXDXDXDXDXDXAXO l.( ) ) / / ( ( ( { ( { { { { { { { { } } } { { [ x.q y.x.[ ( ( ( ( ( ( ( ( ( ( ( ( ( ( ( { } } [ [ { x.e.q s.{ { { { { { { { { { { { { { { ( ( ( ( ( ( ( { { o.w M...} | { ( ( ( ( ( ( ( ( ( ( ( ( ( ( ( ( { } [ x.M.w ..} ( ( ( ( ( ( ( ( ( ( ( ( ( ( ( ( ( ( ( ( ( ( ( s.w t.x.[ } [ [ [ / ( ( ( ( ( ( ( ( ( ( ( / / / / h.x.e.q a.( ( ) ( / / / / / / / / / / / / / / / ( ( | | ( d.q e.a.( ( ( ( ( ( ( ( ( ( ( ( ( ( ( ( ( ( ( ( | | a.u.0 f.) ( ) ) ) ( { { { ( ( ( ( ( ( ( ( g.g.( / g./ ( p.w r.a./ / / / / / / / / / / [ [ [ [ [ / / / [ [ W a.t., CXDXDXDXDXDXDXDXDXDXDXDXDXDXDXDXDXDXDXDXDXDXDXDXDXDX  DX",
"DXDXDX  DXDXDXDXDXDXDXDXDXDXDXDXDXDXDXDXDXDXDXDXDXDXDXDXDXDX  DXDXDXDXDXDXDXDXDXDXDXDXDXDXDXDXDXDXDXDXDXDXDXDXDXAXo u.q.k.k.0.0.0.0.0.0.0.r.0.0.0.t.t.r.r.r.r.r.k.k.r.y., m.e.8.k.k.k.k.0.0.0.0.0.0.0.0.0.0.0.0.v.c.k.k.8.e.m.; e.8.8.8.8.8.8.8.8.8.8.8.8.8.8.8.9.9.9.9.9.9.9.8.l.r., N.y.v.k.k.v.v.v.v.v.v.c.v.c.c.v.v.v.v.r.k.k.k.r.y.m., t.k.8.8.8.8.8.8.8.8.8.8.8.8.8.8.8.8.0.0.8.8.8.8.8.e.; m.y.8.k.v.r.r.v.k.k.k.k.k.k.k.k.k.k.k.0.0.0.k.0.y.m., e.t.l.l.0.t.0.0.0.0.0.0.t.t.t.t.t.t.t.0.l.l.v.v.c.e., m.e.8.8.8.0.0.0.0.0.0.0.0.0.0.0.0.k.k.k.k.k.c.c.e.m., u.k.k.k.l.8.r.t.t.r.t.t.t.t.0.0.0.0.0.0.0.0.0.0.9.y.; m.y.c.r.r.r.r.r.r.r.r.r.r.r.r.r.r.r.r.0.r.r.r.y.y.m.O HXDXDXDXDXDXDXDXDXDXDXDXDXDXDXDXDXDXDXDXDXDXDXDXDXDX  DX",
"    X                                                   X                                                       X . ; < 0 0 0 < < < < < < < < < < < < < < < < < 0 0 < , o - , < 0 0 0 < < < < < < < < < < < < < 0 0 0 0 < , o o , 0 0 0 0 0 0 0 0 0 0 0 0 0 0 < < < < < < < < < 0 0 O O , < < < < < < < < < < < < < < < < < < < < < < , O O < 0 < < < < < < < < < < < < < < < < < < < < < < < ; O o ; < < < , , < < < < < < < < < < < < < < < < 0 , O O - , , < , , , , , , , , , , , , , , , , < < < < , - o - ; , , , , , , , , , , , < < < < < < < < < < < , O O ; ; ; , , , , , , , , , , , , , , , , , , ; ; ; ; - o O ; , , , , , , , , , , , , , , , , ; ; ; , ; ; - o                                                   X       ",
"DXDXDX  DXDXDXDXDXDXDXDXDXDXDXDXDXDXDXDXDXDXDXDXDXDXDXDXAXDX  DXDXDXDXDXDXDXDXDXDXDXDXDXDXDXDXDXDXDXDXDXDXDXDXDXDXo 2.$.&.&.&.&.&.&.&.&.&.&.&.&.&.<.<.<.<.<.<.%.&.$.%.>.O D ,.&.&.&.&.&.&.&.&.&.&.&.&.%.%.%.%.&.&.&.&.$.#.:.F o >.&.&.&.&.&.&.&.&.&.&.&.&.&.&.%.%.%.%.%.%.%.%.%.<.>.O BXpX9X9X9X9XuXuXuXuXuXuXuX9X9X9X9XuXuX9X7X6X9XuXpXlXo aXaX9X9X9X9XuXuX9X9X9X9X9X9XuXuXuX9X9X9X9X9XuXuXuXpXo mXqX6X7XaXuXuXuX9X9X9X9X9X9X9X9X9X9X9X9X9X9X9X7XpXBX. . . o o o o o o . . . . o o o o o o o o O O o o o o o lXpX9X9X7X9X9X9X9X9X9X9X9X9X9X9X9X9X9X9X9X9XuX9XpXrX. VXCXCXHXAXHXHXHXHXHXCXCXCXCXCXCXCXCXCXCXCXCXCXVXVXCX  AXAXAXCXCXCXCXCXCXCXCXCXCXCXCXCXCXCXCXVXVXHXHXCXCXHX  DXDXDXDXDXDXDXDXDXDXDXDXDXDXDXDXDXDXDXDXDXDXDXDXAXDX  DX",
"DXDXDX  DXDXDXDXDXDXDXDXDXDXDXDXDXDXDXDXDXDXDXDXDXDXDXDXDXDX= DXDXDXDXDXDXDXDXDXDXDXDXDXDXDXDXDXDXDXDXDXDXDXDXDXDX. 1.$.;.;.$.;.$.$.$.$.$.$.$.$.$.$.$.$.$.$.$.$.;.;.;.*.O 4.-.$.$.;.$.$.$.$.$.$.$.$.$.$.$.$.$.$.$.$.$.$.#.*.S O -.$.$.$.$.$.$.$.$.$.$.$.$.$.$.$.$.$.$.$.$.$.$.#.;.>.O tXyX6X6X6X6X6X6X6X6X6X6X6X6X6X6X6X6X7X6X6X6X6X9XiXrXO uX7X6X6X6X6X6X6X6X6X6X6X6X6X7X7X6X6X6X6X6X6X7X7X6X8XO cX8XqX5X7X7X7X5X5X5X5X6X6X6X6X6X6X6X6X5X5X5X5X9X8XlX.                                         . .         o vXyX9X9X9XqXqXqXqXqXqXqXqXqXqX9X9X9X9X9X9X9X9X9XgXnXo CXDXDXDXDXDXDXDXDXDXDXDXDXDXDXDXDXDXDXDXDXDXDXDXDXDX= DXDXDXDXDXDXDXDXDXDXDXDXDXDXDXDXDXDXDXCXAXDXDXAXDXAX= AXAXDXDXDXDXDXDXDXDXDXDXDXDXDXDXDXDXDXDXDXDXDXDXDXAXX DX",
"DXDXDX  DXDXDXDXDXDXDXDXDXDXDXDXDXDXDXDXDXDXDXDXDXDXDXDXDXDX  DXDXDXDXDXDXDXDXDXDXDXDXDXDXDXDXDXDXDXDXDXDXDXDXDXDX. 3.$.$.$.$.#.#.$.$.$.$.#.#.$.$.$.$.$.$.$.$.$.$.#.#.*.- 4.%.$.$.$.$.$.$.$.$.$.$.$.$.$.$.$.$.$.$.$.$.$.$.+.S - %.$.$.$.$.$.$.$.$.$.$.$.$.$.$.$.$.$.$.$.$.$.$.$.#.2.O kXuX9X7X7X6X6X6X6X6X6X6X9X9X9X9X9X7X7X9X9X9X9X7XuXcXO 8X9X6X6X6X6X6X6X6X6X9X7X9X9X9X9X7X7X9X9X9X9X9X9X9XuXO cX8X6X9X9X9X9X9X6X6X6X6X6X6X6X6X6X6X6X6X6X6X6X6X8XcX. .                                                   o kXuX9X9X9X9X9X9X9X9X9X9X9X9X9X9X9X9X9X9X9X9X9X9XyXkXo AXDXDXDXDXDXDXDXDXDXDXDXDXDXDXDXDXDXDXDXDXDXDXDXDXDX  DXDXAXDXDXDXDXDXDXDXDXDXDXDXDXDXDXDXDXAXDXDXDXDXDXDX  DXDXDXDXDXDXDXDXDXDXDXDXDXDXDXDXDXDXDXDXDXDXDXDXDXDX  DX",
"DXDXDX  DXDXDXDXDXDXDXDXDXDXDXDXDXDXDXDXDXDXDXDXDXDXDXDXDXDX  DXDXDXDXDXDXDXDXDXDXDXDXDXDXDXDXDXDXDXDXDXDXDXDXDXDXo 3.;.$.#.#.#.#.#.#.#.#.#.#.$.$.$.$.$.$.$.$.$.$.#.#.*.- 5.%.$.$.$.$.$.$.$.$.$.$.$.$.$.$.$.$.$.$.$.$.$.$.%.4.- %.$.$.$.$.$.$.$.$.$.#.#.$.$.$.$.$.$.$.$.$.$.$.$.$.3.O kXuX7X7X7X6X6X6X6X6X6X6X9X9X9X9X9X7X9X9X9X9X9X7XuXcXO 8X9X6X6X6X6X6X6X6X9X7X7X7X9X9X9X7X7X9X9X9X9X7X9X9XuXO cX8X6X9X9X9X9X9X6X6X6X6X6X6X6X6X6X6X6X6X6X6X6X6X8XcX. .                                                   . kXuX7X9X9X9X9X9X9X9X9X9X9X7X7X9X9X9X9X9X9X9X9X9XyXkXo AXDXDXDXDXDXDXDXDXDXDXDXDXDXDXDXDXDXDXDXDXDXDXDXDXDX  DXDXDXDXDXDXDXDXDXDXDXDXDXDXDXDXDXDXDXDXDXDXDXDXDXDX  DXDXDXDXDXDXDXDXDXDXDXDXDXDXDXDXDXDXDXDXDXDXDXDXDXDX  DX",
"DXDXDX  DXDXDXDXDXDXDXDXDXDXDXDXDXDXDXDXDXDXDXDXDXDXDXDXDXDX  DXDXDXDXDXDXDXDXDXDXDXDXDXDXDXDXDXDXDXDXDXDXDXDXDXDXo 3.$.$.#.#.#.#.#.#.#.#.#.#.$.$.$.$.$.$.$.$.$.$.#.#.*.- 5.%.$.$.$.$.$.$.$.$.$.$.$.$.$.$.$.$.$.$.$.$.$.$.%.4.- %.$.$.$.$.$.$.$.$.$.#.#.$.$.$.$.$.$.$.$.$.$.$.$.$.3.O kXuX7X7X7X6X6X6X6X6X6X6X9X9X9X7X9X7X7X9X9X9X9X7XuXcXO 8X9X6X6X6X6X6X6X6X9X7X7X9X9X9X9X7X7X9X9X7X7X7X7X9XuXO cX8X6X9X9X9X9X9X6X6X6X6X6X6X6X6X6X6X6X6X6X6X6X6X8XcX. .                                                   . kXuX7X7X7X9X9X9X9X9X9X7X7X7X7X7X9X9X9X9X9X9X9X9XuXkXo AXDXDXDXDXDXDXDXDXDXDXDXDXDXDXDXDXDXDXDXDXDXDXDXDXDX  DXDXDXDXDXDXDXDXDXDXDXDXDXDXDXDXDXDXDXDXDXDXDXDXDXDX  DXDXDXDXDXDXDXDXDXDXDXDXDXDXDXDXDXDXDXDXDXDXDXDXDXDX  DX",
"DXDXDX  DXDXDXDXDXDXDXDXDXDXDXDXDXDXDXDXDXDXDXDXDXDXDXDXDXDX  DXDXDXDXDXDXDXDXDXDXDXDXDXDXDXDXDXDXDXDXDXDXDXDXDXDXo 3.;.$.#.#.#.#.#.#.#.#.#.#.$.$.$.$.$.$.$.$.$.$.#.#.*.- 5.%.$.$.$.$.$.$.$.$.$.$.$.$.$.$.$.$.$.$.$.$.$.$.%.4.- %.$.$.$.$.$.$.$.$.$.#.#.$.$.$.$.$.$.$.$.$.$.$.$.$.3.O kXuX7X7X7X6X6X6X6X6X6X6X9X9X9X7X7X7X7X9X9X9X9X7XuXcXO 8X9X6X6X6X6X6X6X6X9X7X7X9X9X9X9X7X7X9X9X7X7X7X7X9XuXO cX8X6X9X9X9X9X9X6X6X6X6X6X6X6X6X6X6X6X6X6X6X6X6X8XcX. .                                                   . kXuX7X7X7X9X9X9X9X9X9X9X7X7X7X9X9X9X9X9X9X9X9X9XuXkXo AXDXDXDXDXDXDXDXDXDXDXDXDXDXDXDXDXDXDXDXDXDXDXDXDXDX  DXDXDXDXDXDXDXDXDXDXDXDXDXDXDXDXDXDXDXDXDXDXDXDXDXDX  DXDXDXDXDXDXDXDXDXDXDXDXDXDXDXDXDXDXDXDXDXDXDXDXDXDX  DX",
"DXDXDX  DXDXDXDXDXDXDXDXDXDXDXDXDXDXDXDXDXDXDXDXDXDXDXDXDXDX  DXDXDXDXDXDXDXDXDXDXDXDXDXDXDXDXDXDXDXDXDXDXDXDXDXDXo 3.$.$.#.#.#.#.#.#.#.#.#.#.$.$.$.$.$.$.$.$.$.$.#.#.*.- 5.%.$.$.$.$.$.$.$.$.$.$.$.$.$.$.$.$.$.$.$.$.$.$.%.4.- %.$.$.$.$.$.$.$.$.$.#.#.$.$.$.$.$.$.$.$.$.$.$.$.$.3.O kXuX7X7X7X6X6X6X6X6X6X6X9X9X7X7X7X9X9X9X9X9X9X7XuXcXO 8X9X6X6X6X6X6X6X6X9X7X9X9X9X9X9X9X7X9X7X7X7X7X7X9XuXO cX8X6X9X9X9X9X9X7X7X7X9X9X9X9X9X9X9X9X9X9X9X9X6X8XcXo .                                                   . kXuX9X7X7X9X9X9X9X7X7X7X7X9X9X7X7X9X9X9X9X9X9X9XuXkXo AXDXDXDXDXAXDXDXDXDXDXDXDXDXDXDXDXDXDXDXDXDXDXDXDXDX  DXDXDXDXDXDXDXDXDXDXDXDXDXDXDXDXDXDXDXDXDXDXDXDXDXDX  DXDXDXDXDXDXDXDXDXDXDXDXDXDXDXDXDXDXDXDXDXDXDXDXDXDX  DX",
"DXDXDX  DXDXDXDXDXDXDXDXDXDXDXDXDXDXDXDXDXDXDXDXDXDXDXDXDXDX  DXDXDXDXDXDXDXDXDXDXDXDXDXDXDXDXDXDXDXDXDXDXDXDXDXDXo 3.$.$.#.#.#.#.#.#.#.#.#.#.$.$.$.$.$.$.$.$.$.$.#.#.*.- 5.%.$.$.$.$.$.$.$.$.$.$.$.$.$.$.$.$.$.#.$.$.$.$.%.4.- %.$.$.$.$.$.$.$.$.$.#.#.$.$.$.$.$.$.$.$.$.$.$.$.$.3.O kXuX7X7X7X6X6X6X6X6X6X6X9X9X7X7X7X7X7X9X9X9X9X7XuXcXO 8X9X6X6X6X6X6X6X6X9X7X9X9X9X9X9X7X7X9X9X7X7X7X7X9XuXO cX8X6X9X9X9X9X9X7X7X7X9X9X9X9X9X9X9X9X9X9X9X9X6X8XcXo .                                                   o cXuX9X7X7X9X9X9X9X7X7X7X7X9X7X7X7X9X9X9X9X9X9X9XuXkXo AXDXDXAXAXAXDXDXDXDXDXDXDXDXDXDXDXDXDXDXDXDXDXDXDXDX  DXDXDXDXDXDXDXDXDXDXDXDXDXDXDXDXDXDXDXDXDXDXDXDXDXDX  DXDXDXDXDXDXDXDXDXDXDXDXDXDXDXDXDXDXDXDXDXDXDXDXDXDX  DX",
"DXDXDX  DXDXDXDXDXDXDXDXDXDXDXDXDXDXDXDXDXDXDXDXDXDXDXDXDXDX  DXDXDXDXDXDXDXDXDXDXDXDXDXDXDXDXDXDXDXDXDXDXDXDXDXDXo 3.$.$.#.#.#.#.#.#.#.#.#.#.$.$.$.$.$.$.$.$.$.$.#.#.*.- 5.%.$.$.$.$.$.$.$.$.$.$.$.$.$.$.$.$.$.#.$.$.$.$.%.4.- %.$.$.$.$.$.$.$.$.$.#.#.$.$.$.$.$.$.$.$.$.$.$.$.#.2.O kXuX6X6X6X6X6X6X6X6X6X6X9X9X9X7X7X7X7X7X7X9X9X9XuXcXO 8X9X6X6X6X6X6X6X6X9X9X9X9X9X9X9X9X9X9X7X7X7X7X7X7XuXO cX8X6X9X9X9X9X9X9X7X7X9X9X9X9X9X9X9X9X9X9X9X9X6X8XcXo .                                                   . cXuX9X9X9X9X9X9X9X9X9X9X9X9X9X7X7X9X9X9X9X9X9X9XuXkXo AXDXDXDXAXAXDXDXDXDXDXDXDXDXDXDXDXDXDXDXDXDXDXDXDXDX  DXDXDXDXDXDXDXDXDXDXDXDXDXDXDXDXDXDXDXDXDXDXDXDXDXDX  DXDXDXDXDXDXDXDXDXDXDXDXDXDXDXDXDXDXDXDXDXDXDXDXDXDX  DX",
"DXDXDX  DXDXDXDXDXDXDXDXDXDXDXDXDXDXDXDXDXDXDXDXDXDXDXDXDXDX  DXDXDXDXDXDXDXDXDXDXDXDXDXDXDXDXDXDXDXDXDXDXDXDXDXDXo 3.$.$.#.#.#.#.#.#.#.#.#.#.$.$.$.$.$.$.$.$.$.$.#.#.*.- 5.%.$.$.$.$.$.$.$.$.$.$.$.$.$.$.$.$.$.#.$.$.$.$.%.4.- %.$.$.$.$.$.$.$.$.$.#.#.$.$.$.$.$.$.$.$.$.$.$.$.#.2.O kXuX6X6X6X6X9X9X9X9X9X9X9X9X7X7X7X7X7X7X7X9X9X9XuXcXO 8X9X6X6X6X6X6X6X6X9X9X9X9X9X9X9X9X9X9X7X7X7X7X7X7XuXO cX8X6X9X9X9X9X9X9X7X7X9X9X9X9X9X9X9X9X9X9X9X9X6X8XcXo .                                                   . cXuX9X9X9X9X9X9X9X9X9X9X9X9X9X7X7X9X9X9X9X9X9X9XuXkXo AXDXDXAXAXAXDXDXDXDXDXDXDXDXDXDXDXDXDXDXDXDXDXDXDXDX  DXDXDXDXDXDXDXDXDXDXDXDXDXDXDXDXDXDXDXDXDXDXDXDXDXDX  DXDXDXDXDXDXDXDXDXDXDXDXDXDXDXDXDXDXDXDXDXDXDXDXDXDX  DX",
"DXDXDX  DXDXDXDXDXDXDXDXDXDXDXDXDXDXDXDXDXDXDXDXDXDXDXDXDXDX  DXDXDXDXDXDXDXDXDXDXDXDXDXDXDXDXDXDXDXDXDXDXDXDXDXDXo 3.$.$.#.#.#.#.#.#.#.#.#.#.$.$.$.$.$.$.$.$.$.$.#.#.*.- 5.%.$.$.$.$.$.$.$.$.$.$.$.$.$.$.$.$.$.#.$.$.$.$.%.4.- %.$.$.$.$.$.$.$.$.$.$.$.$.$.$.$.$.$.$.$.$.$.$.$.#.2.O kXuX6X6X6X7X7X7X7X7X7X7X9X9X9X9X9X9X9X9X9X9X9X9XpXcXO 8X9X6X6X6X6X6X6X6X9X9X7X9X9X9X9X9X9X9X9X9X9X9X9X9XuXO cX8X6X9X9X9X9X9X7X7X7X9X9X9X9X7X7X7X7X9X9X9X9X6X8XnXo .                                                   . cXuX9X9X9X9X9X9X9X7X7X7X9X9X9X7X7X9X9X9X9X7X7X7XuXkXo AXDXDXAXAXAXDXDXDXDXDXDXDXDXDXDXDXDXDXDXDXDXDXDXDXDX  DXDXDXDXDXDXDXDXDXDXDXDXDXDXDXDXDXDXDXDXDXDXDXDXDXDX  DXDXDXDXDXDXDXDXDXDXDXDXDXDXDXDXDXDXDXDXDXDXDXDXDXDX  DX",
"DXDXDX  DXDXDXDXDXDXDXDXDXDXDXDXDXDXDXDXDXDXDXDXDXDXDXDXDXDX  DXDXDXDXDXDXDXDXDXDXDXDXDXDXDXDXDXDXDXDXDXDXDXDXDXDXo 3.$.$.#.#.#.#.#.#.#.#.#.#.$.$.$.$.$.$.$.$.$.$.#.#.*.- 5.%.$.$.$.$.$.$.$.$.$.$.$.$.$.$.$.$.$.#.$.$.$.$.%.4.- +.$.$.$.$.$.$.$.$.$.$.$.$.$.$.$.$.$.$.$.$.$.$.$.#.2.O cX8X6X6X6X7X7X7X7X7X7X7X7X9X6X6X6X6X6X6X9X9X9X9XpXcXO uX9X6X6X6X6X6X6X6X9X7X7X9X9X9X9X9X9X9X6X6X6X6X6X6XuXO cX8X6X9X8X9X9X9X7X7X7X9X9X9X9X9X9X7X7X9X9X9X9X6X8XnXo .                                                   . cXuX9X9X9X9X9X9X9X7X7X7X7X9X9X9X9X9X9X9X9X7X7X7XuXkXo AXDXDXAXAXAXDXDXDXDXDXDXDXDXDXDXDXDXDXDXDXDXDXDXDXDX  DXDXDXDXDXDXDXDXDXDXDXDXDXDXDXDXDXDXDXDXDXDXDXDXDXDX  DXDXDXDXDXDXDXDXDXDXDXDXDXDXDXDXDXDXDXDXDXDXDXDXDXDX  DX",
"DXDXDX  DXDXDXDXDXDXDXDXDXDXDXDXDXDXDXDXDXDXDXDXDXDXDXDXDXDX  DXDXDXDXDXDXDXDXDXDXDXDXDXDXDXDXDXDXDXDXDXDXDXDXDXDXo 3.$.$.#.#.#.#.#.#.#.#.#.#.$.$.$.$.$.$.$.$.$.$.#.#.*.- 5.%.$.$.$.$.$.$.$.$.$.#.#.#.#.#.#.#.#.#.$.$.$.$.%.4.- +.#.#.#.$.$.$.$.$.$.$.$.$.$.$.$.$.$.$.$.$.$.$.$.#.2.O cX8X6X6X6X7X7X7X7X7X7X7X7X9X6X6X6X6X6X6X9X9X9X9XpXcXO uX9X6X6X6X6X6X6X6X9X7X7X7X7X7X7X9X9X9X6X6X6X6X6X6XuXO cX8X6X9X8X9X9X9X7X7X7X7X9X9X9X9X9X9X9X9X9X9X9X6X8XnXo .                                                   . cXyX9X9X9X9X9X9X9X7X7X9X9X9X9X9X9X9X9X9X9X7X7X9XuXkXo AXDXDXAXAXAXDXDXDXDXDXDXDXDXDXDXDXDXDXDXDXDXDXDXDXDX  DXDXDXDXDXDXDXDXDXDXDXDXDXDXDXDXDXDXDXDXDXDXDXDXDXDX  DXDXDXDXDXDXDXDXDXDXDXDXDXDXDXDXDXDXDXDXDXDXDXDXDXDX  DX",
"DXDXDX  DXDXDXDXDXDXDXDXDXDXDXDXDXDXDXDXDXDXDXDXDXDXDXDXDXDX  DXDXDXDXDXDXDXDXDXDXDXDXDXDXDXDXDXDXDXDXDXDXDXDXDXDXo 3.$.$.#.#.#.#.#.#.#.#.#.#.$.$.$.$.$.$.$.$.$.$.#.#.*.- 5.%.$.$.$.$.$.$.$.$.$.#.#.#.#.#.#.#.#.#.$.$.$.$.%.4.- +.#.#.$.$.$.$.$.$.$.$.$.$.$.$.$.$.$.$.$.$.$.$.$.#.2.O cX8X6X6X6X7X7X7X7X7X7X7X7X9X6X6X6X6X6X6X9X9X9X9XpXcXO uX9X6X6X6X6X6X6X6X9X7X7X7X7X7X7X7X9X9X6X6X6X6X6X6XuXO cX8X6X9X8X9X9X9X7X7X7X7X9X9X9X9X9X9X9X9X9X9X9X6X8XnXo .                                                   . cXyX9X9X9X9X9X9X9X7X7X9X9X9X9X9X9X9X9X7X7X7X7X9XuXkXo AXDXDXAXAXAXDXDXDXDXDXDXDXDXDXDXDXDXDXDXDXDXDXDXDXDX  DXDXDXDXDXDXDXDXDXDXDXDXDXDXDXDXDXDXDXDXDXDXDXDXDXDX  DXDXDXDXDXDXDXDXDXDXDXDXDXDXDXDXDXDXDXDXDXDXDXDXDXDX  DX",
"DXDXDX  DXDXDXDXDXDXDXDXDXDXDXDXDXDXDXDXDXDXDXDXDXDXDXDXDXDX  DXDXDXDXDXDXDXDXDXDXDXDXDXDXDXDXDXDXDXDXDXDXDXDXDXDXo 3.$.$.#.#.#.#.#.#.#.#.#.#.$.$.$.$.$.$.$.$.$.$.#.#.*.- 5.%.$.$.$.$.$.$.$.$.$.#.#.#.#.#.#.#.#.#.$.$.$.$.%.4.- +.$.$.$.$.$.$.$.$.$.$.$.$.$.$.$.$.$.$.$.$.$.$.#.#.1.O cX8X6X6X6X9X9X7X9X7X7X7X7X9X6X6X6X6X6X6X9X9X9X7XuXcXO uX9X6X6X6X6X6X6X6X9X7X7X7X7X7X7X7X7X9X6X6X6X6X6X6XuXO cX8X6X9X8X9X9X7X7X7X7X7X7X7X7X7X9X9X9X9X9X9X9X6X8XcXo .                                                   . cXyX9X9X9X9X9X9X9X9X9X9X9X9X9X9X9X9X7X7X7X9X9X9XuXkXo AXDXDXAXAXAXDXDXDXDXDXDXDXDXDXDXDXDXDXDXDXDXDXDXDXDX  DXDXDXDXDXDXDXDXDXDXDXDXDXDXDXDXDXDXDXDXDXDXDXDXDXDX  DXDXDXDXDXDXDXDXDXDXDXDXDXDXDXDXDXDXDXDXDXDXDXDXDXDX  DX",
"DXDXDX  DXDXDXDXDXDXDXDXDXDXDXDXDXDXDXDXDXDXDXDXDXDXDXDXDXDX  DXDXDXDXDXDXDXDXDXDXDXDXDXDXDXDXDXDXDXDXDXDXDXDXDXDXo 3.$.$.#.#.#.#.#.#.#.#.#.#.$.$.$.$.$.$.$.$.$.$.#.#.*.- 5.%.$.$.$.$.$.$.$.$.$.#.#.#.#.#.#.#.#.#.$.$.$.$.%.4.- %.$.$.$.$.$.$.$.$.$.$.$.$.$.$.$.$.$.$.$.$.$.$.#.#.1.O kX8X6X6X6X9X9X7X9X7X7X9X9X9X6X6X6X6X6X6X9X9X9X7XuXcXO uX9X6X6X6X6X6X6X6X9X7X7X7X9X7X7X9X9X9X6X6X6X6X6X6XuXO cX8X6X9X8X9X9X9X7X7X7X7X7X7X7X7X7X9X9X9X9X9X9X6X8XcXo .                                                   . cXyX9X9X9X9X9X9X9X9X9X9X9X7X9X9X9X7X7X7X7X9X9X7XuXkXo AXDXDXAXAXDXDXDXDXDXDXDXDXDXDXDXDXDXDXDXDXDXDXDXDXDX  DXDXDXDXDXDXDXDXDXDXDXDXDXDXDXDXDXDXDXDXDXDXDXDXDXDX  DXDXDXDXDXDXDXDXDXDXDXDXDXDXDXDXDXDXDXDXDXDXDXDXDXDX  DX",
"DXDXDX  DXDXDXDXDXDXDXDXDXDXDXDXDXDXDXDXDXDXDXDXDXDXDXDXDXDX  DXDXDXDXDXDXDXDXDXDXDXDXDXDXDXDXDXDXDXDXDXDXDXDXDXDXo 3.$.$.$.#.#.#.#.#.#.#.#.#.$.$.$.$.$.$.$.$.$.$.#.#.*.- 5.%.$.$.$.$.$.$.$.$.$.#.#.#.#.#.#.#.#.#.$.$.$.$.%.4.- %.$.$.$.$.$.$.$.$.$.$.$.$.$.$.$.$.$.$.$.$.$.$.#.#.1.O kX8X6X6X6X9X9X9X9X7X7X9X9X9X6X6X6X6X6X6X9X9X9X7XuXcXO uX9X6X6X6X6X6X6X6X9X7X7X9X9X9X9X9X9X9X6X6X6X6X6X6XuXO cX8X6X9X8X9X9X9X7X7X7X9X9X7X9X7X7X7X7X9X9X9X9X6X8XcXo .                                                   . cXyX9X9X9X9X9X9X9X9X9X7X7X7X7X9X9X9X9X7X7X9X9X7XuXkXo AXDXDXAXAXDXDXDXDXDXDXDXDXDXDXDXDXDXDXDXDXDXDXDXDXDX  DXDXDXDXDXDXDXDXDXDXDXDXDXDXDXDXDXDXDXDXDXDXDXDXDXDX  DXDXDXDXDXDXDXDXDXDXDXDXDXDXDXDXDXDXDXDXDXDXDXDXDXDX  DX",
"DXDXDX  DXDXDXDXDXDXDXDXDXDXDXDXDXDXDXDXDXDXDXDXDXDXDXDXDXDX  DXDXDXDXDXDXDXDXDXDXDXDXDXDXDXDXDXDXDXDXDXDXDXDXDXDXo 3.$.$.#.#.#.#.#.#.#.#.#.#.$.$.$.$.$.$.$.$.$.$.#.#.*.- 5.%.$.$.$.$.$.$.$.$.$.#.#.#.#.#.#.#.#.#.$.$.$.$.%.4.- %.$.$.$.$.$.$.$.$.$.$.$.$.$.$.$.$.$.$.$.$.$.$.#.#.1.O kX8X6X6X6X9X9X9X9X7X7X7X9X9X6X6X6X6X6X6X9X9X9X7XuXcXO uX9X6X6X6X6X6X6X6X9X9X7X9X9X9X9X9X9X9X6X6X6X6X6X6XuXO nX8X6X9X8X9X9X9X7X7X7X9X9X9X9X7X7X7X7X9X9X9X9X6X8XcXo .                                                   . cXyX9X9X9X9X9X9X9X9X7X7X7X7X7X9X9X9X9X7X7X9X7X7XuXkXo AXDXDXAXAXAXDXDXDXDXDXDXDXDXDXDXDXDXDXDXDXDXDXDXDXDX  DXDXDXDXDXDXDXDXDXDXDXDXDXDXDXDXDXDXDXDXDXDXDXDXDXDX  DXDXDXDXDXDXDXDXDXDXDXDXDXDXDXDXDXDXDXDXDXDXDXDXDXDX  DX",
"DXDXDX  DXDXDXDXDXDXDXDXDXDXDXDXDXDXDXDXDXDXDXDXDXDXDXDXDXDX  DXDXDXDXDXDXDXDXDXDXDXDXDXDXDXDXDXDXDXDXDXDXDXDXDXDXo 3.$.$.#.#.#.#.#.#.#.$.$.$.$.$.$.$.$.$.$.$.$.$.#.#.*.- 5.%.$.$.$.$.$.$.$.$.$.#.#.#.#.#.#.#.#.#.$.$.$.$.%.4.- %.$.$.$.$.$.$.$.$.$.#.#.$.$.$.$.$.$.$.$.$.$.$.#.#.1.O kXuX6X6X6X9X9X9X9X9X9X9X9X9X9X6X6X6X6X6X9X9X9X7XuXcXO uXqX6X6X6X6X9X9X9X9X9X9X9X9X7X7X9X9X9X9X6X6X6X6X6XuXO nX8X6X9X9X9X9X7X7X7X7X9X9X9X9X7X7X9X9X9X9X9X9X6X8XcXo .                                                   . cXyX9X9X9X9X9X9X9X9X9X9X9X7X7X9X9X9X9X9X9X7X7X7XuXkXo AXDXAXAXAXAXDXDXDXDXDXDXDXDXDXDXDXDXDXDXDXDXDXDXDXDX  DXDXDXDXDXDXDXDXDXDXDXDXDXDXDXDXDXDXDXDXDXDXDXDXDXDX  DXDXDXDXDXDXDXDXDXDXDXDXDXDXDXDXDXDXDXDXDXDXDXDXDXDX  DX",
"DXDXDX  DXDXDXDXDXDXDXDXDXDXDXDXDXDXDXDXDXDXDXDXDXDXDXDXDXDX  DXDXDXDXDXDXDXDXDXDXDXDXDXDXDXDXDXDXDXDXDXDXDXDXDXDXo 3.$.$.#.#.#.#.#.#.#.$.$.$.$.$.$.$.$.$.$.$.$.$.#.#.*.- 5.%.$.$.$.$.$.$.$.$.$.#.#.#.#.#.#.#.#.#.$.$.$.$.%.4.- %.$.$.$.$.$.$.$.$.$.#.#.$.$.$.$.$.$.$.$.$.$.$.#.#.1.O kXuX6X6X6X9X9X9X9X9X9X9X9X9X9X6X6X6X6X6X9X9X9X9XuXcXO uXqX6X6X6X6X9X9X9X9X9X9X9X9X7X7X9X9X9X9X6X6X6X6X6XuXO nX8X6X9X9X7X9X7X9X7X7X9X9X9X9X7X7X9X9X9X9X9X9X6X8XcX. .                                                   . cXyX9X9X9X9X9X9X9X9X9X9X9X7X7X9X9X9X9X9X9X7X9X7XuXkX. AXAXAXAXAXAXDXDXDXDXDXDXDXDXDXDXDXDXDXDXDXDXDXDXDXDX  DXDXDXDXDXDXDXDXDXDXDXDXDXDXDXDXDXDXDXDXDXDXDXDXDXDX  DXDXDXDXDXDXDXDXDXDXDXDXDXDXDXDXDXDXDXDXDXDXDXDXDXDX  DX",
"DXDXDX  DXDXDXDXDXDXDXDXDXDXDXDXDXDXDXDXDXDXDXDXDXDXDXDXDXDX  DXDXDXDXDXDXDXDXDXDXDXDXDXDXDXDXDXDXDXDXDXDXDXDXDXDXo 3.$.$.#.#.#.#.#.#.#.$.$.$.$.$.$.$.$.$.$.$.$.$.#.#.*.- 5.%.$.$.$.$.$.$.$.$.$.#.#.#.#.#.#.#.#.#.$.$.$.$.%.4.- %.$.$.$.$.$.$.$.$.$.#.#.$.$.$.$.$.$.$.$.$.$.$.#.#.1.O kX8X6X6X6X7X9X7X7X9X7X9X9X9X9X6X6X6X6X6X9X9X9X9XpXcXO uXqX6X6X6X6X9X9X9X9X9X9X9X9X7X7X9X9X9X9X6X6X6X6X6XuXO nX8X6X9X9X7X9X9X9X9X9X9X9X9X9X7X9X9X9X9X9X9X9X6X8XcX. .                                                   . cXyX9X9X9X9X9X9X9X9X9X9X9X7X7X7X9X7X7X9X7X9X9X9XuXkX. AXAXAXAXAXAXDXDXDXDXDXDXDXDXDXDXDXDXDXDXDXDXDXDXDXDX  DXDXDXDXDXDXDXDXDXDXDXDXDXDXDXDXDXDXDXDXDXDXDXDXDXDX  DXDXDXDXDXDXDXDXDXDXDXDXDXDXDXDXDXDXDXDXDXDXDXDXDXDX  DX",
"DXDXDX  DXDXDXDXDXDXDXDXDXDXDXDXDXDXDXDXDXDXDXDXDXDXDXDXDXDX  DXDXDXDXDXDXDXDXDXDXDXDXDXDXDXDXDXDXDXDXDXDXDXDXDXDXo 3.$.$.#.#.#.#.#.#.#.$.$.$.$.$.$.$.$.$.$.$.$.$.#.#.*.- 5.%.$.$.$.$.$.$.$.$.$.#.#.#.#.#.#.#.#.#.$.$.$.$.%.4.- %.$.$.$.$.$.$.$.$.$.#.#.$.$.$.$.$.$.$.$.$.$.$.#.#.1.O kX8X6X6X6X9X7X7X7X7X7X9X9X9X9X6X6X6X6X6X9X9X9X9XuXcXO uXqX6X6X6X6X9X9X9X9X9X9X9X9X7X7X9X9X9X9X6X6X6X6X6XuXO nX8X6X9X9X9X9X9X9X9X9X9X9X9X9X7X9X9X9X9X9X9X9X6X8XcX. .                                                   . cXyX9X9X9X9X9X9X9X9X9X9X9X7X7X7X9X7X7X7X7X9X9X9XuXkX. AXAXAXAXAXAXDXDXDXDXDXDXDXDXDXDXDXDXDXDXDXDXDXDXDXDX  DXDXDXDXDXDXDXDXDXDXDXDXDXDXDXDXDXDXDXDXDXDXDXDXDXDX  DXDXDXDXDXDXDXDXDXDXDXDXDXDXDXDXDXDXDXDXDXDXDXDXDXDX  DX",
"DXDXDX  DXDXDXDXDXDXDXDXDXDXDXDXDXDXDXDXDXDXDXDXDXDXDXDXDXDX  DXDXDXDXDXDXDXDXDXDXDXDXDXDXDXDXDXDXDXDXDXDXDXDXDXDXo 3.$.$.#.#.#.#.#.#.#.$.$.$.$.$.$.$.$.$.$.$.$.$.#.#.*.- 5.+.$.$.$.$.$.$.$.$.$.#.#.#.#.#.#.#.#.#.$.$.$.$.%.4.- %.$.$.$.$.$.$.$.$.$.#.#.#.#.#.#.#.#.#.#.#.#.#.#.#.3.O kX8X6X6X6X9X9X9X9X7X7X9X9X9X9X6X6X6X6X6X9X9X9X9XpXbXO uXqX6X6X6X6X9X9X9X9X9X9X9X9X7X7X9X9X9X9X6X6X6X6X6XuXO cX8X6X9X9X9X9X9X9X9X9X9X9X9X9X9X9X7X7X6X6X6X6X6X8XcX. .                                                   . cXyX9X9X9X9X9X9X9X9X9X9X9X7X7X7X7X7X7X9X9X9X9X9XuXbX. AXDXAXZXZXAXDXDXDXDXDXDXDXDXDXDXDXDXDXDXDXDXDXDXDXDX  DXDXDXDXDXDXDXDXDXDXDXDXDXDXDXDXDXDXDXDXDXDXDXDXDXDX  DXDXDXDXDXDXDXDXDXDXDXDXDXDXDXDXDXDXDXDXDXDXDXDXDXDX  DX",
"DXDXDX  DXDXDXDXDXDXDXDXDXDXDXDXDXDXDXDXDXDXDXDXDXDXDXDXDXDX  DXDXDXDXDXDXDXDXDXDXDXDXDXDXDXDXDXDXDXDXDXDXDXDXDXDXo 3.$.$.#.#.#.#.#.#.#.$.$.$.$.$.$.$.$.$.$.$.$.$.#.#.*.- 5.+.$.$.$.$.$.$.$.$.$.#.#.#.#.#.#.#.#.#.$.$.$.$.%.4.- %.$.$.$.$.$.$.$.$.$.#.#.#.#.#.#.#.#.#.#.#.#.#.#.#.3.O kX8X6X6X6X9X9X9X9X7X7X9X9X9X9X6X6X6X6X6X9X9X9X9XpXcXO uXqX6X6X6X6X9X9X9X9X9X9X9X9X7X7X9X9X9X9X6X6X6X6X6XuXO cX8X6X9X9X9X9X7X7X9X9X9X9X9X9X9X7X7X7X6X6X6X6X6X8XcX. .                                                   o cXyX9X9X9X9X9X9X9X9X9X9X9X9X7X7X7X7X7X9X9X7X9X7XuXkX. AXAXAXZXZXAXDXDXDXDXDXDXDXDXDXDXDXDXDXDXDXDXDXDXDXDX  DXDXDXDXDXDXDXDXDXDXDXDXDXDXDXDXDXDXDXDXDXDXDXDXDXDX  DXDXDXDXDXDXDXDXDXDXDXDXDXDXDXDXDXDXDXDXDXDXDXDXDXDX  DX",
"DXDXDX  DXDXDXDXDXDXDXDXDXDXDXDXDXDXDXDXDXDXDXDXDXDXDXDXDXDX  DXDXDXDXDXDXDXDXDXDXDXDXDXDXDXDXDXDXDXDXDXDXDXDXDXDXo 3.$.$.#.#.#.#.#.#.#.$.$.$.$.$.$.$.$.$.$.$.$.$.#.#.*.- 5.+.$.$.$.$.$.$.$.$.$.#.#.#.#.#.#.#.#.#.$.$.$.$.%.4.- %.$.$.$.$.$.$.$.$.$.#.#.#.#.#.#.#.#.#.#.#.#.#.#.#.3.O kX9X6X6X6X9X9X9X9X7X9X9X9X9X9X6X6X6X6X6X9X9X9X7XpXcXO uXqX6X6X6X6X9X9X9X9X9X9X9X9X9X7X9X9X9X9X6X6X6X6X6XuXO nX8X6X9X9X9X9X7X7X7X7X9X9X9X9X9X9X7X7X6X6X6X6X6X8XcX. .                                                   . cXyX9X9X9X9X9X9X9X9X9X9X9X9X9X7X7X9X9X9X9X7X7X7XuXkX. AXAXAXZXZXAXDXDXDXDXDXDXDXDXDXDXDXDXDXDXDXDXDXDXDXDX  DXDXDXDXDXDXDXDXDXDXDXDXDXDXDXDXDXDXDXDXDXDXDXDXDXDX  DXDXDXDXDXDXDXDXDXDXDXDXDXDXDXDXDXDXDXDXDXDXDXDXDXDX  DX",
"DXDXDX  DXDXDXDXDXDXDXDXDXDXDXDXDXDXDXDXDXDXDXDXDXDXDXDXDXDX  DXDXDXDXDXDXDXDXDXDXDXDXDXDXDXDXDXDXDXDXDXDXDXDXDXDX. 3.$.$.#.#.#.#.$.$.$.$.$.$.$.$.$.$.$.$.$.$.$.$.#.#.*.- S +.$.$.$.$.$.$.$.$.$.#.#.#.#.#.#.#.#.$.$.$.$.$.%.4.- %.$.$.$.$.$.$.$.$.#.#.#.#.#.#.#.#.#.#.$.$.$.$.#.#.3.- iX9X6X6X6X9X9X9X9X7X9X9X9X9X9X9X9X9X9X9X9X9X9X7XpXcXO uXqX6X9X9X9X9X9X9X9X9X9X9X9X7X7X9X9X9X9X9X9X9X9X9XuXO nX8X7X9X9X9X9X7X7X7X7X9X9X9X9X9X9X7X7X7X7X7X6X6X8XcXo .                                                   . cXyX9X9X9X9X9X9X9X9X9X9X9X7X7X7X7X9X9X9X9X7X7X7XuXkX. DXDXAXAXAXAXDXDXDXDXDXDXDXDXDXDXDXDXDXDXDXDXDXDXDXDX  DXDXAXDXDXDXDXDXDXDXDXDXDXDXDXDXDXDXDXDXDXDXDXDXDXDX  DXDXDXDXDXDXDXDXDXDXDXDXDXDXDXDXDXDXDXDXDXDXDXDXDXDX  DX",
"HXDXHX  DXDXDXDXDXDXDXDXDXDXDXDXDXDXDXDXDXDXDXDXAXAXDXDXDXDX  AXDXAXAXAXAXAXAXAXAXDXDXDXDXDXDXDXAXAXAXAXAXAXAXAXCX. 1.#.$.#.#.#.$.$.$.$.$.$.$.$.$.$.$.$.$.$.$.$.$.$.#.+.- m *.#.$.$.$.$.$.$.$.$.$.$.$.$.$.$.$.$.$.$.$.$.$.%.6.; %.$.$.$.$.$.$.#.$.#.#.#.#.#.$.$.$.$.$.$.$.$.$.$.%.>.- pX9X6X6X6X6X9X9X9X9X9X9X9X9X9X9X9X9X9X9X9X9X9X9XpXnX- uXqX9X9X9X9X9X9X9X9X9X9X9X9X9X9X9X9X9X9X9X9X9X9X9XpXO nXuX9X9X9X9X9X9X9X9X9X9X9X9X9X9X9X9X9X9X9X9X9X6X8XmXo .                                                 . . cXfX8X9X9X9X9X9X9X9X9X9X9X9X9X9X7X7X7X9X9X9X9X9XyXkXo DXDXDXDXAXAXAXDXDXDXDXDXAXDXAXAXAXAXAXAXAXAXAXAXAXAX  DXDXAXDXDXDXDXDXDXDXDXDXDXDXDXDXDXDXDXDXDXDXAXDXCXJX  DXDXDXDXDXDXDXDXDXDXDXDXDXDXDXDXDXDXDXDXDXDXDXDXDXAXX AX",
"DXDXHX  DXDXDXDXDXDXDXDXDXDXDXDXDXDXDXDXDXDXDXDXDXDXDXDXDXDX  DXCXCXCXCXCXCXCXCXCXCXCXCXCXCXCXCXCXCXCXCXCXCXCXCXCX. 2.*.=.*.1.1.1.-.-.%.,.,.,.,.,.,.,.<.,.,.,.<.-.-.1.2.O A 1.@.-.-.-.-.-.-.-.-.-.-.-.-.-.-.-.-.-.<.<.<.<.>.A O 2.1.1.1.1.1.1.1.1.*.*.*.*.*.*.*.*.*.*.*.*.%.+.:.>.4.- kXpX9X9XgXgXgXgXgXgXgXgXgXgXgXgXfXfXfXfXgXpXpXpXhXlXo jX8XgXfXfXgXgXgXgXpXpXgXgXpXpXpXpXpXpXgXgXfXfXfXfXhX. lXiXgXpXgXgXgXgXgXgXgXgXgXgXpXgXgXgXgXpXpXpXuX9XyXkX                                                      . bXhXfXfXfXgXgXgXjXpXpXpXpXpXpXpXpXpXpXpXuXuXuXuXhXlX. DXAXDXAXCXCXCXAXAXAXAXAXCXCXCXCXCXCXCXCXCXAXHXAXDXDXX DXDXAXDXDXDXDXDXDXDXDXDXDXDXDXDXDXDXDXDXDXCXCXAXCXZX  DXDXDXDXDXDXDXDXDXDXDXDXDXDXDXDXDXDXDXDXDXDXDXDXAXDX  DX",
"                                                              . o o o o o o o o o o o o o o o o o o o o o o o o +   o O o o o o O O O O O O O O O O O O O O O O O O O o   . - - - - - - - - - - - - - - - - - - - ; ; ; ; - o   O O O O O O O O O O O O O O O O O O O O O - O O - O o . O O O o o o o o o o o o o o o o o o o o o o o o .   o - o o o o o o o o o o o o O O o o o o o o o o o .   . o o o o o o o o o o o o o o o o o o o o o O O O o                                                       . o o o o o O O O O o o o o O O O O O O O O O O o o o . . o o o o o o o o o o o o o o o o o o o o o o o . .   . o o o o o o o o o o o o o o o o o o o o O O O . .                                                   X       ",
"DXDXDX  DXDXDXDXDXDXDXDXDXDXDXDXDXDXDXDXDXDXDXDXDXDXDXDXDXDX  T D S S S S S S S A A A A A A A A S S S S S S S D T o tXcXvXBXvXvXcXcXcXcXcXcXcXcXcXcXcXcXmXmXmXnXnXhXnXvX. T D S 4.5.5.5.5.5.5.D D D D D D D D S 4.2.4.4.4.D T . vXcXcXcXcXcXcXcXcXcXcXcXcXcXcXcXcXcXcXcXcXcXcXkXmXzXo BXlXkXkXcXsXkXkXkXkXkXkXcXbXbXbXbXbXbXbXkXkXkXkXbXNX. vXcXcXbXbXbXkXkXkXkXkXkXkXkXkXkXkXkXkXkXbXbXbXbXbXbX  NXlXkXkXkXkXkXkXkXkXkXkXkXkXkXkXkXkXkXkXkXkXkXiXrXBX                                                      . bXrXtXtXtXrXrXrXrXrXrXrXrXkXkXkXkXrXrXrXrXrXrXrXtXlXo bXlXlXkXcXcXnXhXhXhXhXhXhXiXrXrXrXrXrXrXrXrXrXkXkXkXo lXtXiXiXiXiXiXiXiXiXiXiXiXiXiXiXiXiXrXkXrXpXyXiXkXBX  DXDXDXDXDXDXDXDXDXDXDXDXDXDXDXDXDXDXDXDXDXDXDXDXDXDX  DX",
"DXDXDX  DXDXDXDXDXDXDXDXDXDXDXDXDXDXDXDXDXDXDXDXDXDXDXDXDXAX. F 2.%.%.%.,.,.,.,.,.,.,.,.,.,.,.,.%.%.%.%.%.%.%.>.7.- pX8XiXiXyX8X8X8X8X8X8X8X8X8XuXuXuXuXuXuXuXuXuXuXuXiXo F >.-.,.,.,.,.,.,.,.,.,.,.,.,.,.,.,.%.%.#.&.&.%.>.D O yXuXuXuXuXuXuXuX8X8X8X8X8X8X8X8X8X8X8X8X8X8X8X8X7XpXo vXpXuXyXyXyXyXyXyXyXyXyXyXyXyXyXyXyXyXyXyXpXpXpXiXlXO pXgXyXyXyXyXyXyXyXuXuXuXuXuXuXuXuXuXuXyXyXyXyXyXyXiXo vXiX8XpXyXyXyXyXyXyXyXyXyXuXuXuXuXuXuXuXuXuXuX9X8XbX.     X                                                 bXhXuXuXuXyXyXyXyX8X8X8X8X8X8X8X8X8X8X8X8X8X8XwXdXrXo cXzXpXyXyXyXpXpXuXuXuXuXuXuXuXuXuXuXuXuXuXuXpXyXpXiXo kXyXuXuXuXuXuXuXuXuXuXuXuXuXuXuXuXuXuXyX8X9X8XgXiXmX. AXDXDXDXDXDXDXDXDXDXDXDXDXDXDXDXDXDXDXDXDXDXDXDXDXDX  DX",
"DXDXDX  DXDXDXDXDXDXDXDXDXDXDXDXDXDXDXDXDXDXDXDXAXDXDXDXDXCXo D +.$.$.$.$.$.$.$.$.$.$.$.$.$.$.$.$.$.$.$.$.$.$.%.7.; 9X6X8X8X6X5X6X6X6X6X6X6X6X6X6X9X9X9X9X7X7X9X7X7X9XuXO S %.$.$.$.$.$.$.$.$.$.$.#.#.#.#.$.$.$.$.$.$.$.$.%.2.- 9X6X6X6X6X6X6X6X6X6X6X6X6X6X6X6X6X6X6X6X6X6X6X6X5XuXO cXuX9X9X9X9X6X6X6X6X6X6X6X9X9X9X9X9X9X9X9X7X7X9XuXzXO 8XqX9X9X9X9X9X9X9X9X9X7X7X7X7X7X7X9X9X9X9X9X9X9X9XuXO zX8X6X9X7X9X6X9X9X9X9X9X9X9X9X9X7X7X7X7X7X9X6X6X7XcX.                                                       bXuX9X9X9X9X9X9X9X6X6X6X6X6X6X6X6X6X6X6X6X6X6XwX8XrXO hXyX9X6X9X9X9X9X9X9X9X9X9X9X7X9X9X9X9X9X7X9X8XuXuXpXo kX8X6X9X9X9X9X9X9X9X9X9X9X9X9X9X9X9X9X6X6X6X6X9XyXnX. AXDXDXDXDXDXDXDXDXDXDXDXDXDXDXDXDXDXDXDXDXDXDXDXDXDX  DX",
"DXDXDX  DXDXDXDXDXDXDXDXDXDXDXDXDXDXDXDXDXDXDXDXAXDXDXDXDXCXo S *.$.$.$.$.$.$.$.$.$.$.$.$.$.$.$.$.$.$.$.$.$.$.%.5.- 9X5X8X8X8X7X6X6X6X6X6X9X9X9X9X9X9X7X9X9X9X9X9X9X9X8Xo m =.;.#.#.#.#.#.#.#.#.#.#.#.#.#.#.#.#.$.$.$.$.$.%.4.- 9X7X7X7X7X7X7X7X6X6X6X6X6X6X6X6X6X6X6X6X6X6X6X6X5XuXO cXuX9X9X9X6X6X6X6X6X6X6X6X6X6X6X6X6X6X6X6X6X6X6X8XiX- 9X6X6X6X6X6X6X6X6X6X6X6X6X6X6X6X6X6X6X6X6X6X6X6X6X8XO iX7X6X6X6X6X6X6X6X6X6X6X6X6X6X6X6X6X6X6X6X6X6X9X8XcX                                                        cXuX6X6X9X6X6X6X6X6X6X6X6X6X6X6X6X6X6X6X6X6X6X6X8XtXO fX6X4X4X4X6X9X9X9X9X9X9X9X9X7X7X7X7X9X9X9X9X8X8X9XpXo kX9X6X6X6X6X6X6X6X6X6X6X6X6X6X6X6X6X6XwXwX6X6X8XiXvX. AXDXDXDXDXDXDXDXDXDXDXDXDXDXDXDXDXDXDXDXDXDXDXDXDXDX  DX",
"DXDXDX  DXDXDXDXDXDXDXDXDXDXDXDXDXDXDXDXDXDXDXDXAXAXDXDXDXCXo S *.#.#.#.#.#.#.#.#.$.$.$.$.$.$.$.$.$.$.$.$.$.$.+.D O 9X5X9X8X7X7X9X9X9X9X9X9X9X9X9X9X9X9X7X7X7X9X6X6X9X8Xo m =.;.#.#.#.#.#.#.#.#.#.#.#.#.#.#.#.#.$.$.$.$.$.%.4.- 9X7X7X7X7X7X7X7X6X6X6X6X6X6X6X6X6X9X9X9X9X9X9X9X5XuXo cXuX9X9X6X6X6X6X6X6X6X6X6X6X6X6X6X6X6X6X6X6X6X6X9XiX- 9X6X6X6X6X6X6X6X6X6X6X6X6X6X6X6X6X6X6X6X6X6X6X6X6X8XO iX7X6X6X6X6X6X6X6X6X6X6X6X6X6X6X6X6X6X6X6X6X6X9XyXbX.                                                     . cXuX6X6X9X6X6X6X6X6X6X6X6X6X6X6X6X6X6X6X6X6X6X6X8XrXo gX6X4X4X4X6X9X9X9X9X9X9X9X9X7X9X7X7X9X9X9X9X9X8X9XpXo kX8X6X6X6X9X9X6X6X6X6X6X6X9X9X6X6X6X6XwX6X6X6X9XyXcX. AXDXDXDXDXDXDXDXDXDXDXDXDXDXDXDXDXDXDXDXDXDXDXDXDXDX  DX",
"DXDXDX  DXDXDXDXDXDXDXDXDXDXDXDXDXDXDXDXDXDXDXDXAXAXDXDXDXCXo S %.$.#.#.#.#.#.#.$.$.$.$.$.$.$.$.$.$.$.$.$.$.$.%.5.O uX6X9X6X6X6X9X9X9X9X9X9X9X9X9X9X9X9X9X9X9X6X6X6X9X8Xo S @.$.$.$.$.$.$.$.$.$.$.$.#.#.#.#.#.#.#.$.$.$.$.%.4.- 8X7X7X7X7X7X9X9X6X6X6X6X9X9X9X9X7X7X7X7X7X9X9X9X5XuXo cXuX9X7X9X6X6X6X6X6X6X6X6X6X6X6X6X6X6X6X9X9X9X7X9XiXO 8X9X6X6X6X6X6X6X6X6X6X6X6X6X6X6X6X6X6X6X6X6X6X6X6XuXO zX8X6X9X9X6X6X6X6X6X6X6X6X6X6X6X6X6X6X6X6X6X7X9XyXcX. .                                                   . cXuX6X6X9X9X9X9X9X9X9X9X9X9X9X9X9X9X9X9X9X9X9X9XuXsXo uX6X6X6X9X9X9X7X7X7X9X9X9X9X9X9X9X9X9X9X9X9X7X7X7XuXo kXyX6X6X9X9X9X9X9X9X9X9X9X9X9X9X9X9X6X6X6X6X6X9XuXcX. AXDXDXDXDXDXDXDXDXDXDXDXDXDXDXDXDXDXDXDXDXDXDXDXDXDX  DX",
"DXDXDX  DXDXDXDXDXDXDXDXDXDXDXDXDXDXDXDXDXDXDXDXAXAXDXDXDXAXo S %.$.#.#.#.#.#.$.$.$.$.$.$.$.$.$.$.$.$.$.$.$.$.%.5.- uX7X9X6X6X6X9X9X9X9X9X9X9X9X9X6X6X6X6X6X6X6X6X6X7X9XO S +.;.$.$.$.$.$.$.$.$.$.$.$.$.$.$.$.$.#.$.$.$.$.%.5.O 9X9X9X9X9X9X9X9X6X6X6X6X9X9X9X9X7X7X7X7X9X9X9X9X6XgXo cXuX9X7X9X7X9X9X9X9X9X9X9X9X9X9X9X9X9X9X9X9X9X7XuXkXO 8X9X9X9X9X9X9X9X9X9X9X9X9X9X9X9X9X9X9X9X9X9X9X9X9XuXO nX8X6X9X9X9X6X9X9X9X7X9X9X9X9X9X9X9X9X9X9X9X7X7X8XcX. .                                                   . cXuX7X7X7X9X9X9X9X9X9X9X9X9X9X9X9X9X9X9X9X9X9X9XuXcXo uX6X9X9X8X8X7X9X7X7X9X9X9X9X9X9X9X9X9X9X9X9X7X7X6XuXO kXyX9X9X9X9X9X9X9X9X9X9X9X9X9X9X9X9X9X6X6X6X7X9X8XcX. AXDXDXDXDXDXDXDXDXDXDXDXDXDXDXDXDXDXDXDXDXDXDXDXDXDX  DX",
"DXDXDX  DXDXDXDXDXDXDXDXDXDXDXDXDXDXDXDXDXDXDXDXAXAXDXDXDXAXo S +.#.#.#.#.#.#.$.$.$.$.$.$.$.$.$.$.$.$.$.$.$.$.%.5.- uX7X9X6X6X6X9X7X9X9X9X9X7X7X9X6X6X6X6X6X6X6X6X6X7X9XO S +.;.$.$.$.$.$.$.$.$.$.$.$.$.$.$.$.$.#.$.$.$.$.%.5.O 9X9X9X9X9X9X9X9X6X6X6X6X9X9X9X9X7X7X7X7X9X9X9X9X6XgXo cXuX9X7X9X9X9X9X9X9X9X9X9X9X9X9X9X9X9X9X9X9X9X7XuXkXO 8X9X9X9X9X9X9X9X9X9X9X9X9X9X9X9X9X9X9X9X9X9X9X9X9XuXO nX8X6X9X9X9X6X9X9X7X7X7X7X9X9X9X9X9X9X9X9X9X7X7X8XcX. .                                                   . cXuX7X7X7X7X7X9X9X9X9X9X9X9X9X9X9X9X9X9X9X9X9X9XuXcXO uX5X9X9X8X8X9X9X9X9X9X9X9X9X9X9X9X9X9X9X9X9X7X7X6XuXO kXyX9X9X9X9X9X9X9X9X9X9X9X9X9X9X9X9X9X6X6X6X7X6XuXcX. AXDXDXDXDXDXDXDXDXDXDXDXDXDXDXDXDXDXDXDXDXDXDXDXDXDX  DX",
"DXDXDX  DXDXDXDXDXDXDXDXDXDXDXDXDXDXDXDXDXDXDXDXDXDXDXDXDXAXo S +.#.#.#.#.#.#.$.$.$.$.$.$.$.$.$.$.$.$.$.$.$.$.%.5.- uX7X9X6X6X6X9X9X9X9X9X7X7X7X9X6X6X6X6X6X6X6X6X6X7X9XO S +.;.$.$.$.$.$.$.$.$.$.$.$.$.$.$.$.$.#.$.$.$.$.%.5.O 9X9X9X9X9X9X9X9X6X6X6X6X9X9X9X9X7X7X7X7X9X9X9X9X5XgXo cXuX9X7X9X9X9X9X9X9X9X9X9X9X9X9X9X9X9X9X9X9X9X7XuXkXO 8X9X9X9X9X9X9X9X9X9X9X9X9X9X9X9X9X9X9X9X9X9X9X9X9XuXO nX8X6X9X9X9X6X9X9X7X7X7X7X9X9X9X9X9X9X9X9X9X7X7X8XcX. .                                                   . cXuX7X7X7X7X9X9X9X9X9X9X9X9X9X9X9X9X9X9X9X9X9X9XuXcXO uX5X9X9X8X8X9X9X9X9X9X9X9X9X9X9X9X9X9X9X9X9X7X7X6XuXO kXyX9X9X9X9X9X9X9X9X9X9X9X9X9X9X9X9X9X6X6X6X7X6XgXrX. AXDXDXDXDXDXDXDXDXDXDXDXDXDXDXDXDXDXDXDXDXDXDXDXDXDX  DX",
"DXDXDX  DXDXDXDXDXDXDXDXDXDXDXDXDXDXDXDXDXDXDXDXDXDXDXDXDXAXo S +.#.#.#.#.#.#.$.$.$.$.$.$.$.$.$.$.$.$.$.$.$.$.%.5.- uX7X9X6X6X6X9X7X9X9X9X9X7X7X9X6X6X6X6X6X6X6X6X6X7X8XO S +.$.$.$.$.$.$.$.$.$.$.$.$.$.$.$.$.$.#.$.$.$.$.%.5.O 8X9X9X9X9X9X9X9X6X6X6X6X9X9X9X9X9X9X9X9X9X9X9X9X6XgXo cXuX9X7X9X9X9X9X9X9X9X9X9X9X9X9X9X9X9X9X9X9X7X7XuXnXO 8X9X9X9X9X9X9X9X9X9X9X9X9X9X9X9X9X9X9X9X9X9X9X9X9XuXO nX8X6X9X9X9X6X9X9X7X7X7X7X7X9X9X9X9X9X9X9X9X7X7X8XcX. .                                                   . cXuX7X9X9X7X7X7X7X9X9X9X9X9X9X9X9X9X9X9X9X9X9X9XuXcXO uX5X9X9XqXqX9X9X9X9X9X9X9X9X9X9X9X9X9X9X9X9X7X7X6XuXO kXyX9X9X9X9X9X9X9X9X9X9X9X9X9X9X9X9X9X6X6X6X7X6XuXkXo AXDXDXDXDXDXDXDXDXDXDXDXDXDXDXDXDXDXDXDXDXDXDXDXDXDX  DX",
"DXDXDX  DXDXDXDXDXDXDXDXDXDXDXDXDXDXDXDXDXDXDXDXDXDXDXDXDXAXo S +.#.#.#.#.#.#.$.$.$.$.$.$.$.$.$.$.$.$.$.$.$.$.%.5.- uX7X9X6X6X6X9X7X9X9X9X9X7X7X9X6X6X6X6X6X6X6X6X6X7X8XO S +.$.$.$.$.$.$.$.$.$.$.$.$.$.$.$.$.$.#.$.$.$.$.%.5.O 8X9X9X9X9X9X9X9X6X6X6X6X9X9X9X9X9X9X9X9X9X9X9X9X5XpXo cXuX9X7X9X9X9X9X9X9X9X9X9X9X9X9X9X9X9X9X9X9X7X7XuXnXO 8XqX9X9X9X9X9X9X9X9X9X9X9X9X9X9X9X9X9X9X9X9X9X9X9XuXO nX8X6X9X9X9X6X9X9X7X7X7X7X9X9X9X9X9X9X9X9X9X9X9X8XcX. .                                                   . cXuX7X7X9X7X7X7X7X9X9X9X9X9X9X9X9X9X9X9X9X9X9X9XuXcXO uX5X9X9XqXqX7X7X9X9X9X9X9X9X9X9X9X9X9X9X9X9X7X7X6XuXO kXyX9X9X9X9X9X9X9X9X9X9X9X9X9X9X9X9X9X6X6X6X7X6XuXkXo AXDXDXDXDXDXDXDXDXDXDXDXDXDXDXDXDXDXDXDXDXDXDXDXDXDX  DX",
"DXDXDX  DXDXDXDXDXDXDXDXDXDXDXDXDXDXDXDXDXDXDXDXDXDXDXDXDXAXo S +.#.#.#.#.#.#.$.$.$.$.$.$.$.$.$.$.$.$.$.$.$.$.%.5.- uX7X9X6X6X6X9X7X7X9X9X9X9X7X9X6X6X6X6X6X6X6X6X6X9X8XO S +.$.$.$.$.$.$.$.$.$.$.$.$.$.$.$.$.$.#.$.$.$.$.%.5.O 8X9X9X9X9X9X9X9X6X6X6X6X9X9X9X9X7X7X7X9X9X9X9X9X6XgXo cXuX9X7X9X9X9X9X9X9X9X9X9X9X9X9X9X9X9X9X9X9X7X7XuXnXO 8XqX9X9X9X9X9X9X9X9X9X9X9X9X9X9X9X9X9X9X9X9X9X9X9XuXO nX8X6X9X9X9X6X7X7X7X7X7X7X7X9X9X9X9X9X9X9X9X9X9X8XcX.                                                     . cXuX7X9X9X9X9X9X9X9X9X9X9X9X9X9X9X9X9X9X9X9X9X9XuXcXO uX5X9X9XqXqX7X7X7X7X9X9X9X9X9X9X9X9X9X9X9X9X7X9X6XuXO kXyX8X9X9X9X9X9X9X9X9X9X9X9X9X9X9X9X9X6X6X6X7X6XuXkXo AXDXDXDXDXDXDXDXDXDXDXDXDXDXDXDXDXDXDXDXDXDXDXDXDXDX  DX",
"DXDXDX  DXDXDXDXDXDXDXDXDXDXDXDXDXDXDXDXDXDXDXDXDXDXDXDXDXAXo S +.$.$.$.$.$.$.$.$.$.$.$.$.$.$.$.$.$.$.$.$.$.$.%.5.- uX7X9X6X6X6X9X7X7X7X9X9X7X9X9X9X9X9X9X9X9X6X6X6X9X8XO S +.;.$.$.$.$.$.$.$.$.$.$.$.$.$.$.$.$.#.$.$.$.$.%.4.O 8X9X9X9X9X9X9X9X6X6X6X6X9X9X9X9X7X7X7X7X9X9X9X9X6XgXo cXuX9X7X9X9X9X9X9X9X9X9X9X9X9X9X9X9X9X9X9X9X7X7XuXnXO 8X9X9X9X9X9X9X9X9X9X9X9X9X9X9X9X9X9X9X9X9X9X9X9X9XuXO nX8X6X9X9X9X6X9X7X7X7X7X7X7X9X9X9X9X9X9X9X9X9X9X8XcX.                                                     . cXuX7X9X9X9X9X9X9X9X9X9X9X9X9X9X9X9X9X9X9X9X9X9XuXcXO uX5X9X9XqXqX7X7X7X7X9X9X9X9X9X9X9X9X9X9X9X9X7X9X6XuXo kXyX9X9X9X9X9X9X9X9X9X9X9X9X9X9X9X9X9X6X6X6X7X6XuXkXo AXDXDXDXDXDXDXDXDXDXDXDXDXDXDXDXDXDXDXDXDXDXDXDXDXDX  DX",
"DXDXDX  DXDXDXDXDXDXDXDXDXDXDXDXDXDXDXDXDXDXDXDXDXDXDXDXDXAXo S %.$.$.$.$.$.$.$.$.$.$.$.$.$.$.$.$.$.$.$.$.$.$.%.5.O uX7X9X6X6X6X6X9X9X9X9X9X9X9X9X7X9X9X9X9X9X9X6X6X9XuXO S +.$.$.$.$.$.$.$.$.$.$.$.$.$.$.$.$.$.#.$.$.$.$.%.4.O 9X9X9X9X9X9X9X9X6X6X6X6X6X6X6X6X7X7X7X7X7X7X7X7X6XgXo cXuX9X7X9X9X9X9X9X9X9X9X9X9X9X9X9X9X9X9X9X9X9X7XuXkXO 8X9X9X9X9X9X9X9X9X9X9X9X9X9X9X9X9X9X9X9X9X9X9X9X9XuXO nX8X6X9X9X9X6X9X7X7X7X7X7X9X9X9X9X9X9X9X9X9X9X9X8XcX.                                                     . cXuX7X9X9X9X7X7X7X9X9X9X9X9X9X9X9X9X9X9X9X9X9X9XuXcXO uX5X9X9X8X8X9X7X9X9X9X9X9X9X7X7X9X9X9X9X9X9X7X9X6XuXo kXyX9X9X9X9X9X9X9X9X9X9X9X9X9X9X9X9X9X6X6X6X7X6XuXkX. AXDXDXDXDXDXDXDXDXDXDXDXDXDXDXDXDXDXDXDXDXDXDXDXDXDX  DX",
"DXDXDX  DXDXDXDXDXDXDXDXDXDXDXDXDXDXDXDXDXDXDXDXDXDXDXDXDXAXo S %.$.$.$.$.$.$.$.$.$.$.$.$.$.$.$.$.$.$.$.$.$.$.+.D O uX7X9X6X6X6X6X6X6X6X6X6X6X9X7X7X9X9X9X9X9X9X6X6X7XuXO S +.$.$.$.$.$.$.$.$.$.$.$.$.$.$.$.$.$.#.$.$.$.$.%.4.O 9X9X9X9X9X9X9X9X6X6X6X6X6X6X6X6X7X7X7X7X7X7X7X7X6XgXo cXuX9X7X9X9X9X9X9X9X9X9X9X9X9X9X9X9X9X9X9X9X9X7XuXkXO 8X9X9X9X9X9X9X9X9X9X9X9X9X9X9X9X9X9X9X9X9X9X9X9X9XuXO nX8X6X9X9X9X6X9X9X7X7X9X7X9X9X9X9X9X9X9X9X9X6X6X8XcX.                                                     . cXuX7X9X9X9X7X7X7X9X9X9X9X9X9X9X9X9X9X9X9X9X9X9XuXcXO uX5X9X9X8X8X9X7X9X9X9X9X9X9X7X7X9X9X9X9X9X9X9X9X6XyXo kXyX9X9X9X9X9X9X9X9X9X9X9X9X9X9X9X9X9X6X6X6X7X6XuXrX. AXDXDXDXDXDXDXDXDXDXDXDXDXDXDXDXDXDXDXDXDXDXDXDXDXDX  DX",
"DXDXDX  DXDXDXDXDXDXDXDXDXDXDXDXDXDXDXDXDXDXDXDXAXAXDXDXDXAXo S %.$.$.$.$.$.$.$.$.$.$.$.$.$.$.$.$.$.$.$.#.#.#.+.D O uX7X9X6X6X6X6X6X6X6X6X6X6X9X7X7X7X9X7X7X9X9X6X6X7X9XO S +.$.$.$.$.$.$.$.$.$.$.$.$.$.$.$.$.$.#.$.$.$.$.%.4.O 9X9X9X9X9X9X9X9X6X6X6X6X6X6X6X6X6X6X6X6X6X6X6X6X6XgXo cXuX9X7X7X9X9X9X9X9X9X9X9X9X9X9X9X9X9X9X9X9X9X7XuXkXO 8X9X9X9X9X9X9X9X9X9X9X9X9X9X9X9X9X9X9X9X9X9X9X9X9XuXO nX8X6X9X9X9X6X7X9X9X9X9X9X9X9X9X9X9X9X9X9X9X6X6X8XsX.                                                     . cXuX9X9X9X9X9X7X7X9X9X9X9X9X9X9X9X9X9X9X9X9X9X9XuXcXO uX5X9X9XqXqX7X9X9X9X9X9X7X7X7X7X7X9X9X9X9X9X9X9X6XuXo kXyX9X9X9X9X9X9X9X9X9X9X9X9X9X9X9X9X9X6X6X6X7X6XuXkXo AXDXDXDXDXDXDXDXDXDXDXDXDXDXDXDXDXDXDXDXDXDXDXDXDXDX  DX",
"DXDXDX  DXDXDXDXDXDXDXDXDXDXDXDXDXDXDXDXDXDXDXDXAXAXDXDXDXAXo S %.$.$.$.$.$.$.$.$.$.$.$.$.$.$.$.$.$.$.$.#.#.#.+.5.- uX7X9X6X6X6X6X6X6X6X6X6X6X9X7X7X7X7X7X7X7X9X6X6X7X9XO S +.$.$.$.$.$.$.$.$.$.$.$.$.$.$.$.$.$.#.$.$.$.$.%.4.O 9X9X9X9X9X9X9X9X6X6X6X6X6X6X6X6X6X6X6X6X6X6X6X6X6XgXo cXuX9X7X7X9X9X9X9X9X9X9X9X9X9X9X9X9X9X9X9X9X9X7XuXkXO 8X9X9X9X9X9X9X9X9X9X9X9X9X9X9X9X9X9X9X9X9X9X9X9X9XuXO nX8X6X9X9X9X6X7X9X9X9X9X9X9X9X9X9X9X9X9X9X9X6X6X0XsX.                                                     . cXuX9X9X9X9X7X7X7X9X9X9X9X9X9X9X9X9X9X9X9X9X9X9XuXcXO uX5X9X9XqXqX7X9X9X9X9X9X7X7X7X7X7X9X9X9X9X9X9X9X6XuXo kXyX9X9X9X9X9X9X9X9X9X9X9X9X9X9X9X9X9X6X6X6X7X6XuXkXo AXDXDXDXDXDXDXDXDXDXDXDXDXDXDXDXDXDXDXDXDXDXDXDXDXDX  DX",
"DXDXDX  DXDXDXDXDXDXDXDXDXDXDXDXDXDXDXDXDXDXDXDXAXAXDXDXDXAXo S %.$.$.$.$.$.$.$.$.$.$.$.$.$.$.$.$.$.$.$.#.#.#.+.5.- uX7X9X6X6X6X6X6X6X6X6X6X6X9X7X7X7X7X7X7X9X9X6X6X7X8XO S +.$.$.$.$.$.$.$.$.$.$.$.$.$.$.$.$.$.#.$.$.$.$.%.4.- 8X9X9X9X9X9X9X9X6X6X6X6X6X6X6X6X6X6X6X6X6X6X6X6X6XgXo kXuX9X7X9X9X9X9X9X9X9X9X9X9X9X9X9X9X9X9X9X9X7X7XuXnXO 8X9X9X9X9X9X9X9X9X9X9X9X9X9X9X9X9X9X9X9X9X9X9X9X9XuXO nX8X6X9X9X9X6X7X7X9X9X9X9X7X7X9X9X9X9X9X9X9X6X6X8XsX.                                                     . cXuX9X7X7X9X9X9X9X9X9X9X9X9X9X9X9X9X9X9X9X9X9X9XuXcXO uX5X9X9XqX8X7X7X9X9X9X9X7X7X7X7X9X9X7X7X7X9X9X9X6XuXo kXyX9X9X9X9X9X9X9X9X9X9X9X9X9X9X9X9X9X6X6X6X7X6XuXkXo AXDXDXDXDXDXDXDXDXDXDXDXDXDXDXDXDXDXDXDXDXDXDXDXDXDX  DX",
"DXDXDX  DXDXDXDXDXDXDXDXDXDXDXDXDXDXDXDXDXDXDXDXAXAXDXDXDXAXo S %.$.$.$.$.$.$.$.$.$.$.$.$.$.$.$.$.$.$.$.#.#.#.+.5.- uX7X9X6X6X6X6X6X6X6X6X6X6X9X7X7X7X7X7X7X9X9X6X6X7X8XO S +.$.$.$.$.$.$.$.$.$.$.$.$.$.$.$.$.$.#.$.$.$.$.%.4.O 8X9X9X9X9X9X9X9X6X6X6X6X6X6X6X6X6X6X6X6X6X6X6X6X6XgXo kXuX9X7X9X9X9X9X9X9X9X9X9X9X9X9X9X9X9X9X9X9X7X7XuXnXO 8X9X9X9X9X9X9X9X9X9X9X9X9X9X9X9X9X9X9X9X9X9X9X9X9XuXO nX8X6X9X9X9X6X7X9X9X9X9X7X7X7X9X9X9X9X9X9X9X6X6X8XsX.                                                     . cXuX7X7X7X9X9X9X9X9X9X9X9X9X9X9X9X9X9X9X9X9X9X9XuXcXO uX5X9X9XqX8X7X9X9X9X9X9X7X7X7X9X9X9X7X7X7X7X7X9X6XuXo kXyX9X9X9X9X9X9X9X9X9X9X9X9X9X9X9X9X9X6X6X6X7X6XuXkX. AXDXDXDXDXDXDXDXDXDXDXDXDXDXDXDXDXDXDXDXDXDXDXDXDXDX  DX",
"DXDXDX  DXDXDXDXDXDXDXDXDXDXDXDXDXDXDXDXDXDXDXDXAXAXDXDXDXAXo S %.$.$.$.$.$.$.$.$.$.$.$.$.$.$.$.$.$.$.$.#.#.#.+.5.- uX7X9X6X6X6X6X6X6X6X6X6X6X9X7X9X9X7X9X9X9X9X6X6X7X8XO S +.$.$.$.$.$.$.$.$.$.$.$.$.$.$.$.$.$.#.$.$.$.$.%.4.O 8X9X9X9X9X9X9X9X6X6X6X6X6X6X6X6X6X6X6X6X6X6X6X6X6XgXo cXuX9X7X9X9X9X9X9X9X9X9X9X9X9X9X9X9X9X9X9X9X7X7XuXnXO 8X9X9X9X9X9X9X9X9X9X9X9X9X9X9X9X9X9X9X9X9X9X9X9X9XuXO nX8X6X9X9X9X6X9X9X9X9X9X9X7X7X9X9X9X9X9X9X9X6X6X8XsX.                                                     . cXuX9X7X7X7X7X9X9X9X9X9X9X9X9X9X9X9X9X9X9X9X9X9XyXcXO uX5X9X9XqX8X7X7X7X9X9X9X9X7X7X7X9X9X9X9X7X7X7X9X6XyXo kXyX9X9X9X9X9X9X9X9X9X9X9X9X9X9X9X9X9X6X6X6X7X6XgXkX. AXDXDXDXDXDXDXDXDXDXDXDXDXDXDXDXDXDXDXDXDXDXDXDXDXDX  DX",
"DXDXDX  DXDXDXDXDXDXDXDXDXDXDXDXDXDXDXDXDXDXDXDXAXAXDXDXDXAXo S +.$.$.$.$.$.$.$.$.$.$.$.#.#.#.#.#.$.$.#.#.#.#.+.5.- uX5X6X6X6X6X6X6X6X6X6X6X6X6X9X9X9X9X9X9X9X6X6X6X7X9XO S +.$.$.$.$.$.$.$.$.$.$.$.$.$.$.$.$.#.#.#.$.$.$.+.S O 8X7X7X7X7X7X7X6X6X6X6X6X6X6X6X6X6X6X6X6X6X6X6X6X6XgXo cXpX9X7X9X9X7X7X7X7X7X7X9X9X9X7X7X7X7X7X7X7X9X7XuXnXO 8X9X7X7X7X7X7X7X7X7X7X7X7X7X9X9X9X7X7X7X7X7X9X7X7XuXO zX8X6X9X7X9X6X9X7X7X7X7X7X7X9X9X9X7X7X7X7X7X7X9X8XcX.                                                     . cXuX9X9X9X9X9X9X9X9X9X9X9X9X9X9X6X6X6X6X6X6X6X6X8XcXO uX5X9X9XqX9X9X7X7X9X9X9X7X7X7X7X9X6X6X6X6X9X9X9X6XyXo kXyX9X9X9X9X9X9X6X6X6X6X6X6X6X6X6X6X6X6X6X9X9X6XgXcX. AXDXDXDXDXDXDXDXDXDXDXDXDXDXDXDXDXDXDXDXDXDXDXDXDXDX  DX",
"DXDXDX  DXDXDXDXDXDXDXDXDXDXDXDXDXDXDXDXDXDXDXDXAXAXDXDXDXAXo S +.$.$.$.$.#.#.#.#.#.#.#.#.#.#.#.#.#.#.#.#.#.#.-.6.- 9X6X6X6X4X4X6X6X6X6X6X6X6X6X6X6X6X6X6X6X6X6X6X6X6X7X- 4.%.;.#.$.$.$.$.$.$.#.#.#.#.#.#.#.#.#.#.#.#.#.#.+.S O 7X5X6X6X6X6X6X6X6X6X6X6X6X6X6X6X6X6X6X6X6X6X6X6X5XpXo cXpX9X9X9X7X7X7X7X9X9X9X9X9X9X9X9X9X7X9X7X7X7X7XuXzX- 8X9X7X9X9X7X9X9X9X9X7X7X9X7X9X9X9X7X9X9X9X9X7X9X9XuXO zX8X6X9X7X9X7X7X9X9X9X9X9X9X9X7X9X9X9X7X7X7X7X7X8XcX.   X X                                               . bXyX9X9X9X9X9X9X9X6X6X9X9X6X6X6X6X6X6X6X6X6X6X6XwXsXO wX4X6XwXqX9X6X6X6X6X9X6X6X6X6X6X6X6X6X6X6X6X9X9X9XyXo cXyX8X9X9X6X9X9X6X6X6X6X6X6X6X6X6X6X6X6X9X8X8X9XgXcX. AXDXDXDXDXDXDXDXDXDXDXDXDXDXDXDXDXDXDXDXDXDXDXDXDXDX  DX",
"DXDXDX  DXDXDXDXDXDXDXDXDXDXDXDXDXDXDXDXDXDXDXDXAXAXDXDXDXAXo S %.$.$.$.$.#.#.#.#.#.#.#.#.#.#.#.#.#.#.#.#.#.#.%.6.- 9X6X6X6X6X6X6X6X6X6X6X6X6X6X6X6X6X6X6X6X6X6X6X6X6X9X- 4.+.;.#.$.$.$.$.$.$.#.#.#.#.#.#.#.#.#.#.#.#.#.#.+.S O 7X5X6X6X6X6X6X6X6X6X6X6X6X6X6X6X6X6X6X6X6X6X6X6X5XyXo bXpXuX8X8X7X7X7X7X7X9X9X9X9X9X9X9X7XaX7X7X9X7X7XuXzX- 8XqX9X9X9X9X9X9X9X9X9X9X9X9X9X9X9X9X9X9X9X9X9X9X9XpXO zX8X6X9X9X9X9X9X9X9X9X9X9X9X9X9X9X9X9X9X9X9X7X7X8XnXo . X X                                               . bXyX9X9X9X9X9X9X9X9X9X9X9X9X9X6X6X6X6X6X6X6X6X6XwXhXO qX4X6XwX9X9X9X9X9X9X9X6X6X6X6X6X6X6X6X6X6X6X9X9X9XpXo cXiX8X9X9X6X9X9X9X6X6X6X6X6X6X6X6X6X6X9X9XuX9X9XpXkX. AXDXDXDXDXDXDXDXDXDXDXDXDXDXDXDXDXDXDXDXDXDXDXDXDXDX  DX",
"DXDXDX  DXDXDXDXDXDXDXDXDXDXDXDXDXDXDXDXDXDXDXDXAXAXDXDXDXAXo S %.$.$.$.$.$.$.$.$.#.#.#.#.#.#.#.#.$.$.$.$.$.$.%.5.- uX7X7X6X6X6X9X7X7X7X7X7X7X7X9X9X9X9X9X9X9X9X6X7X7XuX- 5.1.;.$.$.$.$.$.$.$.$.$.$.$.$.$.$.#.#.#.#.$.$.$.+.S O 7X7X7X7X7X7X7X7X7X9X7X7X9X7X7X7X9X9X9X9X9X9X9X7X8XhX. bXpXuXuX8X8X9X9X9X9X9X9X9XuXuXuXuXuXuXuX9X9X9X8XyXkXO yXqXuXuXuX9X9X9X9X9X9X9XuXuXuXuX9X9XuXuX9X9X9XuXuXpXO cX8X6X8X8X9X9X9XuXuX9XuXuXuXuX9X9X9X9X9X9X9X9X9X8XnXo .                                                   . bXyX8X8X8X8X8X8X8X8X8X8X8X8X8X9X9X9X9XwXwX6X6X6X8XzXO uX5X6X9X9X9X9X8X8X8X9X9X9X9X9X9X9X9X9X9X9X9X7X7X9XpXO kXiXuX9X9X9X9X7X7X9X9X9X9X6X6X6X6X6X7X7X9XuXuXuXpXxXo DXDXDXDXDXDXDXDXDXDXDXDXDXDXDXDXDXDXDXDXDXDXDXDXDXDX  DX",
"DXDXDX  DXDXDXDXDXDXDXDXDXDXDXDXDXDXDXDXDXDXDXDXAXAXDXDXDXAXo D ,.$.$.$.$.$.$.$.$.$.$.#.#.#.#.$.$.$.$.$.$.$.$.,.5.- pX7X7X6X6X6X9X9X9X9X9X9X9X9X9X9X9X9X9X9X9X9X7X7X9XuXO 5.:.;.$.$.$.$.$.$.$.$.$.$.$.$.$.$.$.#.$.$.$.$.$.+.m - 8X7X7X7X9X9X9X9X7X7X7X7X7X7X7X7X7X9X9X9X9X9X9X7X0XhX. bXpXuXuX8X8X9X9X9X9X9X9X9X9X9X9XuX9XuXuX9X9X8X8XyXcXO yXqX8XuXuXuX8X8X8X8X9X9X8X9X8X8X8X8X8X9X8X9X8X8X8XyXO cX8X6X8X8X9X9X9X9X9X9XuX9X9X9X9X8X8X8X8X8X8X9X9X8XnXo . .                                                 . bXyX9X9X9X9X9X9X9X9X9X9X9X8X8X9X9X9X9X9X9X9X9X9XuXzXO uX6X9X9X9X9X9XuX9X9X9X9X9X9X9X9X9X9X9X9X9X9X7X7X9XpXO kXyX9X9X9X9X9X9X9X7X7X7X7X7X7X7X7X7X7X7X9XuXuX9XpXzXo AXDXDXDXDXDXDXDXDXDXDXDXDXDXDXDXDXDXDXDXDXDXDXDXDXDX  DX",
"DXDXHX  DXDXDXDXDXDXDXDXDXDXDXDXDXDXDXDXDXDXDXDXDXDXDXDXHXCXo D %.$.$.$.$.$.$.$.$.$.$.$.$.$.$.$.$.$.$.$.$.$.$.,.7.O 8X9X6X6X5X5X6X7X7X7X7X7X7X7X7X6X6X6X6X6X6X6X9X7X9XuXO 5.+.;.$.$.$.$.$.$.$.$.$.$.$.$.$.$.$.$.$.$.$.$.;.-.m O uX9X9X9X9X9X9X9X9X9X9X9X9X9X9X9X9X9X9X9X9X9X9X9X7XjXo cXpX9X7X7X9X9X9X9X9X9X7X7X7X7X7X7X9X9X9X9X9X9X9XyXnXo 0XqX9X9X9X9X9X9X9X9X9X9X9X9X9X9X9X9X9X9X9X9X9X9X9XpXO cX8X6X9X9X6X9X9X9X9X9X9X9X9X9X9X9X9X9X9X9X9X9XgXjXtX. . .                                                 . tXgX9X9X9XqXqXqX9X9X9X9X9X9X9X9X9X9XqX9X9X9X9X9XgXnXO gX6XqXqXqX9X9XuXuX9X9X9X9X9X9X9X9X9X9X9X9X9X9X9X9XgXO cXyX7X9X9X9X9X9X9X9X9X9X9X9X9X9X9X9X9X9X9X9X9X9XgXnXo AXDXDXDXDXDXDXDXDXDXDXDXDXDXDXDXDXDXDXDXDXDXDXDXDXDXX DX",
"DXDXDX  DXDXDXDXDXDXDXDXDXDXDXDXDXDXDXDXDXDXDXDXDXDXDXDXDXAXo A >.<.<.<.<.<.<.%.%.%.%.%.%.%.%.,.,.<.<.<.<.<.,.6.7.O jXpXuX8X8X8XuXpXpXpXpXpXpXpXpXuXuXuXuXuXuXuXgXpXpXpXO F 2.3.+.%.%.%.%.%.%.%.%.%.,.,.,.,.,.%.%.%.%.%.-.2.D o pXpXpXpXpXpXpXpXpXpXpXpXpXpXpXpXpXuXpXpXpXpXpXuXyXiXo bXiXuXyX8X8X8X8X8X8X8X8X8X8X8X8X8X8XuXuXuX8X8X8XiXvX. fXqXyXyXyX8X8X8X8X8X8X8XyXyX8X8X8X8XyXyXyXyX8XyXyXiX. bXfXqX8X8X8X8X8XyXyX8XyXyX8X8X8X8X8X8X8X8X8X8XyXhXbX                                                      . tX8X7X7X7X9X7X7X8X8X8X8X8X8X8X8X8X8X8X8X8X8X8X8XyXlXo iXeX8X8X8XuXuXuXuXuXuXuXuXuXuXuXuXuX8X8X8X8X8X8X8XiXO vXfX8X8XyXyXyXyX8X8X8X8X8X8X8X7X7X7X8X8X8X8X8X8XyXbX. AXDXDXDXDXDXDXDXDXDXDXDXDXDXDXDXDXDXDXDXDXDXDXDXDXDXX DX",
"DXDXHX  DXDXDXDXDXDXDXDXDXDXDXDXDXDXDXDXDXDXDXDXDXDXDXDXDXAXO F 5.7.7.7.7.5.5.5.5.5.4.S D D 5.5.D 5.5.5.5.5.5.F T o lXtXcXsXsXsXcXcXcXcXcXcXcXcXcXcXcXcXcXcXcXcXcXcXvXvX. T D 4.A A A A A A 5.5.A A 5.5.5.5.5.S S m 4.4.A D T . lXkXkXkXkXkXkXkXkXkXkXkXkXkXkXkXbXbXkXkXkXkXkXkXrXtX. NXlXzXkXsXsXsXsXsXsXsXsXsXsXsXsXsXrXzXzXkXsXsXsXbXNX. bXsXsXcXcXsXsXsXsXsXcXcXcXcXsXsXsXsXsXsXsXsXsXcXcXbX  NXbXsXsXsXdXdXsXcXcXcXrXrXrXrXsXsXsXsXsXsXsXsXtXbXNX.                                                     . vXcXsXsXsXsXcXcXcXcXcXcXcXcXcXcXcXcXcXcXcXcXcXcXvXBXo vXrXcXcXnXxXxXxXxXxXxXzXzXzXzXcXcXzXzXnXnXnXhXhXhXvX. NXbXtXkXkXkXkXkXkXkXkXkXkXkXrXzXzXzXzXrXrXkXkXiXvXNX  AXDXDXDXHXHXAXAXAXAXAXAXAXAXAXAXAXAXAXAXAXAXAXAXDXDX  AX",
"X                                                         . . O ; ; ; ; ; ; ; ; ; ; ; ; ; ; ; ; ; ; ; ; ; ; ; - o   O O o o o o o o o o o o o o o o o o o o o o O O o o . . O - - ; ; ; ; ; ; ; ; ; ; ; ; ; ; ; ; ; ; ; - O o   O O O O O O O O O O O - - - O O O O O O O O O O - o     o O O O O O O O O O O O O O O O O O O O O O O o     . O O O O O O O O O O O O O O O O O O O O O O O O o   o . . O O O O O O O O O O O O O O O O O O O O o o .   . . . . . . . . . . . . . . . . . . . . . . . . . . . . . . . . . . . . . . . . . . . . . . . . . . . . .   o o O O O O O O O O O O O O O O O O O O O O O O O o   . o o O O O O O O O O O O O O O O O O O O O O O O .   . . . .                 . . .   . .           . .       ",
"DXDXDX  DXDXDXDXDXDXDXDXDXDXDXDXDXDXDXDXDXDXDXDXDXDXDXDXDXAXo D >.%.%.%.%.%.%.%.%.%.%.%.%.%.%.%.%.%.%.%.+.+.+.2.D O pXpXyXyX8X8X8XuXuXuXuXuXuXuXuXuXuXuXuXuXuXuX8XuXuXpXo F 2.-.%.%.%.%.%.%.%.%.%.%.%.%.%.%.%.+.+.+.+.%.%.>.F O 2.:.:.:.1.1.1.1.1.1.1.1.1.1.1.1.1.,.,.,.,.,.,.,.:.2.O bXhXuX8XuXuXuXuXuXuXuXuX8X8X8X8X8X8X8X8X8XuXuXuXpXvXo yXgXuXuXuXuXuXuXuXuXuXuXuXuXuXuXuXuXuX8X8X8X8X8X8XpXo vXyX8XpXpXuXuX8X8X8X8X8X8X8X8X8X8X8X8X8X8X8X8X8XhXvXo rXhXhXhXiXiXiXiXiXiXiXiXiXiXiXiXiXiXiXiXiXiXpXpXiXkX.                                                   . . rX8XuXpXpXpXuXuXuXuXuXuXuXuXuXuXuXuXuXuXuXuXuXuX8XpXo vXiXyXuXuXuXuXuXuXuXuXuXuXuXuXuXuXuXuX8X8XuXuXuXyXvXo nXhXhXhXiXiXiXiXiXiXiXiXiXiXiXiXpXiXiXiXiXiXiXiXfXsX. AX",
"DXDXDX  DXDXDXDXDXDXDXDXDXDXDXDXDXDXDXDXDXDXDXDXDXDXDXDXDXAXo S +.#.#.#.$.$.$.$.$.$.$.$.$.$.$.$.$.$.$.$.#.#.#.-.S - uX9X9X9X6X6X6X6X6X6X9X9X9X9X9X9X9X9X7X9X7X9X6X6X6X8XO S +.;.$.$.$.$.$.$.$.$.$.$.$.$.$.$.$.#.#.$.$.$.$.+.S - %.$.$.$.$.$.$.$.$.$.$.$.$.$.$.$.$.$.$.$.$.$.$.$.$.+.- rX8X6X6X9X9X7X7X7X7X7X9X9X6X6X6X6X6X6X6X6X7X9X7XuXzXO uX9X7X7X7X7X7X7X7X7X7X7X7X7X7X7X9X9X9X9X6X6X6X6X6XuXO zXuX7X9XuX9X9X9X6X6X6X6X6X6X6X6X6X6X6X6X6X6X6X9XuXnXO yX9X9X9X9X9X9X9X9X9X9X9X9X9X9X9X9X9X9X9X8X9X7X7X9XiX                                                      . yX5X7X9X9X9X9X9X9X9X9X9X9X9X9X9X9X9X9X9X9X9X7X7X6XuXO kXyX9X9X9X9X9X9X9X9X9X9X9X9X9X9X9X9X9X6X6X9X9X9X8XcXo gX9X9X9X9X9X9X9X9X9X9X9X9X9X9X9X9X9X9X9X9X9X9X9X5XyX. AX",
"DXDXDX  DXDXDXDXDXDXDXDXDXDXDXDXDXDXDXDXDXDXDXDXDXAXDXDXDXAXo S +.#.#.#.$.$.$.$.$.$.$.$.$.$.$.$.$.$.$.$.#.#.#.-.S - uX9X9X9X6X6X6X6X6X6X9X9X9X9X9X9X9X9X9X9X9X9X6X6X6X8XO S +.;.$.$.$.$.$.$.$.$.#.$.$.$.$.$.$.$.$.$.$.$.$.+.S - %.$.$.$.$.$.$.$.$.$.$.$.$.$.$.$.$.$.$.$.$.$.$.$.$.+.- rX8X6X6X9X9X7X7X7X7X7X9X9X6X6X6X6X6X6X6X6X9X9X7XuXzXO uX9X7X7X7X7X7X7X7X7X7X7X7X7X7X7X9X9X9X9X6X6X6X6X6XuXO zXuX7X9XuX9X9X9X6X6X6X9X9X6X6X6X6X6X6X6X9X9X9X9XuXnXO yX9X9X9X9X9X9X9X9X9X9X9X9X9X9X9X9X9X9X9X9X9X7X7X9XiX.                                                     . yX5X7X9X9X9X9X9X9X9X9X9X9X9X9X9X9X9X9X9X9X9X7X7X6XuXO kXyX9X9X9X9X9X9X9X9X9X9X9X9X9X9X9X9X9X6X6X9X9X9X8XcXo gX9X9X9X9X9X9X9X9X9X9X9X9X9X9X9X9X9X9X9X9X9X9X9X0XfX. ZX",
"DXDXDX  DXDXDXDXDXDXDXDXDXDXDXDXDXDXDXDXDXDXDXDXDXAXDXDXDXAXo S +.#.#.#.$.$.$.$.$.$.$.$.$.$.$.$.$.$.$.$.#.#.#.-.S - uX9X9X9X6X6X6X6X6X6X9X9X9X9X9X9X9X9X9X9X9X9X6X6X6X8XO S +.;.$.$.$.$.$.$.$.$.#.$.$.$.$.$.$.$.$.$.$.$.$.+.S - %.$.$.$.$.$.$.$.$.$.$.$.$.$.$.$.$.$.$.$.$.$.$.$.$.:.- rXuX6X6X9X9X7X7X7X7X7X9X9X6X6X6X6X6X6X6X6X9X9X9XuXkXO uX9X7X7X7X7X7X7X7X7X7X7X7X7X7X7X9X9X9X9X6X6X6X6X6XuXO zXuX7X9X9X9X9X9X6X6X6X9X6X6X6X6X6X6X6X6X6X9X9X9XuXnXO yX9X9X9X9X9X9X9X9X9X9X9X9X9X9X9X9X9X9X9X9X9X7X7X9XiX.                                                     . yX5X7X9X9X9X9X9X9X9X9X9X9X9X9X9X9X9X9X9X9X9X7X7X6XuXO kXyX9X9X9X9X9X9X9X9X9X9X9X9X9X9X9X9X9X6X6X9X9X9X8XnXO uX9X9X9X9X9X9X9X9X9X9X9X9X9X9X9X9X9X9X9X9X9X9X9X0XfX. ZX",
"DXDXDX  DXDXDXDXDXDXDXDXDXDXDXDXDXDXDXDXDXDXDXDXDXAXDXDXDXAXo S +.#.#.#.$.$.$.$.$.$.$.$.$.$.$.$.$.$.$.$.#.#.#.+.A - uX9X9X6X6X6X6X6X6X6X9X9X9X9X9X9X9X9X7X7X9X9X6X6X6X8XO S +.;.$.$.$.$.$.$.$.$.#.#.$.$.$.$.#.$.$.$.$.$.$.+.S - %.$.$.$.$.$.$.$.$.$.$.$.$.$.$.$.$.$.$.$.$.$.$.$.$.:.- kX8X6X6X6X9X7X7X7X7X7X9X9X6X6X6X6X6X6X6X6X9X9X7XuXcXO uX9X7X7X7X7X9X9X9X7X7X7X7X7X7X7X7X7X7X7X6X6X6X6X6XuXO zXuX7X9X9X9X9X9X6X6X6X6X6X6X6X6X6X6X6X6X6X6X6X9XuXnXO yX9X9X9X9X9X9X9X9X9X9X9X9X9X9X9X9X9X9X9X9X9X7X7X9XiX                                                      . yX5X7X9X9X9X7X9X9X9X9X9X9X9X9X9X9X9X9X9X9X9X7X7X6XuXO kXyX9X9X9X9X9X9X9X9X9X9X9X9X9X9X9X9X9X6X6X9X9X9X8XnXO gX9X9X9X9X9X9X9X9X9X9X9X9X9X9X9X9X9X9X9X9X9X9X9X6XfX. ZX",
"DXDXDX  DXDXDXDXDXDXDXDXDXDXDXDXDXDXDXDXDXDXDXDXDXDXDXDXDXAXo S +.#.#.#.$.$.$.$.$.$.$.$.$.$.$.$.$.$.$.$.#.#.#.+.A - uX9X9X6X6X6X6X6X6X6X9X9X9X9X9X9X9X9X7X7X9X9X6X6X6X8XO S +.;.$.$.$.$.$.$.$.$.#.#.$.$.$.$.#.#.$.$.$.$.$.+.S - %.$.$.$.$.$.$.$.$.$.$.$.$.$.$.$.$.$.$.$.$.$.$.$.$.:.- kX8X6X6X9X9X7X7X7X7X7X9X9X6X6X6X6X6X6X6X6X9X9X7XuXcXO uX9X7X7X7X7X7X7X9X7X7X7X7X7X7X7X9X7X7X7X6X6X6X6X6XuXO zXuX7X9X9X9X7X9X6X6X6X6X6X6X6X6X6X6X6X6X6X6X6X9XuXnXO yX9X9X9X9X9X9X9X9X9X9X9X9X9X9X9X9X9X9X9X9X9X7X7X9XiX                                                      . yX5X7X9X9X9X7X9X9X9X9X9X9X9X9X9X9X9X9X9X9X9X7X7X6XuXO kXyX9X9X9X9X9X9X9X9X9X9X9X9X9X9X9X9X9X6X6X9X9X9X8XkXO gX9X9X9X9X9X9X9X9X9X9X9X9X9X9X9X9X9X9X9X9X9X9X9X6XyX. AX",
"DXDXDX  DXDXDXDXDXDXDXDXDXDXDXDXDXDXDXDXDXDXDXDXDXDXDXDXDXAXo S +.#.#.#.$.$.$.$.$.$.$.$.$.$.$.$.$.$.$.$.#.#.#.+.A - uX9X9X6X6X6X6X6X6X6X9X9X9X9X9X9X9X9X7X7X7X9X6X6X6X8XO S %.;.$.$.$.$.$.$.$.$.$.$.$.$.$.#.#.#.$.$.$.$.$.+.S - %.$.$.$.$.$.$.$.$.$.$.$.$.$.$.$.$.$.$.$.$.$.$.$.$.:.- kX8X6X6X9X9X7X7X7X7X7X9X9X6X6X6X6X6X6X6X6X9X9X7XuXcXO uX9X7X9X7X7X7X7X7X7X7X7X7X7X7X7X9X9X7X7X6X6X6X6X6XuXO zXuX7X9X9X9X7X9X6X6X6X6X6X6X6X6X6X6X6X6X6X6X6X9XgXnXO yX9X9X9X9X9X9X9X9X9X9X9X9X9X9X9X9X9X9X9X9X9X7X7X9XiX                                                      . yX5X9X9X9X9X7X9X9X9X9X9X9X9X9X9X9X9X9X9X9X9X7X7X7XuXO kXyX9X9X9X9X9X9X9X9X9X9X9X9X9X9X9X9X9X6X6X9X9X9X8XkXO gX9X9X9X9X9X9X9X9X9X9X9X9X9X9X9X9X9X9X9X9X9X9X9X6XyX. AX",
"DXDXDX  DXDXDXDXDXDXDXDXDXDXDXDXDXDXDXDXDXDXDXDXDXDXDXDXDXAXo S +.#.#.#.$.$.$.$.$.$.$.$.$.$.$.$.$.$.$.$.#.#.#.+.A - uX9X9X6X6X6X6X9X9X9X9X9X9X9X9X9X9X9X9X7X7X9X6X6X6X8XO S %.;.$.$.$.$.$.$.$.$.#.#.$.$.$.#.#.#.$.$.$.$.$.+.S - %.$.$.$.$.$.$.$.$.$.$.$.$.$.$.$.$.$.$.$.$.$.$.$.$.:.- kXuX6X6X9X9X7X7X7X7X7X9X9X6X6X6X6X6X6X6X6X9X9X7XuXcXO uX9X7X9X9X7X7X7X7X7X7X7X7X7X7X9X9X9X7X7X6X6X6X6X6XuXO zXuX7X9X9X7X9X9X6X6X6X6X6X6X6X6X6X6X6X6X6X6X6X9XuXnXO yX9X9X9X9X9X9X9X9X9X9X9X9X9X9X9X9X9X9X9X9X9X7X7X9XiX                                                      . yX5X9X9X9X9X7X9X9X9X9X9X9X9X9X9X9X9X9X9X9X9X7X7X6XuXO kXyX9X9X9X9X9X9X9X9X9X9X9X9X9X9X9X9X9X6X6X9X9X9X8XkXO gX9X9X9X9X9X9X9X9X9X9X9X9X9X9X9X9X9X9X9X9X9X9X9X6XyX. AX",
"DXDXDX  DXDXDXDXDXDXDXDXDXDXDXDXDXDXDXDXDXDXDXDXDXDXDXDXDXAXo S +.#.#.#.#.#.#.$.$.$.$.$.$.$.$.$.$.$.$.$.#.#.#.+.S - uX9X9X9X6X6X9X9X9X9X7X9X9X9X9X6X6X6X6X9X9X6X6X6X7X8XO S +.$.$.$.$.$.$.$.$.$.$.$.$.$.$.$.$.$.#.$.$.$.$.%.4.- +.#.$.$.$.$.$.$.$.$.$.$.$.$.$.$.$.$.$.$.$.$.$.$.$.>.- kXuX9X9X9X9X9X9X9X9X9X9X9X9X9X9X9X9X9X9X9X9X9X7XuXkXO uX9X7X7X7X7X7X7X7X7X9X9X9X9X9X6X6X6X9X9X9X9X9X9X9XuXO zX8X6X9X9X9X9X9X9X9X9X9X9X9X9X6X6X6X6X6X6X6X6X6XuXnXO 8X9X9X9X9X7X9X9X9X9X9X9X9X9X9X9X9X9X9X9X9X9X7X7X9XiX.                                                     . yX6X7X9X9X9X7X9X9X9X9X9X9X9X9X9X9X9X9X9X9X9X7X7X6XuXO kXyX9X9X6X6X6X6X6X6X6X9X9X9X9X9X9X9X9X6X6X9X9X9X8XkXO yX9X9X9X9X9X9X9X9X9X9X7X7X7X7X9X9X9X7X7X7X7X7X9X6XfX. AX",
"DXDXDX  DXDXDXDXDXDXDXDXDXDXDXDXDXDXDXDXDXDXDXDXDXDXDXDXDXAXo S +.#.#.#.#.#.#.$.$.$.$.$.$.$.$.$.$.$.$.$.#.#.#.+.S - uX9X9X9X6X6X9X9X9X9X7X9X9X9X9X6X6X6X6X6X6X6X6X6X9X8XO S +.$.$.$.$.$.$.$.$.$.$.$.$.$.$.$.$.$.#.$.$.$.$.%.4.- +.$.$.$.$.$.$.$.$.$.$.$.$.$.$.$.$.$.$.$.$.$.$.$.$.,.- kXuX9X9X9X9X9X9X9X9X9X9X9X9X9X7X7X9X9X9X7X9X9X9XuXkXO uX9X7X7X7X7X7X7X7X7X9X6X6X6X6X6X6X6X9X9X9X9X9X9X9XuXO nX8X6X9X9X9X9X9X9X9X9X9X9X9X9X6X6X6X6X6X6X6X6X6XuXnXO yX9X9X9X9X7X9X9X9X9X9X9X9X9X9X9X9X9X9X9X9X9X7X7X9XiX.                                                     . yX6X7X9X9X9X9X9X9X9X9X9X9X9X9X9X9X9X9X9X9X9X7X7X6XuXO kXyX9X9X6X6X6X6X6X6X6X9X9X9X9X9X9X9X9X6X6X9X9X9X8XrXO uX9X9X9X9X9X9X9X9X9X7X7X7X7X7X7X9X9X9X9X7X7X7X9X6XfX. AX",
"DXDXDX  DXDXDXDXDXDXDXDXDXDXDXDXDXDXDXDXDXDXDXDXDXDXDXDXDXAXo S +.#.#.#.#.#.#.$.$.$.$.$.$.$.$.$.$.$.$.$.#.#.#.+.S - uX9X9X9X6X6X9X9X7X7X7X7X9X9X9X6X6X6X6X6X6X6X6X6X9X8XO S +.$.$.$.$.$.$.$.$.$.$.$.$.$.$.$.$.$.#.$.$.$.$.%.4.- +.#.$.$.$.$.$.$.$.$.$.$.$.$.$.$.$.$.$.$.$.$.$.$.$.,.- kXuX9X9X9X9X9X9X9X7X9X7X7X9X7X7X7X7X9X9X7X9X9X9XuXkXO uX9X7X7X7X7X7X7X7X7X9X6X6X6X6X6X6X6X9X9X9X9X9X9X9XuXO nX8X6X9X9X9X9X9X9X9X9X9X9X9X9X6X6X6X6X6X6X6X6X6XuXnXO yX9X9X9X9X7X7X9X7X7X9X7X9X9X9X9X9X9X9X9X9X9X7X7X9XiX                                                      . yX5X7X9X9X9X9X9X9X9X9X9X9X9X9X9X9X9X9X9X9X9X7X7X6XuXO kXyX9X9X6X6X6X6X6X6X6X9X9X9X9X9X9X9X9X6X6X9X9X9X8XrXO uX9X9X9X9X9X9X9X9X9X7X7X7X7X9X9X9X9X9X9X9X9X7X9X6XfX. AX",
"DXDXDX  DXDXDXDXDXDXDXDXDXDXDXDXDXDXDXDXDXDXDXDXDXDXDXDXDXAXo S +.#.#.#.#.#.#.$.$.$.$.$.$.$.$.$.$.$.$.$.#.#.#.+.S - uX9X9X9X6X6X9X9X7X7X7X7X9X9X9X6X6X6X6X6X6X6X6X6X7X8XO S +.$.$.$.$.$.$.$.$.$.$.$.$.$.$.$.$.$.#.$.$.$.$.%.4.- +.#.$.$.$.$.$.$.$.$.$.$.$.$.$.$.$.$.$.$.$.$.$.$.$.,.- kXpX9X9X9X9X9X9X9X7X7X7X7X9X7X7X7X7X9X9X9X9X9X9XuXcXO uX9X7X7X7X7X7X7X7X7X9X6X6X6X6X6X6X6X9X9X9X9X9X9X9XuXO nX8X6X9X9X9X9X9X9X9X9X9X9X9X9X6X6X6X6X6X6X6X6X6XuXnXO yX9X9X9X9X7X7X7X7X7X7X7X9X9X9X9X9X9X9X9X9X9X7X7X9XiX                                                      . yX5X7X9X9X9X9X9X9X9X9X9X9X9X9X9X9X9X9X9X9X9X7X7X6XuXO kXyX9X9X6X6X6X6X6X6X6X9X9X9X9X9X9X9X9X6X6X9X9X9X8XrXO uX9X9X9X9X9X9X9X9X9X7X7X7X7X9X9X9X9X9X9X9X9X9X9X6XfX. AX",
"DXDXDX  DXDXDXDXDXDXDXDXDXDXDXDXDXDXDXDXDXDXDXDXDXDXDXDXDXAXo S +.#.#.#.#.#.#.$.$.$.$.$.$.$.$.$.$.$.$.$.#.#.#.+.S - uX9X9X9X6X6X9X7X7X7X7X9X9X9X9X6X6X6X6X6X6X6X6X6X7X9XO S +.$.$.$.$.$.$.$.$.$.$.$.$.$.$.$.$.$.#.$.$.$.$.%.4.- +.$.$.$.$.$.$.$.$.$.$.$.$.$.$.$.$.$.$.$.$.$.$.$.$.>.- kXpX9X9X9X9X7X9X9X9X9X7X7X9X7X7X7X7X9X9X9X9X9X7XuXcXO uX9X7X7X7X7X7X7X7X7X9X6X6X6X6X6X6X6X9X9X9X9X9X9X9XuXO nX8X6X9X9X9X9X9X9X9X9X9X9X9X9X6X6X6X6X6X6X6X6X6XuXnXO yX9X9X9X9X7X7X7X7X7X9X9X9X9X9X9X9X9X9X9X9X9X7X7X9XiX                                                      . iX5X7X9X9X9X7X9X9X9X9X9X9X9X9X9X9X9X9X9X9X9X7X7X6XuXO kXyX9X9X6X6X6X6X6X6X6X9X9X9X9X9X9X9X9X6X6X9X9X9X8XrXO uX9X9X9X9X9X9X9X7X9X7X7X7X7X9X9X9X9X9X9X9X9X9X9X6XfX. AX",
"DXDXDX  DXDXDXDXDXDXDXDXDXDXDXDXDXDXDXDXDXDXDXDXDXDXDXDXDXAXo S +.#.#.#.#.#.#.$.$.$.$.$.$.$.$.$.$.$.$.$.#.#.#.+.S - uX9X9X9X6X6X9X9X7X7X7X7X9X9X9X6X6X6X6X6X6X6X6X6X7X8XO S +.$.$.$.$.$.$.$.$.$.$.$.$.$.$.$.$.$.#.$.$.$.$.%.4.- +.#.$.$.$.$.$.$.$.$.$.$.$.$.$.$.$.$.$.$.$.$.$.$.$.>.- kXpX9X9X9X9X7X9X7X9X9X7X7X7X7X9X7X7X7X7X9X9X9X7XuXcXO uXqX9X7X7X7X7X7X7X9X6X6X6X6X6X6X6X6X9X9X9X9X9X9X9XuXO nX8X6X9X9X9X9X9X9X9X9X9X9X9X9X6X6X6X6X6X6X6X6X6XuXnXO yX9X9X9X9X7X7X7X7X7X9X9X9X9X9X9X9X9X9X9X9X9X7X7X9XiX                                                      . iX5X7X9X9X9X7X9X9X9X9X9X9X9X9X9X9X9X9X9X9X9X7X7X6XuXO kXyX9X9X6X6X6X6X6X6X6X9X9X9X9X9X9X9X9X6X6X9X9X9X8XrXO yX9X9X9X9X9X9X9X9X9X7X7X7X7X9X9X9X9X9X9X9X9X9X9X6XfX. AX",
"DXDXDX  DXDXDXDXDXDXDXDXDXDXDXDXDXDXDXDXDXDXDXDXDXDXDXDXDXAXo S +.#.#.#.#.#.$.$.$.$.$.$.$.$.$.$.$.$.$.$.#.#.#.+.S - uX9X9X9X6X6X9X9X7X7X7X7X7X7X9X6X6X6X6X6X6X6X6X6X7X8XO S +.$.$.$.$.$.$.$.$.$.$.$.$.$.$.$.$.$.#.$.$.$.$.%.4.- %.$.$.$.$.$.$.$.$.$.$.$.$.$.$.$.$.$.$.$.$.$.$.$.$.>.- cXuX9X9X9X9X7X7X7X9X9X9X9X7X9X7X7X9X9X9X9X9X9X7XuXcXO uXqX9X9X9X9X7X9X9X9X6X6X6X6X6X6X6X6X9X9X9X9X9X9X9XuXO zX8X6X9X9X7X9X9X9X9X9X9X9X9X9X6X6X6X6X6X6X6X6X6XuXnXO yX9X9X9X9X7X9X7X9X9X9X9X9X9X9X9X9X9X9X9X9X9X7X7X9XiX                                                      . iX5X7X9X9X9X7X9X9X9X9X9X9X9X9X9X9X9X9X9X9X9X7X7X7XuXO kXyX9X9X6X6X6X6X6X6X6X9X9X9X9X9X9X9X9X6X6X9X9X9X8XrXO yX9X9X9X9X9X9X9X9X9X9X7X7X9X9X9X9X9X7X7X7X7X7X9X6XfX. AX",
"DXDXDX  DXDXDXDXDXDXDXDXDXDXDXDXDXDXDXDXDXDXDXDXDXDXDXDXDXAXo S +.$.$.$.$.$.$.$.$.$.$.$.$.$.$.$.$.$.$.$.#.#.#.+.S - uX9X9X9X6X6X9X9X9X9X7X7X7X9X9X9X9X9X9X9X9X6X6X6X7X8XO S +.$.$.$.$.$.$.$.$.$.$.$.$.$.$.$.$.$.#.$.$.$.$.%.4.- %.$.$.$.$.$.$.$.$.$.$.$.$.$.$.$.$.$.$.$.$.$.$.$.$.>.- cXgX9X9X9X9X7X7X7X9X9X9X9X9X9X9X9X9X9X9X7X9X9X7XuXcXO uXqX9X9X9X9X7X9X9X9X6X6X6X6X6X6X6X6X9X9X9X9X9X9X9XuXO nX8X6X9X9X9X9X9X9X9X9X9X9X9X9X6X6X6X6X6X6X6X6X6XuXnXO yX9X9X9X9X9X9X9X9X9X9X9X9X9X9X9X9X9X9X9X9X9X7X7X9XiX                                                      . iX5X7X9X9X9X7X9X9X9X9X9X9X9X9X9X9X9X9X9X9X9X7X7X6XuXO kXyX9X9X6X6X6X6X6X6X6X9X9X9X9X9X9X9X9X6X6X9X9X9X8XrXO uX9X9X9X9X9X9X9X9X9X9X9X9X9X9X9X9X9X7X7X7X7X7X9X6XfX. AX",
"DXDXDX  DXDXDXDXDXDXDXDXDXDXDXDXDXDXDXDXDXDXDXDXDXDXDXDXDXAXo S %.$.$.$.$.$.$.$.$.$.$.$.$.$.$.$.#.#.#.#.#.#.#.+.S - uX9X9X9X9X6X6X9X9X9X9X9X9X9X9X9X9X9X9X9X7X9X6X6X7X8XO S +.$.$.$.$.$.$.$.$.$.$.$.$.$.$.$.$.$.#.$.$.$.$.%.4.- %.$.$.$.$.$.$.$.$.$.$.$.$.$.$.$.$.$.$.$.$.$.$.$.$.>.- kXgX6XqX6X9X9X9X9X9X9X9X9X9X9X9X9X9X9X9X9X8X9X7XpXcXO uXqX7X9X9X9X7X7X7X7X9X9X9X9X9X9X9X9X9X9X9X9X9X9X9XuXO cX8X6X9X9X9X9X9X9X9X9X9X9X9X9X6X6X6X6X6X6X6X6X6XuXcXO yX9X9X9X9X9X9X9X9X9X9X9X9X9X9X9X9X9X9X9X9X9X7X7X9XiX                                                      . fX6X7X9X9X9X9X9X9X9X9X9X9X9X9X9X9X9X9X9X9X9X7X7X6XuXO kXyX9X9X9X9X9X9X9X9X9X9X9X9X9X9X9X9X9X6X6X9X9X9X8XrXO uX9X9X9X9X9X9X9X9X7X7X7X9X9X9X9X9X9X9X9X9X9X9X9X6XfX. AX",
"DXDXDX  DXDXDXDXDXDXDXDXDXDXDXDXDXDXDXDXDXDXDXDXDXDXDXDXDXAXo S %.$.$.$.$.$.$.$.$.$.$.$.$.$.$.$.#.#.#.#.#.#.#.+.S - uX9X9X9X9X6X6X6X6X6X6X6X6X9X9X9X9X9X9X9X7X9X6X6X7X8XO S +.;.$.$.$.$.$.$.$.$.$.$.$.$.$.$.$.$.#.$.$.$.$.%.4.- +.#.$.$.$.$.$.$.$.$.$.$.$.$.$.$.$.$.$.$.$.$.$.$.$.:.- kXqX6XqXqX9X9X9X9X9X9X9X9X9X9X9X9X9X9X9X9X9X9X7XpXcXO uXqX7X9X9X9X7X7X7X7X9X9X9X9X9X9X9X9X9X9X9X9X9X9X9XuXO cX8X6X9X9X9X9X9X9X9X9X9X9X9X9X6X6X6X6X6X6X6X6X6XuXcXO yX9X9X9X9X9X9X9X9X9X9X9X9X9X9X9X9X9X9X9X9X9X7X7X9XiX                                                      . yX6X7X9X9X9X9X9X9X9X9X9X9X9X9X9X9X9X9X9X9X9X7X7X6XuXO kXyX9X9X9X9X9X9X9X9X9X9X9X9X9X9X9X9X9X6X6X9X9X9X8XrXO uX9X9X9X9X9X9X9X9X7X7X7X9X9X9X9X9X9X9X9X9X9X9X9X6XfX. AX",
"DXDXDX  DXDXDXDXDXDXDXDXDXDXDXDXDXDXDXDXDXDXDXDXDXDXDXDXDXAXo S %.$.$.$.$.$.$.$.$.$.$.$.$.$.$.$.#.#.#.#.#.#.#.+.S - uX9X9X9X6X6X6X6X6X6X6X6X6X9X7X9X7X7X9X7X7X9X6X6X7X8XO S +.;.$.$.$.$.$.$.$.$.$.$.$.$.$.$.$.$.#.$.$.$.$.%.4.- +.#.#.$.$.$.$.$.$.$.$.$.$.$.$.$.$.$.$.$.$.$.$.$.$.:.- sXgX6X6XqX9X9X9X9X9X9X9X9X9X9X9X9X9X9X9X9X9X9X7XuXcXO uXqX6X6X6X6X6X6X6X6X9X9X9X9X9X9X9X9X9X9X9X9X9X9X9XuXO nX8X6X9X9X9X9X9X9X9X9X9X9X9X9X6X6X6X6X6X6X6X6X6XuXcXO 8X9X9X9X9X9X9X9X9X9X9X9X9X9X9X9X9X9X9X9X9X9X7X7X9XiX.                                                   . . yX6X7X9X9X9X7X9X9X9X9X9X9X9X9X9X9X9X9X9X9X9X7X9X6XuXO kXyX9X9X9X9X9X9X9X9X9X9X9X9X9X9X9X9X9X6X6X9X9X9X8XrXO uX9X9X9X9X9X9X9X9X9X7X7X9X9X9X9X9X9X9X9X9X9X9X9X6XfX. AX",
"DXDXDX  DXDXDXDXDXDXDXDXDXDXDXDXDXDXDXDXDXDXDXDXDXDXDXDXDXAXo S %.$.$.$.$.$.$.$.$.$.$.$.$.$.$.$.#.#.#.#.#.#.#.+.S - uXuX9X9X6X6X6X6X6X6X6X6X6X9X7X7X7X7X9X7X7X9X6X6X7X9XO S +.$.$.$.$.$.$.$.$.$.$.$.$.$.$.$.$.$.#.$.$.$.$.%.4.- +.#.$.$.$.$.$.$.$.$.$.$.$.$.$.$.$.$.$.$.$.$.$.$.$.:.- sXqX6X6XqX9X9X9X9X9X9X9X9X9X9X9X9X9X9X9X9X9X9X9XuXcXO uXqX6X6X6X6X6X6X6X6X9X9X9X9X9X9X9X9X9X9X9X9X9X9X9XuXO nX8X6X9X9X9X9X9X9X9X9X9X9X9X9X6X6X6X6X6X6X6X6X6XuXcXO yX9X9X9X9X9X9X9X9X9X9X9X9X9X9X9X9X9X9X9X9X9X7X7X9XiX                                                    . . yX6X7X9X9X9X7X9X9X9X9X9X9X9X9X9X9X9X9X9X9X9X7X9X6XuXO kXyX9X9X9X9X9X9X9X9X9X9X9X9X9X9X9X9X9X6X6X9X9X9X8XrXO uX9X9X9X9X9X9X9X9X9X7X7X9X9X9X7X9X9X9X9X9X9X9X9X6XfX. AX",
"DXDXDX  DXDXDXDXDXDXDXDXDXDXDXDXDXDXDXDXDXDXDXDXDXDXDXDXDXAXo S %.$.$.$.$.$.$.$.$.$.$.$.$.$.$.$.#.#.#.#.#.#.#.+.S - uXuX9X9X6X6X6X6X6X6X6X6X6X9X9X9X7X7X7X7X9X9X6X6X7X8XO S +.$.$.$.$.$.$.$.$.$.$.$.$.$.$.$.$.$.#.$.$.$.$.%.4.- +.#.$.$.$.$.$.$.$.$.$.$.$.$.$.$.$.$.$.$.$.$.$.$.$.:.- sX8X6X6XqX9X9X9X9X9X9X9X9X9X9X9X9X9X9X9X9X8X9X7XuXcXO uXqX6X6X6X6X6X6X6X6X9X9X9X9X9X9X9X9X9X9X9X9X9X9X9XuXO nX8X6X9X9X9X9X9X9X9X9X9X9X9X9X6X6X6X6X6X6X6X6X6XuXnXO 8X9X9X9X9X9X9X9X9X9X9X9X9X9X9X9X9X9X9X9X9X9X7X7X9XiX                                                    . . yX5X7X9X9X9X7X9X9X9X9X9X9X9X9X9X9X9X9X9X9X9X7X7X6XuXO kXyX9X9X9X9X9X9X9X9X9X9X9X9X9X9X9X9X9X6X6X9X9X9X8XrXO yX9X9X9X9X9X9X9X9X9X9X9X7X7X7X7X9X9X9X9X9X9X9X9X6XfX. AX",
"DXDXDX  DXDXDXDXDXDXDXDXDXDXDXDXDXDXDXDXDXDXDXDXDXDXDXDXDXAXo S %.$.$.$.$.$.$.$.$.$.$.$.$.$.$.$.#.#.#.#.#.#.#.+.S - uX9X9X9X6X6X6X6X6X6X6X6X6X9X9X9X7X7X7X7X7X9X6X6X7X8XO S +.$.$.$.$.$.$.$.$.$.$.$.$.$.$.$.$.$.#.$.$.$.$.%.4.- +.#.$.$.$.$.$.$.$.$.$.$.$.$.$.$.$.$.$.$.$.$.$.$.$.:.- sX8X6X6X9X9X9X9X9X9X9X9X9X9X9X9X9X9X9X9X9X8X9X7XuXcXO uXqX6X6X6X6X6X6X6X6X9X9X9X9X9X9X9X9X9X9X9X9X9X9X9XuXO nX8X6X9X9X9X9X9X9X9X9X9X9X9X9X6X6X6X6X6X6X6X6X6XuXnXO 8X9X9X9X9X9X9X9X9X9X9X9X9X9X9X9X9X9X9X9X9X9X7X7X9XiX                                                      . yX5X7X9X9X9X7X9X9X9X9X9X9X9X9X9X9X9X9X9X9X9X7X7X6XuXO kXyX9X9X9X9X9X9X9X9X9X9X9X9X9X9X9X9X9X6X6X9X9X9X8XrXO uX9X9X9X9X9X9X9X9X9X9X9X7X7X7X7X9X9X9X9X9X9X9X9X6XfX. AX",
"DXDXDX  DXDXDXDXDXDXDXDXDXDXDXDXDXDXDXDXDXDXDXDXDXDXDXDXDXAXo S %.$.$.$.$.$.$.$.$.$.$.$.$.$.$.$.#.#.#.#.#.#.#.+.S - uX9X9X9X6X6X6X6X6X6X6X6X6X9X9X9X9X9X7X9X7X9X6X6X9X8Xo S +.$.$.$.$.$.$.$.$.$.$.$.$.$.$.$.$.$.#.$.$.$.$.%.4.- +.#.$.$.$.$.$.$.$.$.$.$.$.$.$.$.$.$.$.$.$.$.$.$.$.:.- sX8X6X6X9X9X9X9X9X9X9X9X9X9X9X9X9X9X9X9X9X8X9X7XuXcXO uXqX6X6X6X6X6X6X6X6X9X9X9X9X9X9X9X9X9X9X9X9X9X9X9XuXO nX8X6X9X9X9X9X9X9X9X9X9X9X9X9X6X6X6X6X6X6X6X6X6XuXnXO yX9X9X9X9X9X9X9X9X9X9X9X9X9X9X9X9X9X9X9X9X9X7X7X9XiX                                                      . fX5X7X9X9X9X7X9X9X9X9X9X9X9X9X9X9X9X9X9X9X9X7X7X7XuXO kXyX9X9X9X9X9X9X9X9X9X9X9X9X9X9X9X9X9X6X6X9X9X9X8XrXO uX9X9X9X9X9X9X9X7X7X9X7X7X7X9X9X9X9X9X9X9X9X9X9X6XfX. DX",
"DXDXDX  DXDXDXDXDXDXDXDXDXDXDXDXDXDXDXDXDXDXDXDXDXDXDXDXDXAXo S %.$.$.$.$.$.$.$.$.$.$.$.$.$.$.$.$.$.$.$.$.$.$.+.D O uX9X9X9X6X6X6X9X9X9X9X9X9X9X9X9X9X9X9X9X7X9X6X6X9X8Xo S *.;.$.$.$.$.$.$.$.$.$.$.$.$.$.$.$.$.$.$.$.$.$.+.S - +.$.$.$.$.$.$.$.$.$.$.$.$.$.$.$.$.$.$.$.$.$.$.$.$.%.- kXuX9X9X9X9X9X9X9X9X9X9X9X9X9X9X9X9X9X9X9X8X9X9XpXkXO uX9X9X9X9X9X9X9X9X9X9X9X9X9X9X9X9X9X9X9X9X9X9X9X9XuXO zXyX7X9X9X9X9X9X9X9X9X9X9X9X9X9X9X9X9X9X9X9X9X6XpXnXO 8X6X6X6X9X9X9X9X9X9X9X9X9X9X9X9X9X9X9X9X9X9X6X7X9XiX                                                      . fX6X7X9X9X9X7X9X9X9X9X9X9X9X9X9X9X9X9X9X9X9X7X7X7XuXo kX8X6X7X7X7X9X9X9X7X7X7X7X7X7X9X7X7X6X6X6X6X6X6X8XrXO uX9X9X9X9X9X9X9X7X7X7X7X9X9X9X9X9X9X9X9X9X9X9X9X6XiX. DX",
"DXDXDX  DXDXDXDXDXDXDXDXDXDXDXDXDXDXDXDXDXDXDXDXAXAXDXDXDXAXo S +.$.$.$.$.$.$.$.$.$.$.$.$.$.$.$.$.$.$.$.$.$.$.:.D O uX9X9X9X7X7X7X7X7X7X7X9X7X7X9X7X7X7X9X9X9X9X9X9X9XuXO S *.;.#.$.$.$.$.$.$.#.#.#.#.#.#.#.%.#.$.$.$.#.#.+.4.; %.#.#.#.#.#.#.#.#.#.#.#.#.#.#.$.$.$.$.$.$.$.$.$.$.-.- zXpXuX9X9X9X9X9X9X9X9X9X9X9X9X6X6X6X6X6X9X8XuXuXpXkXO yXqX9X9X9X9X8X9X9X9X9X9X9X9X9X9X9X9X9X9X6X6X6X6X6XyXO xXyX7XuXuX8X8X9X6X6XwX9X9X9X9X9X9X9X9X9X9X9X9X7XpXvXO 6X4X6X6X6X6X6X6X6X6X6X6X6X6X6X6X6X6X6X6XqX9X6X6X9XiX                                                        eX4X7X9X9X8X9X7X7X7X9X9X9X9X9X9X9X9X6X6X6X9X7X7X9XuXo kX7X6X6X6X6X6X6X6X6X6X6X6X6X6X6X6X6X6X6X6X4X4X6XyXrXO uX6X6X6X6X6X6X6X6X6X6X6X6X6X6X6X6X6X6X6X6X6X6X9X6XpXo DX",
"DXDXDX  DXDXDXDXDXDXDXDXDXDXDXDXDXDXDXDXDXDXDXDXAXAXDXDXDXAXo S +.#.#.#.$.$.$.$.$.$.$.$.$.$.$.$.$.$.$.$.$.$.$.:.D O uX9X9X9X9X9X7X7X7X7X7X7X7X7X9X9X7X7X9X9X7X9X9X9X9XuXO S *.;.#.#.#.#.#.#.#.#.#.#.#.#.#.#.%.#.$.$.$.$.#.+.4.; %.#.#.#.#.#.#.#.#.#.#.#.#.#.#.#.$.$.$.$.$.$.$.$.$.-.- zXpXuX9X9X9X9X9X9X9X9X9X6X6X6X6X6X6X6X6X9X9XuX8XyXkXO uXqX9X9X9X9X9X9X9X9X9X9X9X9X9X9X9X6X6X6X6X6X6X6X6XyXO vXyX7X8X8X8X9X6X6X6X6X6X6X6X9X9X9X9X9X7X7X9X9X7XpXcXO 6X4X6X6X6X6X6X6X6X6X6X6X6X6X6X6X6X6X6X6XqX9X7X6X9XyX.                                                       eX4X9XuX8X8X9X7X7X9X9X9X9X9X9X9X9X6X6X6X6X6X9X7X9XyXo cX6X6X6X7X7X7X7X9X9X9X7X7X7X7X9X9X7X7X9X6X4X4X6XfXtXO uX9X9X9X7X7X7X7X7X7X9X9X7X7X7X9X9X9X9X9X9X9X9X9X7XiXo AX",
"DXDXDX  DXDXDXDXDXDXDXDXDXDXDXDXDXDXDXDXDXDXDXDXAXAXDXDXDXAXo S +.#.#.#.#.#.#.#.#.#.#.#.#.#.#.#.#.#.#.#.#.#.#.*.D O uX9X6X6X7X9X7X7X7X7X7X7X7X7X7X7X7X7X7X7X7X9X6X7X9XuXO D 1.-.#.#.#.#.#.#.#.#.#.#.#.#.#.#.#.#.$.$.$.$.#.:.4.; %.#.#.#.#.#.#.#.#.#.#.#.#.#.#.#.$.$.$.$.$.$.$.$.$.-.- zXpX9X9X9X6X6X6X6X6X6X6X6X6X6X6X6X6X6X6X6X9X9X9XyXkXO 8XqX6X6X6X6X6X6X6X6X6X6X6X6X6X6X6X6X6X6X6X6X6X6X6X8XO cX8X6X9X9X9X6X6X6X6X6X6X6X6X6X6X6X6X6X7X7X7X7X6X9XhXO 0X6X9X9X6X6X6X6X6X6X6X6X6X6X6X6X6X6X6X6X8X8X9X9X9XyX.                                                     . fX0X9XuXyX8X9X9X9X6X9X9X6X6X6X6X6X6X6X6X6X6X9X8X8XyXo sX9X6X7X7X7X7X7X7X9X7X7X7X7X7X9X9X7X7X9X9X6X6X9XyXrXO uX7X9X9X7X9X7X7X9X9X9X9X7X7X9X9X9X9X9X9X9X9X9X8XyXzXo AX",
"DXDXDX  DXDXDXDXDXDXDXDXDXDXDXDXDXDXDXDXDXDXDXDXAXAXDXDXDXAXo D 1.*.*.*.*.+.*.*.*.*.*.*.+.+.+.*.+.+.+.+.*.*.*.2.F o yXuX8X8XuXuX9X9X9X9X9X9X9X9X9X9X9X9X9X9X9X9X9X9XaXpXO F 2.1.1.:.:.:.1.1.1.:.1.1.1.1.1.1.1.:.%.%.:.:.1.2.F O 2.+.+.+.+.+.+.+.*.+.*.*.*.*.*.*.+.+.+.+.+.+.+.+.*.2.O vXpXuXuXuX8X8X8X8X8X8X8X8X8X8X9X9X9X9X9X8X8XuXyXiXbXo yXgX8X8X8X8X9X8X8X8X8X9X8X8X8X8X8X8X8X8X9X9X9X9X9XyXo vXyX8XyXyX8X8X8X9X9X9X8X8X8X8X9X9X9X9XuXuXuX9X7XfXbXo dXfXsXsXiXiXyXyXyXyXyXyXyXyXiXiXyXyXyXiXrXiXiXiXpXsX.                                                       sXhXiXzXcXsXhXfXiXiXiXiXyXyXiXiXiXiXiXiXiXfXiXiXiXcX. bXiXpXyXiXiXiXiXiXiXiXiXiXiXiXiXiXiXiXhXiXyXyXiXcXbXo sXiXiXiXiXiXiXiXiXiXiXiXiXiXiXiXhXhXiXhXhXhXiXiXkXvX. AX",
"    X                                                     . . O - - - - - - - - - - - - - - - - - - - - - - - O o . o - O O O - O O O O O O O O O O O O O O O O O - - O . . o O O O O O O O O O O O O O O O O O - - O O O O   . O - - - - - - - - - - - - - - - - - - - - - - - O O . . O O O O O O O O O O O O O O O O O O O O O O O O .   . - O O O O O O O O O O O O O O O O O O O O O O O o   . . O O O O O O O O O O O O O O O O O O O O O O o .             . . . . . . . . . . . . . . . . . o o o .                                                           . . . . . . . . . . . . . . . . . . . . . . . . .     . . . . . . . . . . . . . . . . . . . . . o . .     . . . . . . . . . . . . . . . . . . . . . . . . . .     ",
"AXDXDX  DXDXDXDXDXDXDXDXDXDXDXDXDXDXDXDXDXDXDXDXDXDXDXDXDXAXo F D 5.5.D 5.5.5.5.D D D 5.5.5.5.5.5.5.D S 4.4.4.D T o D D S S D D S S S D D D S S S S D S S S S S S S D F . BXtXhXrXkXkXkXkXkXzXkXkXkXkXkXkXkXkXrXiXyXiXrXhXbXNX  bXrXkXkXzXzXzXzXzXzXiXiXiXiXiXkXzXzXzXzXzXzXzXsXmXbX. BXlXkXbXbXkXkXkXkXkXkXkXkXkXkXrXkXkXkXkXrXkXkXrXkXBX. bXsXkXkXkXkXkXkXkXkXkXkXkXkXkXkXkXkXkXrXkXkXkXkXkXlX. NXrXrXrXrXrXrXrXkXkXkXkXkXkXkXkXkXkXkXkXkXkXkXtXsXNX                                              . .                                                                                                                                                                         DXDXDXDXDXDXDXDXDXDXDXDXDXDXDXDXDXDXDXDXDXDXDXAXDXDX$ DX",
"DXDXDX  DXDXDXDXDXDXDXDXDXDXDXDXDXDXDXDXDXDXDXDXDXDXDXDXDXAXo A 2.-.-.-.-.-.-.-.%.%.%.%.%.%.,.,.-.-.-.-.-.-.-.1.5.- >.+.-.-.<.,.-.-.-.-.<.-.-.-.<.<.-.-.-.-.-.-.-.*.3.6.o tXwXqX0X8X8X8X8X8X8X8X8X8X8X8X8X8X8X8X9X7X9X8X0XtXbXo hXgXgXgXgXgXgXgXgXgXgXgXgXgXgXgXgXgXgXgXgXgXgXgXgXdX. vXpXuXfXhXpXpXpXpXpXpXpXpXpXpXpXpXpXpXpXuXuXuXuXyXmXo jXuXpXpXpXpXpXpXpXpXpXpXpXpXpXpXpXpXpXpXpXpXpXpXpXpXo vXyX8XuXuX8X8XuXpXpXpXpXpXpXpXuXpXpXpXpXpXpXuX8XfXsX.                                             X X                                                                                                                                                                         DXDXDXDXDXDXDXDXDXDXDXDXDXDXDXDXDXDXDXDXDXAXAXDXDXDX$ DX",
"DXHXDX  DXDXDXDXDXDXDXDXDXDXDXDXDXDXDXDXDXDXDXDXDXDXDXDXAXCXo D +.$.$.$.$.$.$.$.#.#.$.$.$.$.$.$.#.#.#.#.#.#.#.@.6.; -.$.#.$.$.$.$.$.$.$.$.$.$.$.$.$.$.$.$.$.$.$.#.#.#.:.O fXqX4X6X6X6X6X6X6X6X6X6X9X9X9XqXqX9X9X9X9X9X9XqXyXbXO 8X6X6X6X6X6X6X6X9X9X6X6X6X6X6X6X6X6X9X9X9X9X9X9XqXeXo kXuX9X9XuX9X9X9X9XuXuX9X9X9X9X9X9X9X9X9X7X7X9X9XuXnXO 8XqX7X9X9X9XuXuXuX9X9XuX9X9X9X9X9X9X9X9X7X7X7X7X7XuXo nXgX6X9X9X6X6X7X9X9X9X9X9X9X9XuX9XuX9X9XuXuX9X6XwXsX.                                             X X                                                                                                                                                                         DXDXDXDXDXDXDXDXDXDXDXDXDXDXDXDXDXDXDXDXDXDXDXDXDXDX  DX",
"DXHXDX  DXDXDXDXDXDXDXDXDXDXDXDXDXDXDXDXDXDXDXDXDXDXDXDXDXAXo S %.$.$.$.$.$.$.$.$.$.$.$.$.$.$.$.#.#.#.#.#.#.#.+.4.; @.#.$.$.$.$.$.$.$.$.$.$.$.$.$.$.$.$.$.$.$.$.$.$.#.:.O sX8XqX6X6X6X6X6X6X6X6X6X9X9X9X7X7X7X7X7X9X9X9X6XuXnXO yX9X9X9X9X9X9X9X9X9X9X9X9X9X9X9X9X9X9X9X9X9X9X6XqXfXo cX8X6X9X9X7X7X7X7X7X7X7X7X7X7X7X7X7X7X7X7X7X7X7XuXkXO 8X9X6X6X6X6X6X6X6X6X9X9X9X9X9X9X9X9X9X9X9X9X9X9X9XuXO nX8X6X9X9X6X9X9X9X9X9X9X9X9X7X7X7X7X7X7X7X7X7X6XgXcX.                                                                                                                                                                                                                         DXDXDXDXDXDXDXDXDXDXDXDXDXDXDXDXDXDXDXDXDXDXDXDXDXDX  DX",
"DXHXDX  DXDXDXDXDXDXDXDXDXDXDXDXDXDXDXDXDXDXDXDXDXDXDXDXDXAXo S %.$.$.$.$.$.$.$.$.$.$.$.$.$.$.$.#.#.#.#.#.#.#.+.5.- @.#.$.$.$.$.$.$.$.$.$.$.$.$.$.$.$.$.$.$.$.$.$.$.$.:.O kXpXqX6X6X6X6X9X7X7X7X9X9X9X9X7X7X7X7X7X7X9X9X6XuXnXO uX9X9X9X9X9X9X9X7X7X7X7X9X9X9X9X9X9X9X9X9X9X9X6X6XqXo cX8X6X7X9X7X6X6X6X6X6X6X6X6X6X6X6X6X6X6X7X9X9X7XuXkXO 8X9X6X6X6X6X6X6X6X6X6X6X6X6X6X6X6X6X6X6X6X6X6X6X6XuXO cX8X6X9X9X9X9X9X9X9X9X7X7X7X7X7X7X7X7X6X6X6X7X7XpXcX.                                                                                                                                                                                                                         DXDXDXDXDXDXDXDXDXDXDXDXDXDXDXDXDXDXDXDXDXDXDXDXDXDX  DX",
"DXHXDX  DXDXDXDXDXDXDXDXDXDXDXDXDXDXDXDXDXDXDXDXDXAXDXDXDXAXo S %.$.$.$.$.$.$.$.$.$.$.$.$.$.$.$.#.#.#.#.#.#.#.+.5.- @.#.$.$.$.$.$.$.$.$.$.$.$.$.$.$.$.$.$.$.$.$.$.$.$.:.O kXyXqX9X9X9X9X9X9X7X7X9X9X9X9X7X7X7X7X7X7X9X9X6XuXnXO uX9X9X9X9X9X9X9X7X7X7X7X9X9X9X9X9X9X9X9X9X9X9X6X6X8Xo cX8X6X7X9X7X6X6X6X6X6X6X6X6X6X6X6X6X6X6X7X9X9X7XuXkXO 8X9X6X6X6X6X6X6X6X6X6X6X6X6X6X6X6X6X6X6X6X6X6X6X6XuXO cX8X6X9X9X9X9X7X9X9X9X7X7X7X9X7X7X7X7X6X6X6X7X7XpXcX.                                                                                                                                                                                                                         DXDXDXDXDXDXDXDXDXDXDXDXDXDXDXDXDXDXDXDXDXDXDXDXDXDX  DX",
"DXHXDX  DXDXDXDXDXDXDXDXDXDXDXDXDXDXDXDXDXDXDXDXDXAXDXDXDXAXo S %.$.$.$.$.$.$.$.$.$.$.$.$.$.$.$.#.#.#.#.#.#.#.+.5.- @.#.$.$.$.$.$.$.$.$.$.$.$.$.$.$.$.$.$.$.$.$.$.$.$.:.O kXyXqX9X9X9X9X9X9X7X7X7X9X9X9X7X7X7X7X7X7X9X9X6X8XnXO uX9X9X9X9X9X9X9X7X7X7X7X9X9X9X9X9X9X9X9X9X9X9X6X6XqXo cX8X6X7X9X7X6X6X6X6X6X6X6X6X6X6X6X6X6X6X7X9X9X7XuXkXO 8X9X6X6X6X6X6X6X6X6X6X6X9X9X6X6X6X6X6X6X6X6X6X6X6XuXO cX8X6X9X9X9X9X7X9X9X9X7X7X7X9X9X7X7X7X6X6X6X7X7XpXcX.                                                                                                                                                                                                                         DXDXDXDXDXDXDXDXDXDXDXDXDXDXDXDXDXDXDXDXDXDXDXDXDXDX  DX",
"DXHXDX  DXDXDXDXDXDXDXDXDXDXDXDXDXDXDXDXDXDXDXDXDXAXDXDXDXAXo S %.$.$.$.$.$.$.$.$.$.$.$.$.$.$.$.$.$.$.$.$.$.$.+.5.- @.#.$.$.$.$.$.$.$.$.$.$.$.$.$.$.$.$.$.$.$.$.$.$.$.:.O cXyXqX9X9X9X9X9X9X9X9X9X9X9X9X9X9X9X9X9X9X9X9X6X8XnXO gX9X9X9X9X9X9X9X9X9X9X9X9X9X9X9X9X9X9X9X9X9X9X9X6XqXo cXuX9X9X9X9X9X9X9X9X9X9X9X9X9X9X9X7X7X7X7X9X9X7XuXcXO uX9X6X6X6X6X6X6X6X6X6X6X6X6X6X6X6X6X6X6X6X6X6X6X6XuXO cX8X6X9X9X9X9X9X9X7X9X9X9X7X9X9X9X7X7X6X6X6X9X7XuXcX.                                                                                                                                                                                                                         DXDXDXDXDXDXDXDXDXDXDXDXDXDXDXDXDXDXDXDXDXDXDXDXDXDX  DX",
"DXHXDX  DXDXDXDXDXDXDXDXDXDXDXDXDXDXDXDXDXDXDXDXDXDXDXDXDXAXo S %.$.$.$.$.$.$.$.$.$.$.$.$.$.$.$.$.$.$.$.$.$.$.+.D - @.#.$.$.$.$.$.$.$.$.$.$.$.$.$.$.$.$.$.$.$.$.$.$.$.:.O sXyXqX9X9X9X9X9X9X9X9X9X9X9X9X9X9X9X9X9X9X9X9X6X8XnXO gX9X9X9X9X9X9X9X9X9X9X9X9X9X9X9X9X9X9X9X9X9X9X9X6XqXo cXuX9X9X9X9X9X9X9X9X9X9X9X9X9X9X9X7X7X7X7X9X9X7XuXcXO uX9X6X6X6X6X6X6X6X6X6X6X6X6X6X6X6X6X6X6X6X6X6X6X6XuXO cX8X6X9X9X9X9X9X9X9X9X9X9X7X7X9X9X9X9X6X6X6X9X7XuXcX.                                                                                                                                                                                                                         DXDXDXDXDXDXDXDXDXDXDXDXDXDXDXDXDXDXDXDXDXDXDXDXDXDX  DX",
"DXHXDX  DXDXDXDXDXDXDXDXDXDXDXDXDXDXDXDXDXDXDXDXDXDXDXDXDXAXo S %.$.$.$.$.$.$.$.$.$.$.$.$.$.$.$.$.$.$.$.$.$.$.%.5.- @.#.$.$.$.$.$.$.$.$.$.$.$.$.$.$.$.$.$.$.$.$.$.$.$.:.O sX8XqX9X9X9X9X9X9X9X9X9X9X9X9X9X9X9X9X9X9X9X9X6X8XnXO gX9X9X9X9X9X9X9X9X9X9X9X9X9X9X9X9X9X9X9X9X9X9X9X6XqXo cXuX9X9X9X9X9X9X9X9X9X9X9X9X7X9X9X7X7X7X7X9X9X7XuXcXO uX9X6X6X6X6X6X6X6X6X6X6X6X6X6X6X6X6X6X6X6X6X6X6X6XuXO cX8X6X9X9X9X9X9X9X9X9X9X9X9X9X9X9X9X9X6X6X6X9X7XuXcX.                                                                                                                                                                                                                         DXDXDXDXDXDXDXDXDXDXDXDXDXDXDXDXDXDXDXDXDXDXDXDXDXDX  DX",
"DXHXDX  DXDXDXDXDXDXDXDXDXDXDXDXDXDXDXDXDXDXDXDXDXDXDXDXDXAXo S %.$.$.$.$.$.$.$.$.$.$.$.$.$.$.$.$.$.$.$.$.$.$.%.S - @.#.$.$.$.$.$.$.$.$.$.$.$.$.$.$.$.$.$.$.$.$.$.$.$.:.- sX8X9X9X9X9X9X9X9X9X9X9X9X9X9X9X9X9X9X9X9X9X9X5X8XnXO gX9X9X9X9X9X9X9X9X9X9X9X9X9X9X9X9X9X9X9X9X9X9X9X6XqXo cXuX9X9X9X9X9X9X9X9X9X9X9X7X7X9X9X9X7X7X7X9X9X7XuXcXO uX9X6X6X6X6X6X6X6X6X6X9X9X9X9X9X9X9X9X9X9X9X9X9X9XuXO cX8X6X9X9X9X9X9X9X9X9X9X9X9X9X9X9X9X9X6X6X6X9X7XuXcX.                                                                                                                                                                                                                         DXDXDXDXDXDXDXDXDXDXDXDXDXDXDXDXDXDXDXDXDXDXDXDXDXDX  DX",
"DXDXDX  DXDXDXDXDXDXDXDXDXDXDXDXDXDXDXDXDXDXDXDXDXDXDXDXDXAXo S +.$.$.$.$.$.$.$.$.$.$.$.$.$.$.$.$.$.$.$.$.$.$.+.S - =.$.$.$.$.$.$.$.$.$.$.$.$.$.$.$.$.$.$.$.$.$.$.$.$.:.O cX8X9X9X9X9X9X9X9X9X9X9X9X9X9X7X7X9X9X9X9X9X9X6X8XnXO uX9X9X9X9X9X9X9X9X9X9X9X9X9X7X7X9X9X9X9X9X9X9X6X6X8Xo cX8X6X9X9X7X9X9X9X9X9X9X9X7X7X7X7X7X7X7X9X9X9X7XuXcXO uXqX6X6X6X6X6X6X6X6X9X7X7X7X7X7X7X7X7X7X7X7X7X7X7XuXO cX8X6X9X9X9X9X7X7X7X7X9X9X9X9X9X9X9X9X9X9X9X9X7XpXnXo                                                                                                                                                                                                                         DXDXDXDXDXDXDXDXDXDXDXDXDXDXDXDXDXDXDXDXDXDXDXDXDXDX  DX",
"DXDXDX  DXDXDXDXDXDXDXDXDXDXDXDXDXDXDXDXDXDXDXDXDXDXDXDXDXAXo S +.$.$.$.$.$.$.$.$.$.$.$.$.$.$.$.$.$.$.$.$.$.$.+.S - =.$.$.$.$.$.$.$.$.$.$.$.$.$.$.$.$.$.$.$.$.$.$.$.$.:.- cX8X9X9X9X9X9X9X9X9X9X9X9X9X9X7X7X9X9X9X9X9X9X6XuXnXO uX9X9X9X9X9X9X9X7X7X9X9X9X9X7X7X9X9X9X9X9X9X9X6X6X8Xo cX8X6X7X9X9X9X9X9X9X9X9X9X7X7X7X7X7X7X7X9X9X9X7XuXcXO uXqX6X6X6X6X6X6X6X9X9X9X7X7X7X7X7X9X7X7X7X7X7X7X7XuXO cX8X6X9X9X9X9X9X7X7X7X9X9X9X9X9X9X9X9X9X9X9X7X7XpXnXo                                                                                                                                                                                                                         DXDXDXDXDXDXDXDXDXDXDXDXDXDXDXDXDXDXDXDXDXDXDXDXDXDX  DX",
"DXAXDX  DXDXDXDXDXDXDXDXDXDXDXDXDXDXDXDXDXDXDXDXDXDXDXDXDXAXo S +.$.$.$.$.$.$.$.$.$.$.$.$.$.$.$.$.$.$.$.$.$.$.+.S - =.;.$.$.$.$.$.$.$.$.$.$.$.$.$.$.$.$.$.$.$.$.$.$.$.:.- cX8X9X9X9X9X9X9X9X9X9X9X9X9X9X7X7X7X9X7X7X9X9X6X8XnXO uX9X9X9X9X9X9X9X7X7X7X7X9X9X9X7X7X7X9X9X9X9X9X6X6X8Xo cX8X6X7X9X9X9X9X9X9X9X9X9X9X9X7X7X7X7X9X9X9X9X7XuXkXO uX9X6X6X6X6X6X6X6X9X9X9X7X7X7X7X7X9X9X9X7X7X7X7X7XuXO cX8X6X9X9X9X9X9X7X7X7X9X9X9X9X9X9X9X9X9X9X9X7X7XpXnXo                                                                                                                                                                                                                         DXDXDXDXDXDXDXDXDXDXDXDXDXDXDXDXDXDXDXDXDXDXDXDXDXDX  DX",
"DXAXDX  DXDXDXDXDXDXDXDXDXDXDXDXDXDXDXDXDXDXDXDXDXDXDXDXDXAXo S +.$.$.$.$.$.$.$.$.$.$.$.$.$.$.$.$.$.$.$.$.$.$.+.S - =.;.$.$.$.$.$.$.$.$.$.$.$.$.$.$.$.$.$.$.$.$.$.$.$.:.- cX8X6X9X9X9X9X9X9X9X9X9X9X9X9X7X7X7X9X7X7X9X9X6X8XnXO uX9X9X9X9X9X9X9X7X7X7X7X9X9X7X7X7X7X9X9X9X9X9X6X6X8Xo cX8X6X7X9X9X9X9X9X9X9X9X9X9X9X9X9X7X7X7X9X9X9X7XuXkXO uX9X6X6X6X6X6X6X6X9X7X7X7X7X7X7X7X7X9X7X7X7X7X7X7XuXO cX8X6X9X9X9X6X9X7X7X7X9X9X9X9X9X9X9X9X9X9X9X9X7XpXnXo                                                                                                                                                                                                                         DXDXDXDXDXDXDXDXDXDXDXDXDXDXDXDXDXDXDXDXDXDXDXDXDXDX  DX",
"DXAXDX  DXDXDXDXDXDXDXDXDXDXDXDXDXDXDXDXDXDXDXDXDXDXDXDXDXAXo S +.$.$.$.$.$.$.$.$.$.$.$.$.$.$.$.$.$.$.$.$.$.$.%.S - *.;.$.$.$.$.$.$.$.$.$.$.$.$.$.$.$.$.$.$.$.$.$.$.$.:.- nX8X6X9X9X9X9X9X9X9X9X9X9X9X9X9X9X9X9X7X7X9X9X6X8XnXO yX9X9X9X9X9X9X9X9X9X9X7X7X7X7X7X7X7X9X9X9X9X7X6X6X8Xo cXuX7X9X9X7X9X9X9X9X9X9X9X9X9X7X7X7X7X9X9X9X9X9XuXkXO uX9X6X6X6X6X6X6X6X9X7X7X7X7X7X7X7X7X7X7X7X7X9X9X7XuXO cX8X6X9X9X9X6X9X9X9X9X9X9X9X9X9X9X9X9X9X9X9X9X7XuXzXo .                                                                                                                                                                                                                       DXDXDXDXDXDXDXDXDXDXDXDXDXDXDXDXDXDXDXDXDXDXDXDXDXDX  DX",
"DXAXDX  DXDXDXDXDXDXDXDXDXDXDXDXDXDXDXDXDXDXDXDXDXDXDXDXDXAXo S +.$.$.$.$.$.$.$.$.$.$.$.$.$.$.$.$.$.$.$.$.$.$.%.S - *.;.$.$.$.$.$.$.$.$.$.$.$.$.$.$.$.$.$.$.$.$.$.$.$.:.- nX8X6X9X9X9X9X9X9X9X9X9X9X9X9X9X9X9X9X7X7X9X9X6X8XnXO yX9X9X9X9X9X9X9X9X9X9X9X7X7X7X7X7X7X9X9X7X9X7X6X6X8Xo cXuX6X9X9X7X9X9X9X9X9X9X9X9X9X7X7X7X7X9X9X9X9X9XuXkXO uX9X6X6X6X6X6X6X6X9X7X7X7X7X7X7X7X7X7X7X7X7X7X9X7XuXO cX8X6X9X9X9X6X9X9X9X9X9X9X9X9X9X9X9X9X9X9X9X9X7XuXzXo .                                                                                                                                                                                                                       DXDXDXDXDXDXDXDXDXDXDXDXDXDXDXDXDXDXDXDXDXDXDXDXDXDX  DX",
"DXAXDX  DXDXDXDXDXDXDXDXDXDXDXDXDXDXDXDXDXDXDXDXDXDXDXDXDXAXo S +.$.$.$.$.$.$.$.$.$.$.$.$.$.$.$.$.$.$.$.$.$.$.+.S - -.;.$.$.$.$.$.$.$.$.$.$.$.$.$.$.$.$.$.$.$.$.$.$.$.:.- nX8X6X9X9X9X9X9X9X9X9X9X9X9X9X9X9X9X9X9X9X9X9X6XuXnXO yX9X9X9X9X9X9X9X9X9X9X9X7X7X9X9X9X9X9X9X7X7X7X6X6X8Xo cX8X6X9X9X7X9X9X9X9X9X9X9X9X9X9X7X9X9X9X9X9X9X9XuXkXO uX9X6X6X6X6X6X6X6X9X7X7X7X7X7X7X7X7X7X7X7X7X7X7X7XuXO nX8X6X9X9X9X6X9X9X9X9X9X9X9X9X9X9X9X9X9X9X9X7X7XpXnXo                                                                                                                                                                                                                         DXDXDXDXDXDXDXDXDXDXDXDXDXDXDXDXDXDXDXDXDXDXDXDXDXDX  DX",
"DXAXDX  DXDXDXDXDXDXDXDXDXDXDXDXDXDXDXDXDXDXDXDXDXDXDXDXDXAXo S +.$.$.$.$.$.$.$.$.$.$.$.$.$.$.$.$.$.$.$.$.$.$.+.S - -.;.$.$.$.$.$.$.$.$.$.$.$.$.$.$.$.$.$.$.$.$.$.$.$.:.- nX8X6X9X9X9X9X9X9X9X9X9X9X9X9X9X9X9X9X9X9X9X9X6XuXnXO yX9X9X9X9X9X9X9X9X9X9X9X9X7X9X9X9X9X9X9X7X7X7X6X6X8Xo cX8X6X7X9X7X9X9X9X9X9X9X9X9X9X7X7X9X9X9X9X9X9X9XuXkXO uX9X6X6X6X6X6X6X6X6X9X7X7X7X7X7X7X7X7X7X7X7X7X7X7XuXO zX8X6X9X9X9X6X9X9X9X9X9X9X9X9X9X9X9X9X9X9X9X7X7XpXnXo                                                                                                                                                                                                                         DXDXDXDXDXDXDXDXDXDXDXDXDXDXDXDXDXDXDXDXDXDXDXDXDXDX  DX",
"DXAXDX  DXDXDXDXDXDXDXDXDXDXDXDXDXDXDXDXDXDXDXDXDXDXDXDXDXAXo S %.$.$.$.$.$.$.$.$.$.$.$.$.$.$.$.$.$.$.$.$.$.$.+.S - *.;.$.$.$.$.$.$.$.$.$.$.$.$.$.$.$.$.$.$.$.$.$.$.$.:.- cX8X6X9X9X9X9X9X9X9X9X9X9X9X9X9X9X9X9X7X7X9X9X6X8XnXO yX9X9X9X9X9X9X9X7X7X7X7X7X7X9X9X9X9X9X9X7X7X7X6X6X8Xo cX8X6X7X9X7X9X9X9X9X9X9X9X9X9X9X9X9X9X9X7X9X9X7XuXcXO uX9X6X6X6X6X6X6X6X6X6X7X7X7X7X7X7X9X7X9X9X9X7X7X7XuXO zX8X6X9X7X9X6X9X9X9X9X9X9X9X9X9X9X9X9X9X9X9X9X7XpXnXo                                                                                                                                                                                                                         DXDXDXDXDXDXDXDXDXDXDXDXDXDXDXDXDXDXDXDXDXDXDXDXDXDX  DX",
"DXAXDX  DXDXDXDXDXDXDXDXDXDXDXDXDXDXDXDXDXDXDXDXDXDXDXDXDXAXo S %.$.$.$.$.$.$.$.$.$.$.$.$.$.$.$.$.$.$.$.$.$.$.+.S - *.;.$.$.$.$.$.$.$.$.$.$.$.$.$.$.$.$.$.$.$.$.$.$.$.:.- cX8X6X9X9X9X9X9X9X9X9X9X9X9X9X9X9X9X9X7X7X9X9X6X8XnXO uX9X9X9X9X9X9X9X7X7X7X7X7X7X9X9X7X9X9X9X7X7X7X6X6X8Xo cX8X6X7X9X9X9X9X9X9X9X9X9X9X9X9X9X9X9X9X7X9X9X7XuXcXO uX9X6X6X6X6X6X6X6X6X6X6X6X6X6X6X6X9X7X9X9X9X9X9X9XyXO zX8X6X9X7X9X6X9X9X9X9X9X9X9X9X9X9X9X9X9X9X9X9X7XpXnXo                                                                                                                                                                                                                         DXDXDXDXDXDXDXDXDXDXDXDXDXDXDXDXDXDXDXDXDXDXDXDXDXDX  DX",
"DXAXDX  DXDXDXDXDXDXDXDXDXDXDXDXDXDXDXDXDXDXDXDXDXAXDXDXDXAXo S %.$.$.$.$.$.$.$.$.$.$.$.$.$.$.$.#.#.#.#.#.#.#.+.S - *.;.$.$.$.$.$.$.$.$.$.$.$.$.$.$.$.$.$.$.$.$.$.$.$.:.- cX8X6X9X9X9X9X9X9X9X9X9X9X9X9X9X9X9X9X7X7X9X9X6XuXnXO uX9X9X9X9X9X9X9X6X6X6X6X7X6X7X7X7X7X9X9X9X9X7X6X6XqXo cX8X6X7X9X9X9X9X9X9X9X9X9X9X9X9X9X9X9X9X7X9X9X7XuXcXO uX9X6X6X6X6X6X6X6X6X6X6X6X6X6X6X6X9X7X9X9X9X9X9X9XyXO zX8X6X9X7X7X6X9X9X9X9X9X9X9X9X9X9X9X9X9X9X9X9X7XpXcX.                                                                                                                                                                                                                         DXDXDXDXDXDXDXDXDXDXDXDXDXDXDXDXDXDXDXDXDXDXDXDXDXDX  DX",
"DXAXDX  DXDXDXDXDXDXDXDXDXDXDXDXDXDXDXDXDXDXDXDXDXDXDXDXDXAXo S %.$.$.$.$.$.$.$.$.$.$.$.$.$.$.$.#.#.#.#.#.#.#.+.S - *.;.$.$.$.$.$.$.$.$.$.$.$.$.$.$.$.$.$.$.$.$.$.$.$.:.- cX8X6X9X9X9X9X9X9X9X9X9X9X9X9X9X9X9X9X9X9X9X9X6X8XnXO uX9X9X9X9X9X9X9X6X6X6X6X7X7X7X7X7X7X9X9X9X7X7X6X6XqXo cXuX6X9X9X9X9X9X9X9X9X9X9X9X9X9X9X9X9X9X7X9X9X7XuXcXO uX9X6X6X6X6X6X6X6X6X6X6X6X6X6X6X6X9X7X9X9X9X9X9X9XyXO zX8X6X7X7X9X6X9X9X9X9X9X9X9X9X9X9X9X9X9X9X9X9X7XpXcX.                                                                                                                                                                                                                         DXDXDXDXDXDXDXDXDXDXDXDXDXDXDXDXDXDXDXDXDXDXDXDXDXDX  DX",
"DXAXDX  DXDXDXDXDXDXDXDXDXDXDXDXDXDXDXDXDXDXDXDXDXDXDXDXDXAXo S %.$.$.$.$.$.$.$.$.$.$.$.$.$.$.$.#.#.#.#.#.#.#.+.S - *.;.$.$.$.$.$.$.$.$.$.$.$.$.$.$.$.$.$.$.$.$.$.$.$.:.- nXyX9X9X9X9X9X9X9X9X9X9X9X9X9X9X9X9X9X9X9X9X9X6X8XnXO uX9X9X9X9X9X9X9X6X6X6X6X6X6X7X7X7X7X7X7X9X9X9X6X6X8Xo cXuX9X9X9X7X9X9X9X9X9X9X9X9X9X9X9X9X9X9X7X9X9X9XuXkXO uX9X9X9X9X6X6X6X6X6X6X6X6X6X6X6X6X7X7X9X9X9X9X9X9XyXO zX9X6X7X7X7X6X9X9X9X9X9X9X9X9X9X9X9X9X9X9X9X7X7XpXcX.                                                                                                                                                                                                                         DXDXDXDXDXDXDXDXDXDXDXDXDXDXDXDXDXDXDXDXDXDXDXDXDXDX  DX",
"DXAXDX  DXDXDXDXDXDXDXDXDXDXDXDXDXDXDXDXDXDXDXDXDXDXDXDXDXAXo S %.$.$.$.$.$.$.$.$.$.$.$.$.$.$.$.#.#.#.#.#.#.#.+.S - *.;.$.$.$.$.$.$.$.$.$.$.$.$.$.$.$.$.$.$.$.$.$.$.$.:.- cXyX9X9X9X9X9X9X9X9X9X9X9X9X9X9X9X9X9X9X9X9X9X6X8XnXO yX9X9X9X9X9X9X9X6X6X6X6X6X6X6X6X7X7X9X9X9X9X7X6X6X8Xo cXuX6X9X9X7X9X9X9X9X9X9X9X9X9X9X9X9X9X9X7X9X9X9XuXkXO uX9X9X9X9X6X6X6X6X6X6X6X7X7X6X6X6X7X7X9X9X9X9X9X9XuXO zX9X6X9X7X9X6X9X9X9X9X9X9X9X9X9X9X9X9X9X9X9X7X7XpXcX.                                                                                                                                                                                                                         DXDXDXDXDXDXDXDXDXDXDXDXDXDXDXDXDXDXDXDXDXDXDXDXDXDX  DX",
"DXAXDX  DXDXDXDXDXDXDXDXDXDXDXDXDXDXDXDXDXDXDXDXDXDXDXDXDXAXo S %.$.$.$.$.$.$.$.$.$.$.$.$.$.$.$.#.#.#.#.#.#.#.+.S - =.;.$.$.$.$.$.$.$.$.$.$.$.$.$.$.$.$.$.$.$.$.$.$.$.:.O cX8X9X9X9X9X9X9X9X9X9X9X9X9X9X9X9X9X9X9X9X9X9X6X8XnXO yX9X9X9X9X9X9X9X6X6X6X6X6X6X6X6X9X9X9X9X9X9X7X6X6X8Xo cX8X6X7X9X7X9X9X9X9X9X9X9X9X9X9X9X9X9X9X7X9X9X9XuXcXO uXqX6X6X6X6X6X6X6X6X6X6X6X6X6X6X6X7X9X9X9X9X9X9X9XuXO zX9X6X9X7X9X6X9X9X9X9X9X9X9X9X9X9X9X9X9X9X9X7X7XpXcX.                                                                                                                                                                                                                         DXDXDXDXDXDXDXDXDXDXDXDXDXDXDXDXDXDXDXDXDXDXDXDXDXDX  DX",
"DXAXDX  DXDXDXDXDXDXDXDXDXDXDXDXDXDXDXDXDXDXDXDXDXDXDXDXDXAX. D 2.%.%.%.%.%.%.%.%.%.%.%.%.%.%.%.%.%.%.+.+.+.+.2.S - 1.-.+.+.%.%.,.+.+.%.%.%.%.%.%.%.%.%.%.%.%.%.,.>.>.2.O vXrXyXuXuXuXuXuXuXuXuXuXuXuXuXuXuXpXpXuXuXuXuX8XyXvXo iXuXuXyXuXuXuXuX8X8X8X8X9X9X9X9XuXuXuXuXuXuXuX8X8XfX. vXpXuXuXuXuXuXuXuXuXuXuXuXuXuXuXuXuXuXuXuXpXpXpXiXvXo yXgX8X8X8X8X8X8X8X8X8X8X8X8X8X8X8XuXuXuXuXuXuXuXuXiXO vXyX8XuXuX8X8XyXyXyXuXyXyXyXuXuXuXuXuXuXuXuXuX8XhXvX.                                                                                                                                                                                                                         DXDXDXDXDXDXDXDXDXDXDXDXDXDXDXDXDXDXDXDXDXDXDXDXDXDX  DX",
"DXDXDX  DXDXDXDXDXDXDXDXDXDXDXDXDXDXDXDXDXDXDXDXDXDXDXDXDXDX  T F 4.4.4.4.4.4.4.4.4.4.4.4.4.4.4.4.4.4.4.5.5.5.D Z - D A D D D D D D D 5.4.4.4.4.4.4.4.4.4.4.4.4.D D F F o lXlXkXkXzXkXzXzXkXkXkXkXkXkXkXkXkXkXkXiXiXsXsXtXrXBX. kXrXrXrXrXrXrXrXrXrXrXiXrXrXrXrXrXrXrXrXrXrXrXrXrXbX. NXlXrXkXkXrXrXrXrXrXrXrXrXrXrXrXrXkXkXkXkXkXkXkXkXNX. bXiXrXrXrXrXrXrXrXrXrXrXrXrXrXrXrXrXrXrXrXrXrXrXrXkX. NXkXrXrXrXrXrXrXrXrXrXrXrXrXrXrXrXrXrXrXrXiXiXrXcXNX                                              . .     @ X                                                 X $                                                     X X   X                                                 DXDXDXDXDXDXDXDXDXDXDXDXDXDXDXDXDXDXDXDXDXDXDXDXDXDXX DX",
"    X                                                         . o O O O O O O O O O O O O O O O O O O O O O O o o . o o . . . . o o o o o o o o o o o o O O o o o . . . o o o o O O o o o o o o o o o o o o o o o o o o - O +   o O O O O O O O O O O O O O O O O O O O O O O O o o     o o O O O O O O O O O O O O O O O O O O O O O o .   . - O O O O O O o O O o O O O O O O O O O O O O o o   . o o o o O O O O o O O O O O O O O O O O O O o o .           . . . . . . . . . . . . . . . . . . o o .         . . . . . . . . . . . . . . . . . . . . . .         . o o . . . . . . . . . . . . . . . . . . . . . . X                                                                                                               ",
"DXDXDX  DXDXDXDXDXDXDXDXDXDXDXDXDXDXDXDXDXDXDXDXDXDXDXDXJXDX  DXCXCXCXCXCXCXCXCXCXCXCXCXCXCXCXCXCXCXCXCXCXCXCXAXAX  AXCXDXDXDXAXAXAXAXCXCXCXCXCXCXCXCXCXCXCXCXCXDXDXDXCX. kXfX0X9XuXuXuXuXuXuXuXuXuXuXyXyXyXyXyXuXuXyX8X8XyXmXo iX8X8X8X8X8X8X8X8X9X9X9X9X9X9X8X8X8X8X8X8X8X8X8X8XfXo bXhXyXyX8X8X8X8X8X8X8X8X8X8X8X8XyX8X8X8X8X8X8X8XiXvXo jX8X8X8X8X8X8X8X8X8X8X8X8X8X8X8X8X8X8X8X8X8X8X8X8XiX. kXyXqX8X8X8X8X8X8X8X8X8X8X8X9X9X8X9X9X7X7X7X8XpXpXrX. cXsXsXsXhXpXpXpXpXpXpXpXpXhXpXpXhXhXhXiXiXpXpXuXyXzXO vXiXpXpXpXpXpXpXpXiXiXiXiXpXiXiXiXiXiXiXiXiXpXpXiXvXO kXyXyXyXyXrXtXyXyXyXyXyXyXyXyXyXyXyXyXtXtXhXdXdXhXtX  DXHXDXDXDXDXDXDXDXDXDXDXDXDXDXDXDXDXDXDXDXDXDXDXDXDX  DXDXDXDXDXDXDXDXDXDXDXDXDXDXDXDXDXDXDXDXDXDXDXDXDXDX  AX",
"DXDXDX  DXDXDXDXDXDXDXDXDXDXDXDXDXDXDXDXDXDXDXDXDXDXDXDXDXDX  DXDXDXDXDXDXDXDXDXDXDXDXDXDXDXDXDXDXDXDXDXDXDXDXDXDX= AXAXAXAXAXAXAXAXAXAXDXDXDXDXDXAXDXDXDXDXDXDXDXDXDXCX. rXgX6X6X7X7X7X7X7X7X7X7X7X7X7X7X7X9X7X6X7X7X7X6X8XnXO uX9X9X9X9X9X9X9X9X9X9X9X9X9X9X9X9X9X9X9X9X9X9X9XqXfXO rXfX8X9X9X9X9X9X9X9X9X9X9X9X9X9X9X9X9X9X9X9X9X9XuXzX- 8XqX9X9X9X9X9X9X9X9X9X9X9X9X9X9X9X9X9X9X9X9X9X9X9XuXO nX8X5X9X9X9X6X9X9X9X9X9X9X9X9X9X9X9X9X9X9X9X9X7XpXnXO yX8X8X8X7X7X7X7X7X7X7X7X7X7X7X7X7X7X7X7X7X7X6X5X7XuX- jX8X7X7X7X7X7X7X7X7X7X7X7X7X7X7X7X7X7X7X7X7X7X7X9XiXo 8X5X6X6X7X7X7X7X7X7X7X7X7X7X7X7X7X7X6X6X6X6X6X0X8XhXo AXDXDXDXDXDXDXDXDXDXDXDXDXDXDXDXDXDXDXDXDXDXDXDXDXDX  DXDXDXDXDXDXDXDXDXDXDXDXDXDXDXDXDXDXDXDXDXDXDXDXDXDXX DX",
"DXDXDX  DXDXDXDXDXDXDXDXDXDXDXDXDXDXDXDXDXDXDXDXDXDXDXDXAXAX  DXDXAXDXAXAXAXAXAXAXAXAXAXAXAXAXAXAXAXAXAXAXAXAXAXDX  DXDXDXDXDXDXAXAXAXAXAXAXAXAXAXAXAXAXAXAXAXAXAXAXAXCX. nXuX9X9X9X9X9X9X9X9X9X9X9X9X9X9X9X9X9X6X6X9X6X6X9XnXO uX7X7X7X9X9X9X9X7X7X7X7X7X7X7X7X9X9X9X9X9X9X9X9X9XpXo cXyXuX9X9X9X9X9X9X9X9X9X9X9X9X9X9X9X9X9X9X9X9X9XpXzXO uX9X9X9X9X9X9X9X9X9X9X9X9X9X9X9X9X9X9X9X9X9X9X9X9XpXO zX8X6X7X9X7X9X9X7X7X7X7X7X7X7X7X7X7X7X7X7X7X9XuXhXcXo fXqXqX9X9X7X7X7X7X9X9X9X9X9X9X9X9X9X9X9X9X7X6X6X6X8XO jXqX9X9X9X9X9X9X9X9X9X9X9X9X9X9X9X9X7X7X7X7X7X7X8XhXo 8X0X6X6X6X9X6X6X6X6X6X6X6X6X6X6X6X6X6X6X6X6X6X6X7XpX. HXAXDXDXDXDXDXDXDXDXDXDXDXDXDXDXDXDXDXDXDXDXDXDXDXDX  DXDXDXDXDXDXDXDXDXDXDXDXDXDXDXDXDXDXDXDXDXDXDXDXDXDX  DX",
"DXDXDX  DXDXDXDXDXDXDXDXDXDXDXDXDXDXDXDXDXDXDXDXDXDXDXDXAXDX  DXDXDXDXDXAXAXAXAXAXAXAXAXAXAXAXAXAXAXAXAXAXAXAXAXDX  DXDXDXDXDXDXAXAXAXAXAXAXAXAXAXAXAXAXAXAXAXAXCXCXAXCX. nXaX9X9X9X9X9X9X9X9X9X9X9X9X9X9X9X9X9X6X6X9X6X6X9XnXO uX9X9X9X9X9X9X9X9X9X9X9X9X9X9X9X9X9XuXuX9X9X9X9X9XpXo cXpXuXuX9X9X9X9X9X9X9X9X9XuXuXuXuX9XuXuXuXuX9X9XpXzXO uX9X9XuX9X9X9X9X9X9X9X9X9XuX9X9X9X9XuXuX9X9X9X9X9XpXO zX8X6X9X9X9X9X9X9X9X9X9X9X9X9X9X9X9X9X9X9X9X9X8XhXcXo fXqXqX9X9X9X9X9X9X9X9X9X9X9X9X9X9X9X9X9X9X9X6X6X6X8XO hXqX9X9X9X9X9X9X9X9X9X9X9X9X9X9X9X9X9X9X9X7X7X9X8XhXo 8X0X5X5X6X8X6X6X6X6X6X6X6X6X6X6X6X6X6X6X6X6X6X6X7XpXo HXAXDXDXDXDXDXDXDXDXDXDXDXDXDXDXDXDXDXDXDXDXDXDXDXDX  DXDXDXDXDXDXDXDXDXDXDXDXDXDXDXDXDXDXDXDXDXDXDXDXDXDX  DX",
"DXDXDX  DXDXDXDXDXDXDXDXDXDXDXDXDXDXDXDXDXDXDXDXDXDXDXDXAXAX  AXDXDXAXAXAXAXAXDXDXDXDXDXDXDXDXDXDXDXDXDXDXDXDXDXDX  DXDXDXDXDXDXDXDXAXAXAXAXAXDXDXDXDXDXDXDXDXDXAXAXAXCX. cXyX9X6X6X6X6X6X6X6X6X6X6X6X6X6XwX6X6X9X9X9X9X6X8XnXO yX7X7X7X9X9X9X9X7X7X7X7X9X9X9X9X9X9X9X9X9X9X9X9X8XfXo cXiXuX8X9X9X9X9X9X9X9X9X9X9X9X9X9X9XuX9X9X9X9X9XyXkXO uXqX8X8X9X8X8X8X8X8X9X9X8X8X8X8X8X8X8X8X8X8X8X8X8XyXO cX8X6X9X9X9X9X9X9X9X9X9X9X9X9X7X9X7X7X7X7X7X9X6XfXhXO qX6X9X9X7X9X7X7X9X9X9X9X9X9X9X9X9X9X9X9X8X7X6X6X7XuXO hXfX8XqXqXqXqXqXqX9X9X9X9X9X9X9X9X9X9X9X7X7X9X9X8XhXo 8X0X6X6X9X9X9X9X9X9X9X9X9X9X9X9X9X9X8X8X8X6X6X6X9XiXo CXHXDXDXDXDXDXDXDXDXDXDXDXDXDXDXDXDXDXDXDXDXDXDXDXDX  DXDXDXDXDXDXDXDXDXDXDXDXDXDXDXDXDXDXDXDXDXDXDXDXDXDX  DX",
"DXDXDX  DXDXDXDXDXDXDXDXDXDXDXDXDXDXDXDXDXDXDXDXDXDXDXDXAXAX  AXDXDXAXAXAXAXAXAXDXDXDXDXDXDXDXDXDXDXDXDXDXDXDXDXDX  DXDXDXDXDXAXDXDXAXAXAXAXAXAXDXDXDXDXDXDXDXDXDXAXAXCX. cXyX9X6X6X6X6X6X6X6X6X6X6X6X6X6X6X6X6X9X9X8X9X6X8XnXO yX9X9X9X9X9X9X9X9X9X9X9X9X9X9X9X9X9X8X8X8X8X9X9X9XfXo cXyX8X8X9X9X9X9X9X9X9X9X9X9X9X9X9X9X9X9X9X9X8X9XuXcXO yXqX9X8X9X8X8X8X9X9X9X9X8X8X8X8X9X9X8X9X9X9X9X9X9XyXO cX8X6X9X9X9X9X9X9X9X9X9X9X9X9X9X9X9X9X9X9X9X9X6XqXhXO 9X6X7X9X7X9X7X7X9X9X9X9X9X9X9X9X9X9X9X9X8X9X9X6X6X8XO hXgX9X9X9X9X9X9X9X9X9X9X9X9X9X9X9X9X9X9X9X7X7X9XuXsXo 8X0X6X6X6X9X9X9X9X9X9X9X9X9X9X9X9X9X9X9X9X6X6X0X0XiX. CXCXAXDXDXDXDXDXDXDXDXDXDXDXDXDXDXDXDXDXDXDXDXDXDXDX  DXDXDXDXDXDXDXDXDXDXDXDXDXDXDXDXDXDXDXDXDXDXDXDXDXDX  DX",
"DXDXDX  DXDXDXDXDXDXDXDXDXDXDXDXDXDXDXDXDXDXDXDXDXDXDXDXDXDX  DXDXDXDXDXDXDXDXDXDXDXDXDXDXDXDXDXDXDXDXDXDXDXDXDXDX  DXDXDXDXDXDXDXDXDXDXDXDXDXDXDXDXDXDXDXDXDXDXDXDXAXCX. cXyX9X6X6X6X6X6X6X6X6X6X6X6X6X6X6X6X6X9X9X9X9X6X8XnXO 8X6X6X6X9X9X9X9X9X9X9X9X7X7X9X9X9X9X9X9X9X9X9X9X6XgXo cXuX7X9X9X9X9X9X9X9X9X9X9X9X9X9X9X9X7X7X9X8X8X9XpXcXO uXqX6X9X9X9X9X9X9X9X9X9X9X9X7X7X9X9X9X9X9X9X9X9X9XyXO nX8X6X9X9X9X9X9X7X7X7X9X9X9X9X9X7X7X9X9X9X7X7X9XgXcXO 9X6X9X9X9X9X9X9X9X9X9X9X9X9X9X9X9X9X9X9X9X9X9X9X6X9XO hXuX9X9X9X9X9X9X9X9X9X9X9X9X9X9X9X9X9X9X9X9X9X9XuXcXo 8X5X6X6X6X6X6X6X6X6X6X6X6X6X6X6X6X6X6X6X6X6X6X6X6XyX. HXCXAXDXDXDXDXDXDXDXDXDXDXDXDXDXDXDXDXDXDXDXDXDXDXDX  DXDXDXDXDXDXDXDXDXDXDXDXDXDXDXDXDXDXDXDXDXDXDXDXDXDX  DX",
"DXDXDX  DXDXDXDXDXDXDXDXDXDXDXDXDXDXDXDXDXDXDXDXDXDXDXDXDXDX  DXDXDXDXDXDXDXDXDXDXDXDXDXDXDXDXDXDXDXDXDXDXDXDXDXDX  DXDXDXDXDXDXDXDXDXDXDXDXDXDXDXDXDXDXDXDXDXDXDXDXAXCX. cXyX7X9X6X6X6X6X6X6X6X6X6X6X6X6X6X6X6X9X9X9X9X6X8XmXO 8X6X6X6X9X9X9X9X9X9X9X9X7X7X9X9X9X9X9X9X9X9X9X6X6XqXo cXuX7X7X9X9X9X9X9X9X9X9X9X9X9X9X9X9X9X9X9X8X8X9XpXcXO yXqX6X6X6X6X6X6X6X6X7X7X7X7X6X6X6X6X6X6X6X6X6X6X6XyXO nX8X6X9X9X9X9X7X7X7X7X7X7X7X7X7X7X7X7X9X9X9X9X9XpXcXO 9X6X9X9X9X9X9X9X9X9X9X9X9X9X9X9X7X7X9X9X9X9X8X9X6X9Xo nXuX9X9X9X9X9X9X9X7X7X9X9X9X9X9X9X9X9X9X9X9X9X9XuXcXo 9X5X6X6X4X4X6X6X6X6X6X6X6X6X6X6X6X6X6X6X6X6X6X6X6XyXo HXCXAXDXDXDXDXDXDXDXDXDXDXDXDXDXDXDXDXDXDXDXDXDXDXDX  DXDXDXDXDXDXDXDXDXDXDXDXDXDXDXDXDXDXDXDXDXDXDXDXDXDX  DX",
"DXDXDX  DXDXDXDXDXDXDXDXDXDXDXDXDXDXDXDXDXDXDXDXDXDXDXDXDXDX  DXDXDXDXDXDXDXDXDXDXDXDXDXDXDXDXDXDXDXDXDXDXDXDXDXDX  DXDXDXDXDXDXDXDXDXDXDXDXDXDXDXDXDXDXDXDXDXDXDXDXAXCX. nXyX7X9X6X6X6X6X6X6X6X6X6X6X6X6X6X6X6X9X9X9X9X6X8XnXO 8X6X6X6X9X9X9X9X9X9X9X9X7X7X7X9X9X9X9X9X9X9X9X6X6X8Xo cXuX7X9X9X7X9X9X9X9X9X9X9X9X9X9X9X9X9X9X9X9X9X9XpXcXO yXqX6X6X6X6X6X6X6X6X6X6X7X7X6X6X6X6X6X6X6X6X6X6X6XuXO nX8X6X9X9X9X9X7X7X7X7X7X7X7X7X7X7X7X7X9X9X9X9X9XpXcXO 9X6X9X9X9X9X9X9X9X9X9X9X9X9X9X9X7X7X7X9X9X9X8X9X6X9Xo nXuX9X9X9X9X9X9X9X7X7X7X7X9X9X9X9X9X9X9X9X9X9X9XuXcXo 8X5X6X6X4X4X6X6X6X6X6X6X6X6X6X6X6X6X6X6X6X6X6X6X6XyXo HXHXDXDXDXDXDXDXDXDXDXDXDXDXDXDXDXDXDXDXDXDXDXDXDXDX  DXDXDXDXDXDXDXDXDXDXDXDXDXDXDXDXDXDXDXDXDXDXDXDXDXDX  DX",
"DXDXDX  DXDXDXDXDXDXDXDXDXDXDXDXDXDXDXDXDXDXDXDXDXDXDXDXDXDX  DXDXDXDXDXDXDXDXDXDXDXDXDXDXDXDXDXDXDXDXDXDXDXDXDXDX  DXDXDXDXDXDXDXDXDXDXDXDXDXDXDXDXDXDXDXDXDXDXDXDXAXCX. nXyX7X9X6X6X6X6X6X6X6X6X6X6X6X6X6X6X6X9X9X9X9X6X8XnXO 8X6X6X6X9X9X9X9X9X9X9X9X7X7X7X9X9X9X9X9X9X9X9X6X6X8Xo cXuX7X9X9X7X9X9X9X9X9X9X9X9X9X9X9X9X9X9X9X9X9X7XpXcXo yXqX6X6X6X6X6X6X6X6X6X6X6X7X6X6X6X6X6X6X6X6X6X6X6XuXO nX8X6X9X9X9X9X7X7X7X7X7X7X7X7X7X7X7X7X9X9X9X9X9XpXcXO 9X6X9X9X9X9X9X9X9X9X9X9X9X9X9X9X7X7X7X9X9X9X8X9X6X9Xo nXuX9X9X9X9X9X9X9X7X7X7X7X9X9X9X9X9X9X9X9X9X9X9XuXcXo 8X5X6X6X6X4X6X6X6X6X6X6X6X6X6X6X6X6X6X6X6X6X6X6X6XyXo AXAXDXDXDXDXDXDXDXDXDXDXDXDXDXDXDXDXDXDXDXDXDXDXDXDX  DXDXDXDXDXDXDXDXDXDXDXDXDXDXDXDXDXDXDXDXDXDXDXDXDXDX  DX",
"DXDXDX  DXDXDXDXDXDXDXDXDXDXDXDXDXDXDXDXDXDXDXDXDXDXDXDXDXDX  DXDXDXDXDXDXDXDXDXDXDXDXDXDXDXDXDXDXDXDXDXDXDXDXDXDX  DXDXDXDXDXDXDXDXDXDXDXDXDXDXDXDXDXDXDXDXDXDXDXDXAXCX. nXyX7X9X6X6X6X6X6X6X6X9X9X9X9X9X9X9X9X9X9X9X9X6X8XnXO 8X6X6X6X9X9X9X9X9X9X9X9X9X9X9X9X9X9X9X9X9X9X9X6X6X8Xo cX9X6X9X9X7X9X9X9X9X9X9X9X9X9X9X9X9X9X9X9X9X9X7XuXcXO yXqX6X6X6X6X6X6X6X6X6X6X6X6X6X6X6X6X6X6X6X6X9X9X9XuXO nX8X6X9X9X9X9X9X9X7X7X7X7X7X7X7X7X7X7X9X9X9X9X9XpXcXO 9X6X9X9X9X9X9X9X9X9X9X9X9X9X9X9X7X9X7X9X9X9X8X9X6X9Xo nXuX9X9X9X9X9X9X9X9X9X9X9X7X7X9X9X9X9X9X9X9X9X9XuXcXo 8X5X6X6X6X6X6X6X6X6X6X6X6X6X6X6X6X6X6X6X6X6X6X6X6XyXo AXAXDXDXDXDXDXDXDXDXDXDXDXDXDXDXDXDXDXDXDXDXDXDXDXDX  DXDXDXDXDXDXDXDXDXDXDXDXDXDXDXDXDXDXDXDXDXDXDXDXDXDX  DX",
"DXDXDX  DXDXDXDXDXDXDXDXDXDXDXDXDXDXDXDXDXDXDXDXDXDXDXDXDXDX  DXDXDXDXDXDXDXDXDXDXDXDXDXDXDXDXDXDXDXDXDXDXDXDXDXDX  DXDXDXDXDXDXDXDXDXDXDXDXDXDXDXDXDXDXDXDXDXDXDXDXAXCX. nXyX7X9X6X6X6X6X6X6X6X9X9X9X9X9X9X9X9X9X9X9X9X6X8XnXO 8X6X6X6X9X9X9X9X9X9X9X9X9X9X9X9X9X9X9X9X9X9X9X6X6X8Xo cX9X6X9X9X7X9X9X9X9X9X9X9X9X9X9X9X9X9X9X9X8X8X9XpXcXO yXqX6X6X6X6X6X6X6X6X6X6X6X6X6X6X6X6X6X6X6X6X9X9X9XuXO nX8X6X9X9X9X9X7X9X9X7X7X7X7X9X7X7X7X7X9X9X9X9X9XpXcXO 9X6X9X9X9X9X9X9X9X9X9X9X9X9X9X9X7X7X7X9X9X9X8X9X6X8Xo nXuX9X9X9X9X9X9X9X9X9X9X9X7X7X9X9X9X9X9X9X9X9X9XuXnXo 8X5X7X6X6X6X6X6X6X6X6X6X6X6X6X6X6X6X6X6X6X6X6X6X6XyXo AXAXDXDXDXDXDXDXDXDXDXDXDXDXDXDXDXDXDXDXDXDXDXDXDXDX  DXDXDXDXDXDXDXDXDXDXDXDXDXDXDXDXDXDXDXDXDXDXDXDXDXDX  DX",
"DXDXDX  DXDXDXDXDXDXDXDXDXDXDXDXDXDXDXDXDXDXDXDXDXDXDXDXDXDX  DXDXDXDXDXDXDXDXDXDXDXDXDXDXDXDXDXDXDXDXDXDXDXDXDXDX  DXDXDXDXDXDXDXDXDXDXDXDXDXDXDXDXDXDXDXDXDXDXDXDXAXCX. nXyX7X9X6X6X6X6X6X6X6X9X9X9X9X9X9X9X9X9X9X9X9X6X8XnXO 8X6X6X6X9X9X9X9X9X9X9X9X9X9X7X7X9X9X9X9X9X9X9X6X6X8Xo cX9X6X7X9X7X9X9X9X9X9X9X9X9X9X9X9X9X9X9X9X8X8X7XpXcXo yXqX6X6X6X6X6X6X6X6X6X6X6X6X6X6X6X6X6X6X6X6X9X9X9XuXO nX8X6X9X9X9X9X7X7X7X7X7X7X7X7X7X7X7X7X9X9X9X9X9XgXcXO 9X6X6X9X9X9X9X9X9X9X9X9X9X9X9X9X9X9X9X9X9X9X8X9X6X8Xo nXuX9X9X9X9X9X9X9X9X9X9X9X7X7X9X9X9X9X9X9X9X9X9XuXnXo 8X5X7X6X6X6X6X6X6X6X6X6X6X6X6X6X6X6X6X6X6X6X6X6X6XyXo AXAXDXDXDXDXDXDXDXDXDXDXDXDXDXDXDXDXDXDXDXDXDXDXDXDX  DXDXDXDXDXDXDXDXDXDXDXDXDXDXDXDXDXDXDXDXDXDXDXDXDXDX  DX",
"DXDXDX  DXDXDXDXDXDXDXDXDXDXDXDXDXDXDXDXDXDXDXDXDXDXDXDXDXDX  DXDXDXDXDXDXDXDXDXDXDXDXDXDXDXDXDXDXDXDXDXDXDXDXDXDX  DXDXDXDXDXDXDXDXDXDXDXDXDXDXDXDXDXDXDXDXDXDXDXDXAXCX. nXyX7X9X6X6X6X6X6X6X6X9X9X9X9X9X9X9X9X9X9X9X9X6X8XnXO 8X6X6X6X9X9X9X9X9X9X9X9X9X9X7X7X9X9X9X9X9X9X9X6X6X8Xo cX9X6X7X9X7X9X9X9X9X9X9X9X9X9X9X9X9X9X9X9X8X8X7XuXcXO yXqX6X6X6X6X6X6X6X6X6X6X6X6X6X6X6X6X6X6X6X6X9X9X9XuXO zX8X6X9X9X9X9X7X7X7X7X7X7X7X7X7X7X7X7X9X9X9X9X9XgXcXo 9X6X6X9X9X9X9X9X9X9X9X9X9X9X9X9X7X7X9X9X9X9X8X9X6X8Xo nXuX9X9X9X9X9X9X9X9X9X9X7X7X7X9X9X9X9X9X9X9X9X9XuXnXo 8X5X7X6X6X6X6X6X6X6X6X6X6X6X6X6X6X6X6X6X6X6X6X6X6XyXo AXDXDXDXDXDXDXDXDXDXDXDXDXDXDXDXDXDXDXDXDXDXDXDXDXDX  DXDXDXDXDXDXDXDXDXDXDXDXDXDXDXDXDXDXDXDXDXDXDXDXDXDX  DX",
"DXDXDX  DXDXDXDXDXDXDXDXDXDXDXDXDXDXDXDXDXDXDXDXDXDXDXDXAXDX  DXDXDXDXDXDXDXDXDXDXDXDXDXDXDXDXDXDXDXDXDXDXDXDXDXDX  DXDXDXDXDXDXDXDXDXDXDXDXDXDXDXDXDXDXDXDXDXDXDXDXAXCX. nXyX7X9X6X6X6X9X9X9X9X6X6X6X6X7X9X9X7X6X6X7X6X6X8XnXO 8X6X6X6X9X9X9X9X9X9X9X9X7X7X7X7X9X9X9X9X9X9X9X6X6X8Xo cXuX7X9X9X7X9X9X9X9X9X9X9X9X9X9X9X9X9X9X9X8X8X7XuXcXo uXqX6X6X6X6X6X6X6X6X6X6X6X6X7X7X9X9X9X9X9X9X9X9X9XuXO zX8X6X7X9X7X9X7X7X7X7X9X9X9X9X6X6X6X6X6X6X6X6X9XyXcXo 8X6X6X9X9X9X9X9X9X9X9X9X9X9X9X9X9X9X9X9X6X9X8X8X6X8Xo nXuX9X9X9X9X9X9X9X9X9X9X9X9X9X9X9X9X9X9X9X9X9X9XuXmXo uX6X9X9X6X6X6X9X9X9X9X9X9X9X9X9X9X9X9X9X9X9X6X6X6XyXo AXDXDXDXDXDXDXDXDXDXDXDXDXDXDXDXDXDXDXDXDXDXDXDXDXDX  DXDXDXDXDXDXDXDXDXDXDXDXDXDXDXDXDXDXDXDXDXDXDXDXDXDX  DX",
"DXDXDX  DXDXDXDXDXDXDXDXDXDXDXDXDXDXDXDXDXDXDXDXDXDXDXDXAXDX  DXDXDXDXDXDXDXDXDXDXDXDXDXDXDXDXDXDXDXDXDXDXDXDXDXDX  DXDXDXDXDXDXDXDXDXDXDXDXDXDXDXDXDXDXDXDXDXDXDXDXAXCX. nXyX7X9X6X6X6X9X9X9X9X6X6X6X6X7X7X9X9X6X6X7X6X6X8XnXO 8X6X6X6X9X9X9X9X9X9X9X9X7X9X7X7X9X9X9X9X9X9X9X6X6X8Xo cXuX7X7X9X7X9X9X9X9X9X9X9X9X9X9X9X9X9X9X9X8X8X7XuXcXO uXqX6X6X6X6X6X6X6X6X6X6X6X6X7X7X9X9X9X9X9X9X9X9X9XuXO zX8X6X7X9X7X9X9X9X7X7X9X9X9X9X6X6X6X6X6X6X6X6X9XyXcXo 8X6X6X9X9X9X9X9X9X9X9X9X9X9X9X9X9X9X9X9X6X9X8X8X6X8Xo nXuX9X9X9X9X9X9X9X9X9X9X9X9X9X9X9X9X9X9X9X9X9X9XuXmXo uX6X9X9X6X6X6X9X9X9X9X9X9X9X9X9X9X9X9X9X9X9X6X6X6XyXo DXDXDXDXDXDXDXDXDXDXDXDXDXDXDXDXDXDXDXDXDXDXDXDXDXDX  DXDXDXDXDXDXDXDXDXDXDXDXDXDXDXDXDXDXDXDXDXDXDXDXDXDX  DX",
"DXDXDX  DXDXDXDXDXDXDXDXDXDXDXDXDXDXDXDXDXDXDXDXDXDXDXDXAXDX  DXDXDXDXDXDXDXDXDXDXDXDXDXDXDXDXDXDXDXDXDXDXDXDXDXDX  DXDXDXDXDXDXDXDXDXDXDXDXDXDXDXDXDXDXDXDXDXDXDXDXAXCX. nXyX7X9X6X6X6X9X9X9X9X6X6X6X6X7X7X7X7X6X6X9X6X6X8XnXO 8X6X6X6X9X9X9X9X9X9X9X9X9X9X9X9X9X9X9X9X9X9X9X6X6X8Xo cXuX7X7X9X7X9X9X9X9X9X9X9X9X9X9X9X9X9X9X9X8X8X7XuXcXO yXqX6X6X6X6X6X6X6X6X6X6X6X6X7X7X9X9X9X9X9X9X9X9X9XuXO zX8X6X7X9X9X9X9X9X7X7X9X9X9X9X6X6X6X6X6X6X6X6X9XyXcXo 8X6X6X9X9X9X9X9X9X9X9X9X9X9X9X9X9X9X9X9X6X9X8X8X6XuXo nXuX9X9X9X9X9X9X9X9X9X9X9X9X9X9X9X9X9X9X9X9X9X9XuXmXo uX6X9X9X6X6X6X9X9X9X9X9X9X9X9X9X9X9X9X9X9X9X6X6X6XyX. DXDXHXDXDXDXDXDXDXDXDXDXDXDXDXDXDXDXDXDXDXDXDXDXDXDX  DXDXDXDXDXDXDXDXDXDXDXDXDXDXDXDXDXDXDXDXDXDXDXDXDXDX  DX",
"DXDXDX  DXDXDXDXDXDXDXDXDXDXDXDXDXDXDXDXDXDXDXDXDXDXDXDXAXDX  DXDXDXDXDXDXDXDXDXDXDXDXDXDXDXDXDXDXDXDXDXDXDXDXDXDX  DXDXDXDXDXDXDXDXDXDXDXDXDXDXDXDXDXDXDXDXDXDXDXDXAXCX. nXyX7X9X6X6X6X9X9X9X9X6X6X6X7X7X7X7X7X6X6X9X6X6X8XnXO 8X6X6X6X9X9X9X9X9X9X9X9X9X9X9X9X9X9X9X9X9X9X9X6X6X8Xo cXuX7X9X9X7X9X9X9X9X9X9X9X9X9X9X9X9X9X9X9X8X8X7XuXcXo yXqX6X6X6X6X6X6X6X6X6X6X6X6X7X7X9X9X9X9X9X9X9X9X9XuXO zX8X6X9X9X7X9X7X7X7X7X9X9X9X9X6X6X6X6X6X6X6X6X9XyXcXo 9X6X6X9X9X9X9X9X9X9X9X9X9X9X9X9X9X9X9X9X6X9X8X8X6XuXo mXpX9X9X9X9X9X9X9X9X9X9X9X9X9X9X9X9X9X9X9X9X9X9XuXmXo uX6X9X9X6X6X6X9X9X9X9X9X9X9X9X9X9X9X9X9X9X9X6X6X6XyX. DXDXHXDXDXDXDXDXDXDXDXDXDXDXDXDXDXDXDXDXDXDXDXDXDXDX  DXDXDXDXDXDXDXDXDXDXDXDXDXDXDXDXDXDXDXDXDXDXDXDXDXDX  DX",
"DXDXDX  DXDXDXDXDXDXDXDXDXDXDXDXDXDXDXDXDXDXDXDXDXDXDXDXAXDX  DXDXDXDXDXDXDXDXDXDXDXDXDXDXDXDXDXDXDXDXDXDXDXDXDXDX  DXDXDXDXDXDXDXDXDXDXDXDXDXDXDXDXDXDXDXDXDXDXDXDXAXCX. nX8X7X9X6X6X6X9X9X9X9X7X7X7X7X7X7X7X7X6X6X7X6X6X8XnXO 8X6X6X6X9X9X9X9X9X9X9X9X7X7X9X9X9X9X9X9X9X9X9X6X6X9Xo cX8X6X7X9X7X9X9X9X9X9X9X9X9X9X9X9X9X9X9X9X8X9X7XuXcXo yXqX6X6X6X6X6X6X6X6X6X6X6X6X9X9X9X9X9X9X9X9X7X7X9XuXO zX8X6X7X9X9X9X7X7X7X7X9X9X9X9X6X6X6X6X6X6X6X6X9XpXcXo 8X6X6X9X9X9X9X9X9X9X9X9X9X9X9X9X9X9X9X9X6X9X8X8X6XuXo mXpX9X9X9X9X9X9X9X9X9X9X9X9X9X9X9X9X9X9X9X7X7X9XuXvXo pX6X9X9X6X6X6X7X7X9X9X9X9X9X9X9X9X9X9X9X9X9X6X6X6XyX. DXDXHXDXDXDXDXDXDXDXDXDXDXDXDXDXDXDXDXDXDXDXDXDXDXDX  DXDXDXDXDXDXDXDXDXDXDXDXDXDXDXDXDXDXDXDXDXDXDXDXDXDX  DX",
"DXDXDX  DXDXDXDXDXDXDXDXDXDXDXDXDXDXDXDXDXDXDXDXDXDXDXDXAXDX  DXDXDXDXDXDXDXDXDXDXDXDXDXDXDXDXDXDXDXDXDXDXDXDXDXDX  DXDXDXDXDXDXDXDXDXDXDXDXDXDXDXDXDXDXDXDXDXDXDXDXAXCX. nX8X7X9X6X6X6X9X9X9X9X7X7X7X7X7X7X7X7X6X6X7X6X6X8XnXO 8X6X6X6X9X9X9X9X9X9X9X9X7X7X9X9X9X9X9X9X9X9X9X6X6X9Xo cX8X6X7X9X7X9X9X9X9X9X9X9X9X9X9X9X9X9X9X9X9X9X7XuXcXo yXqX6X6X6X6X6X6X6X6X6X6X6X6X9X9X9X9X9X9X9X9X7X7X9XuXO zX8X6X7X9X9X9X7X7X7X7X9X9X9X9X6X6X6X6X6X6X6X6X9XpXcXo 8X6X6X9X9X9X9X9X9X9X9X9X9X9X9X9X9X9X9X9X6X9X8X8X6XuXo mXpX9X9X9X9X9X9X9X9X9X9X9X9X9X9X9X9X9X9X9X7X7X9XuXmXo pX7X9X9X6X6X9X7X9X9X9X9X9X9X9X9X9X9X9X9X9X9X6X6X6XyX. DXDXHXDXDXDXDXDXDXDXDXDXDXDXDXDXDXDXDXDXDXDXDXDXDXDX  DXDXDXDXDXDXDXDXDXDXDXDXDXDXDXDXDXDXDXDXDXDXDXDXDXDX  DX",
"DXDXDX  DXDXDXDXDXDXDXDXDXDXDXDXDXDXDXDXDXDXDXDXDXDXDXDXAXDX  DXDXDXDXDXDXDXDXDXDXDXDXDXDXDXDXDXDXDXDXDXDXDXDXDXDX  DXDXDXDXDXDXDXDXDXDXDXDXDXDXDXDXDXDXDXDXDXDXDXDXAXCX. nXyX7X9X6X6X6X9X9X9X9X7X7X7X7X7X7X7X7X6X6X7X6X6X8XnXO 8X6X6X6X9X9X9X9X9X9X9X9X7X7X7X9X9X9X9X9X9X9X9X6X6XqXo nX9X6X9X9X9X9X9X9X9X9X9X9X9X9X9X9X9X9X9X9X9X9X7XuXcXo yX9X6X6X6X6X6X6X6X6X6X6X6X6X9X9X9X9X9X9X9X9X7X7X7XuXO zX8X6X7X9X7X9X7X7X7X7X9X9X9X9X6X6X6X6X6X6X6X6X9XpXcXo 8X6X6X9X9X9X9X9X9X9X9X9X9X9X9X9X9X9X9X9X6X9X8X8X7XuXO mXpX9X9X9X9X9X9X9X9X9X9X9X9X9X9X9X9X9X9X9X7X7X7XuXmXo yX7XuX9X6X6X9X7X7X9X9X9X9X9X9X9X9X9X9X9X9X9X6X6X6XyX. DXDXAXDXDXDXDXDXDXDXDXDXDXDXDXDXDXDXDXDXDXDXDXDXDXDX  DXDXDXDXDXDXDXDXDXDXDXDXDXDXDXDXDXDXDXDXDXDXDXDXDXDX  DX",
"DXDXDX  DXDXDXDXDXDXDXDXDXDXDXDXDXDXDXDXDXDXDXDXDXDXDXDXAXDX  DXDXDXDXDXDXDXDXDXDXDXDXDXDXDXDXDXDXDXDXDXDXDXDXDXDX  DXDXDXDXDXDXDXDXDXDXDXDXDXDXDXDXDXDXDXDXDXDXDXAXAXCX. zXyX9X9X7X7X9X9X9X9X9X6X7X7X7X7X7X7X6X6X6X7X6X6X9XnXO 8X6X6X6X9X9X9X9X9X9X9X9X9X7X7X9X9X9X9X9X9X9X9X6X6XuXo nXuX9X9X8X9X9X9X9X9X9X9X9X9X9X9X9X9X9X9X9X8X9X9XuXkXO uX9X6X6X6X6X6X9X9X9X9X9X9X9X9X9X9X9X9X9X9X9X7X7X7XuXO zX8X6X9X9X7X9X9X9X7X7X9X9X9X9X6X6X6X6X6X6X6X6X9XpXcXo 8X6X7X7X9X9X7X7X7X9X9X9X9X9X9X9X9X9X9X9X6X9X8X8X7XuXO mXpX9X9X9X9X9X9X9X9X9X9X9X9X9X9X9X9X9X9X9X7X7X7XuXmXO pX7X9X9X6X6X6X7X7X9X9X9X9X9X9X7X7X9X9X9X9X9X6X6X6XyX. DXDXHXDXDXDXDXDXDXDXDXDXDXDXDXDXDXDXDXDXDXDXDXDXDXDX  DXDXDXDXDXDXDXDXDXDXDXDXDXDXDXDXDXDXDXDXDXDXDXDXDXDX  DX",
"DXDXDX  DXDXDXDXDXDXDXDXDXDXDXDXDXDXDXDXDXDXDXDXDXDXDXDXAXDX  DXDXDXDXDXDXDXDXDXDXDXDXDXDXDXDXDXDXDXDXDXDXDXDXDXDX  DXDXAXAXAXAXAXDXDXDXDXDXDXDXDXDXDXDXDXDXDXAXAXAXAXCXo zXyXuX7X7X7X7X7X7X7X7X6X6X6X6X6X6X6X6X6X6X6X6X6X7XnXO uX7X7X7X7X9X9X9X6X6X6X6X6X7X7X6X6X6X6X6X6X6X6X6X9XuXO zXyX8X8X8X9X9X9X9X9X9X9X9X9X9X9X9X9X9X9X9X8XuX9XuXkXO uX9X9X9X9X9X9X9X9X9X9X9X9X9X9X9X9X9X9X9X9X9X9X9X9XuXO zXyX7X9X9X9X9X9X9X9X9X9X9X9X9X6X6X6X6X6X6X6X6X9XpXcXo 8X6X7X9X9X9X9X9X9X9X9X9X9X9X9X9X9X9X9X9X6X6X9X8X6XuXo mXpX9X9X9X9X9X9X9X7X9X9X9X9X9X7X7X9X9X9X9X7X7X7XuXnXO pX5X6X6X6X6X6X7X7X7X7X7X7X9X9X7X7X9X7X7X7X7X6X6X6XfXo DXDXHXDXDXDXDXDXDXDXDXDXDXDXDXDXDXDXDXDXDXDXDXDXDXDX  DXDXDXDXDXDXDXDXDXDXDXDXDXDXDXDXDXDXDXDXDXDXDXDXDXDX  DX",
"DXDXDX  DXDXDXDXDXDXDXDXDXDXDXDXDXDXDXDXDXDXDXDXDXDXDXDXAXDX  DXDXDXDXDXDXDXDXDXDXDXDXDXDXDXDXDXDXDXDXDXDXDXDXDXDX  DXDXAXAXAXAXAXDXDXDXDXDXDXDXDXDXDXDXDXDXDXDXDXDXDXAXo xXyX9X7X7X7X7X6X6X6X6X6X6X6X6X6X6X6X6X6X6X6X6X5X7XnXO uX7X7X7X9X9X9X9X9X9X9X9X9X9X9X6X6X6X6X6X6X6X6X6X9XpXO zXuX9X8X8X9X9X9X9X9X9X9X9X9X8X9X9X9X9X9X9X9XuX9XuXzXO uX9X9X9X9X9X9X9X9X9X9X9X9X9X9X9X9X9X9X9X9X9X9X9X9XuXO zXyX7X9X9X7X9X9X9X9X9X9X9X9X9X6X6X6X6X6X6X6X9X9XpXkXo uX7X7X9X9X9X9X9X9X9X9X9X9X9X9X9X9X9X9X6X6X6X9XwX6X8Xo mXpX9X9X9X9X9X9X9X7X7X9X9X9X9X7X7X9X9X9X9X7X7X7XuXnXO uX5X6X6X6X6X6X7X7X7X7X7X9X9X7X7X7X7X7X7X7X7X9X6X6XyX. DXDXHXDXDXDXDXDXDXDXDXDXDXDXDXDXDXDXDXDXDXDXDXDXDXDX  DXDXDXDXDXDXDXDXDXDXDXDXDXDXDXDXDXDXDXDXDXDXDXDXDXDX  DX",
"DXDXDX  DXDXDXDXDXDXDXDXDXDXDXDXDXDXDXDXDXDXDXDXDXDXDXDXAXDX  DXDXDXDXDXDXDXDXDXDXDXDXDXDXDXDXDXDXDXDXDXDXDXDXAXAX  DXAXDXAXDXAXDXDXDXDXDXDXDXDXDXDXDXDXDXDXDXDXDXDXAXDX. xXpX9X6X6X6X6X6X6X6X6X6X6X6X6X6X6X6X6X6X6X9X6X6X8XnXO yX9X9X9X9X9X9X9X9X9X9X9X9X9X9X9X9X9X9X9X9X9X9X7XuXpXO zX9X6X7X7X7X7X7X7X7X7X9X9X9X9X9X9X9X9X9X9X9X9X9XuXzXO uX9X6X6X6X7X7X7X7X7X7X7X7X7X7X7X7X9X7X7X7X6X6X6X6XuXO zX8X6X9X9X7X9X9X6X6X6X6X6X6X6X6X6X6X6X6X6X6X6X9XpXkXO 9X6X7X7X9X7X7X7X7X7X7X7X7X7X7X7X6X6X6X6X6X4XwXwX4X8Xo nXpX9X9X9X9X9X9X9X7X7X7X7X9X9X9X7X9X9X9X9X7X7X7XuXnXO uX5X6X6X6X6X9X9X7X7X7X7X7X7X7X7X7X7X7X7X7X7X9X8X9XhX. DXDXAXDXDXDXDXDXDXDXDXDXDXDXDXDXDXDXDXDXDXDXDXDXDXDX  DXDXDXDXDXDXDXDXDXDXDXDXDXDXDXDXDXDXDXDXDXDXDXDXDXDX  DX",
"DXDXDX  DXDXDXDXDXDXDXDXDXDXDXDXDXDXDXDXDXDXDXDXDXDXDXDXAXDX  DXDXDXDXDXDXDXDXDXDXDXDXDXDXDXDXDXDXDXDXDXDXDXDXAXAX  DXAXDXDXDXDXDXDXDXDXDXDXDXDXDXDXDXDXDXDXDXDXAXAXAXDX. xXyX9X6X6X6X6X6X6X6X6X6X6X6X6X6X6X6X6X7X9X9X9X6X8XcXO yX7X7X9X9X9X9X9X9X9X9X9X9X9X9X9X9X9X9X9X9X9X9X7XuXpXO xX9X6X6X7X7X7X7X7X7X7X9X9X7X9X9X9X9X9X9X9X9X9X9XuXkXO uX9X6X6X6X6X7X7X7X7X7X7X7X7X7X7X7X7X7X7X6X6X6X6X6XuXO zX8X6X7X9X9X9X6X6X6X6X6X6X6X6X6X6X6X6X6X6X6X6X7XpXcXO 9X6X7X7X9X7X7X7X7X7X7X7X7X7X6X6X6X6X6X6X4X4XwXwX5X8Xo nXuX9X9X9X9X9X9X9X7X7X7X7X9X9X9X7X7X7X9X9X9X7X7XuXnXO uX6X7X6X7X9X9X9X7X7X7X7X7X7X7X7X7X7X7X7X7X7X9X8X8XiX. DXDXAXDXDXDXDXDXDXDXDXDXDXDXDXDXDXDXDXDXDXDXDXDXDXDX  DXDXDXDXDXDXDXDXDXDXDXDXDXDXDXDXDXDXDXDXDXDXDXDXDXDX  DX",
"HXDXAX  DXDXDXDXDXDXDXDXDXDXDXDXDXDXDXDXDXDXDXDXDXDXDXDXDXAXX DXDXDXDXDXDXDXDXDXDXDXDXDXDXDXDXDXDXDXDXDXDXDXDXDXDX+ AXHXAXAXDXDXDXDXDXDXDXDXDXDXDXDXDXDXDXDXDXDXDXDXDXDX+ vXyX9X6X5X5X5X5X6X6X6X6X6X7X7X7X7X7X7X7X7X8X8X7XjXkXo pX7X7X7X7X7X7X7X6X6X6X6X6X6X6X6X6X6X6X6X6X6X6X6XuXjXO lXyX9X6X6X9X9X9X9X9X9X9X9X9X9X9X9X9X9X9X9X9X9X9XpXcXo 8X5X9X9X9X9X9X9X9X9X9X9X9X9X9X9X9X9X9X9X9X9X9X9X7XuXo tXuX0X9XqXqX9XqX9X9X9X9X9X9X9X6X6X6X6X6X6X6X9X7XyXkX. uX9X9X9X9X9X9X9X9X9X9X9X9X9X9X9X9X9X9X6X6X6X9X9X9X7Xo tXpX9X9X9X9X9X9X9X9X9X9X9X9X9X9X9X9X9X9X9X9X9X9XuXtXO gXgX7X7X9X9X9X9X9X9X9X9X9X9X9X9X9X9X9X9X9X9X6X6X9XiX. DXDXDXDXDXDXDXDXDXDXDXDXDXDXDXDXDXDXDXDXDXDXDXDXDXDX  DXDXDXDXDXDXDXDXDXDXDXDXDXDXDXDXDXDXDXDXDXDXDXDXDXDXX DX",
"DXDXDX  DXDXDXDXDXDXDXDXDXDXDXDXDXDXDXDXDXDXDXDXDXDXDXDXHXDX  DXDXDXDXDXDXDXDXDXDXDXDXDXDXDXDXDXDXDXDXDXDXDXDXDXAX  DXCXVXVXVXCXCXCXCXCXCXCXCXCXCXCXCXCXCXCXCXCXCXCXCXCXo vXyXuX9X7X7X7X7X7X9X9X9XuXuXuXuXuXuXuXaXuXuXuXuXpXxX- xXxXxXxXxXxXxXxXxXxXmXmXxXxXxXxXxXmXmXmXxXxXmXmXBXBXo xXpXuX7X7X9X9X9X9X9X9X9X9X9X9X9X9X9X9X9X9XuXuXuXpXxXO 8X7X9X9X9X9X9X9X9X9X9X9X9X9XuXuX9X9X9X9X9X9X9X9X9XuX- kXuX7XuXuX9X9X9X9X9X9X9X9X9X9X7X7X7X7X7X7X7X9X9XiXkXO pX9X9XuXuXuXuXuXuXuX9X9X9X9X9X9X9X9X9X7X7X7XuXuX7XuXo vXrXiXiXiXiXiXiXiXiXiXiXiXiXiXiXiXiXiXiXiXiXiXiXrXvXo nXiXiXiXiXrXiXiXiXiXiXiXiXiXiXiXiXiXiXiXiXiXeXeXhXkX. DXDXDXDXDXDXDXDXDXDXDXDXDXDXDXDXDXDXDXDXDXDXDXDXDXDX  DXDXDXDXDXDXDXDXDXDXDXDXDXDXDXDXDXDXDXDXDXDXDXDXDXDX  AX",
"                                                                                                                    O , , ; ; ; ; ; ; ; ; ; ; ; ; ; ; ; ; ; ; ; ; ; ; - O - , , , , , , < < < < < < < < < < < < < < < < < , - o % 3 3 3 3 2 2 2 2 2 2 2 2 2 2 2 2 2 2 2 2 2 2 2 2 4 . - < 0 < < < < < < < < < < < < < , , , , , , , , , - - ; , < < < < < < < < < < < < < < < < < < < < < < < , - - ; , , , , , , < , , , , , < , , < , , < , , , - - - ; , , , < < < < < < < < < < < < < < < < < < < < , ; o . . . . . . . . . . . . . . . . . . . . . . . .       . . . . . . . . . . . . . . . . . . . . . .     . .       X                                             X                                                           ",
"DXDXDX  DXDXDXDXDXDXDXDXDXDXDXDXDXDXDXDXDXDXDXDXDXDXDXDXHXDX  DXDXDXDXDXDXDXDXDXDXDXDXDXDXDXDXDXDXDXDXDXDXDXDXDXHXo M.r.8.q.q.9.9.9.9.9.9.9.9.9.9.9.9.9.9.9.q.q.9.9.t.e., u.e.8.0.0.0.0.0.0.0.0.0.8.0.0.0.0.0.0.0.0.0.0.8.e.m.+ U K.U.U.U.U.U.K.K.L.L.K.K.K.K.K.K.K.K.K.K.K.K.K.T.I + m.t.k.8.0.8.k.v.c.c.c.c.c.c.c.c.c.c.c.c.r.r.r.r.y.m.< y.0.k.k.k.k.k.k.k.k.k.k.k.c.c.c.c.c.c.k.k.k.k.k.k.y.< m.e.0.r.r.r.r.k.k.0.0.0.0.0.k.k.k.k.k.k.k.k.0.b.e.m., y.0.r.r.c.c.c.c.c.c.c.c.c.k.k.k.k.k.k.k.k.c.c.c.b.u.o CXDXDXDXDXDXDXDXDXAXAXAXAXAXAXAXAXAXAXAXAXAXAXAXDXAXX AXAXAXDXDXDXDXAXAXAXAXAXAXAXAXAXAXAXAXAXAXAXAXAXDXDX  DXAXDXDXDXDXDXDXDXDXDXDXDXDXDXDXDXDXDXDXDXDXDXDXDXDX  DXDXDXDXDXDXDXDXDXDXDXDXDXDXDXDXDXDXDXDXDXDXDXDXDXDXX DX",
"DXDXDX  DXDXDXDXDXDXDXDXDXDXDXDXDXDXDXDXDXDXDXDXDXDXDXDXAXDX  DXDXDXDXDXDXDXDXDXDXDXDXDXDXDXDXDXDXDXDXDXDXDXDXDXDX- l.[ { ( / / / ( ( ( ( ( ( ( ( ( ( ( ( ( ( ( ( { / a.q e.W { ( ( ( ( ( ( ( ( ( ( ( ( ( ( ( ( { { ( ( / s.t.: Q.#X#X#X#X#X#X#X+X+X+X+X+X+X#X#X#X#X#X#X#X#X#X#X%X X+ e.s.{ { { ( ( ( ( ( ( ( ( ( ( ( ( ( ( ( ( ( ( ( a.e.q a./ / ( ( ( ( ( / ( ( ( ( ( ( ( ( ( ( ( ( ( ( ( ( d.q y.a.^ ( ( ( ( ( ( ( ( ( ( / / ( ( { { ( ( ( ( ( d.9.w a.( ( { { { { { { ( ( ( ( ( ( ( ( ( ( ( ( ( ( ( g.n.O DXDXDXDXDXDXDXDXDXDXDXDXDXDXDXDXDXDXDXDXDXDXDXDXDXDX  DXDXDXDXDXDXDXDXDXDXDXDXDXDXDXDXDXDXDXDXDXDXDXDXDXDX  DXDXDXDXDXDXDXDXDXDXDXDXDXDXDXDXDXDXDXDXDXDXDXDXDXDX  DXDXDXDXDXDXDXDXDXDXDXDXDXDXDXDXDXDXDXDXDXDXDXDXDXDX  DX",
"DXDXDX  DXDXDXDXDXDXDXDXDXDXDXDXDXDXDXDXDXDXDXDXDXDXDXDXAXDX  DXDXDXDXDXDXDXDXDXDXDXDXDXDXDXDXDXDXDXDXDXDXDXDXDXDX; a._ _ _ _ _ _ _ _ _ _ _ _ _ _ _ _ _ _ _ _ _ _ _ _ / q t.^ _ _ _ _ _ _ _ _ _ _ _ _ _ _ _ _ _ _ ! ! _ _ ( k.> [.-X-X-X-X-X-X-X-X-X-X=X-X-X-X-X-X-X-X-X-X-X*X*X3X~.: 0.{ _ _ _ _ _ _ _ _ _ _ _ _ _ _ _ _ _ _ _ _ _ _ ( 8.w / _ _ _ _ _ _ _ _ _ _ _ _ _ _ _ _ _ _ _ _ _ _ _ _ ( w 0./ ! _ _ _ _ _ _ _ _ _ _ _ _ _ _ _ _ _ _ _ _ _ ) q.e ( _ _ _ _ _ _ _ _ _ _ _ _ _ _ _ _ _ _ _ _ _ _ _ ` d.- AXDXDXDXDXDXDXDXDXDXDXDXDXDXDXDXDXDXDXDXDXDXDXDXDXDX  DXDXDXDXDXDXDXDXDXDXDXDXDXDXDXDXDXDXDXDXDXDXDXDXDXDX  DXDXDXDXDXDXDXDXDXDXDXDXDXDXDXDXDXDXDXDXDXDXDXDXDXDX  DXDXDXDXDXDXDXDXDXDXDXDXDXDXDXDXDXDXDXDXDXDXDXDXDXDX  DX",
"DXDXDX  DXDXDXDXDXDXDXDXDXDXDXDXDXDXDXDXDXDXDXDXDXDXDXDXAXDX  DXDXDXDXDXDXDXDXDXDXDXDXDXDXDXDXDXDXDXDXDXDXDXDXDXDX; a._ _ _ _ _ _ _ _ _ _ _ _ _ _ _ _ _ _ _ _ _ _ _ _ / q 0.^ _ _ _ _ _ _ _ _ _ _ _ _ _ _ _ _ _ _ ! ! _ _ ( k.> [.-X-X-X-X-X-X-X-X-X-X-X-X-X-X-X-X-X-X-X-X-X-X-X3X~.: 0.{ _ _ _ _ _ _ _ _ _ _ _ _ _ _ _ _ _ _ _ _ _ _ ( 8.w / _ _ _ _ _ _ _ _ _ _ _ _ _ _ _ _ _ _ _ _ _ _ _ _ ( w 0./ ! _ _ _ _ _ _ _ _ _ _ _ _ _ _ _ _ _ _ _ _ _ ) q.e ( _ _ _ _ _ _ _ _ _ _ _ _ _ _ _ _ _ _ _ _ _ _ _ ` d.- AXDXDXDXDXDXDXDXDXDXDXDXDXDXDXDXDXDXDXDXDXDXDXDXDXDX  DXDXDXDXDXDXDXDXDXDXDXDXDXDXDXDXDXDXDXDXDXDXDXDXDXDX  DXDXDXDXDXDXDXDXDXDXDXDXDXDXDXDXDXDXDXDXDXDXDXDXDXDX  DXDXDXDXDXDXDXDXDXDXDXDXDXDXDXDXDXDXDXDXDXDXDXDXDXDX  DX",
"DXDXDX  DXDXDXDXDXDXDXDXDXDXDXDXDXDXDXDXDXDXDXDXDXDXDXDXAXDX  DXDXDXDXDXDXDXDXDXDXDXDXDXDXDXDXDXDXDXDXDXDXDXDXDXDX; a._ _ _ _ _ _ _ _ _ _ _ _ _ _ _ _ _ _ _ _ _ _ _ _ / q 0.^ _ _ _ _ _ _ _ _ _ _ _ _ _ _ _ _ _ _ ! ! _ _ ( k.> [.-X-X-X-X-X-X-X-X-X-X-X-X-X-X-X-X-X-X-X-X-X-X-X2X~.: 0.{ _ _ _ _ _ _ _ _ _ _ _ _ _ _ _ _ _ _ _ _ _ _ ( 8.w / _ _ _ _ _ _ _ _ _ _ _ _ _ _ _ _ _ _ _ _ _ _ _ _ ( w 0./ ! _ _ _ _ _ _ _ _ _ _ _ _ _ _ _ _ _ _ _ _ _ ) q.e ( _ _ _ _ _ _ _ _ _ _ _ _ _ _ _ _ _ _ _ _ _ _ _ ` d.- AXDXDXDXDXDXDXDXDXDXDXDXDXDXDXDXDXDXDXDXDXDXDXDXDXDX  DXDXDXDXDXDXDXDXDXDXDXDXDXDXDXDXDXDXDXDXDXDXDXDXDXDX  DXDXDXDXDXDXDXDXDXDXDXDXDXDXDXDXDXDXDXDXDXDXDXDXDXDX  DXDXDXDXDXDXDXDXDXDXDXDXDXDXDXDXDXDXDXDXDXDXDXDXDXDX  DX",
"DXDXDX  DXDXDXDXDXDXDXDXDXDXDXDXDXDXDXDXDXDXDXDXDXDXDXDXAXDX  DXDXDXDXDXDXDXDXDXDXDXDXDXDXDXDXDXDXDXDXDXDXDXDXDXDX; a._ _ _ _ _ _ _ _ _ _ _ _ _ _ _ _ _ _ _ _ _ _ _ _ / q 0.^ _ _ _ _ _ _ _ _ _ _ _ _ _ _ _ _ _ _ _ _ _ _ ( 0.> [.-X-X-X-X-X-X-X-X-X-X-X-X-X-X-X-X-X-X-X-X-X-X-X2X~.: 0.{ _ _ _ _ _ _ _ _ _ _ _ _ _ _ _ _ _ _ _ _ _ _ ( 8.w / _ _ _ _ _ _ _ _ _ _ _ _ _ _ _ _ _ _ _ _ _ _ _ _ ( w 0./ ! _ _ _ _ _ _ _ _ _ _ _ _ _ _ _ _ _ _ _ _ _ ) q.e ( _ _ _ _ _ _ _ _ _ _ _ _ _ _ _ _ _ _ _ _ _ _ _ ` d.- AXDXDXDXDXDXDXDXDXDXDXDXDXDXDXDXDXDXDXDXDXDXDXDXDXDX  DXDXDXDXDXDXDXDXDXDXDXDXDXDXDXDXDXDXDXDXDXDXDXDXDXDX  DXDXDXDXDXDXDXDXDXDXDXDXDXDXDXDXDXDXDXDXDXDXDXDXDXDX  DXDXDXDXDXDXDXDXDXDXDXDXDXDXDXDXDXDXDXDXDXDXDXDXDXDX  DX",
"DXDXDX  DXDXDXDXDXDXDXDXDXDXDXDXDXDXDXDXDXDXDXDXDXDXDXDXAXDX  DXDXDXDXDXDXDXDXDXDXDXDXDXDXDXDXDXDXDXDXDXDXDXDXDXDX; a._ _ _ _ _ _ _ _ _ _ _ _ _ _ _ _ _ _ _ _ _ _ _ _ / q 0.^ _ _ _ _ _ _ _ _ _ _ _ _ _ _ _ _ _ _ _ _ _ _ ( k.> [.-X-X-X-X-X-X-X-X-X-X-X-X-X-X-X-X-X-X-X-X-X-X-X2X~.: 0.{ _ _ _ _ _ _ _ _ _ _ _ _ _ _ _ _ _ _ _ _ _ _ ( 8.w / _ _ _ _ _ _ _ _ _ _ _ _ _ _ _ _ _ _ _ _ _ _ _ _ ( w 0./ ! _ _ _ _ _ _ _ _ _ _ _ _ _ _ _ _ _ _ _ _ _ ) q.e ( _ _ _ _ _ _ _ _ _ _ _ _ _ _ _ _ _ _ _ _ _ _ _ ` d.- AXDXDXDXDXDXDXDXDXDXDXDXDXDXDXDXDXDXDXDXDXDXDXDXDXDX  DXDXDXDXDXDXDXDXDXDXDXDXDXDXDXDXDXDXDXDXDXDXDXDXDXDX  DXDXDXDXDXDXDXDXDXDXDXDXDXDXDXDXDXDXDXDXDXDXDXDXDXDX  DXDXDXDXDXDXDXDXDXDXDXDXDXDXDXDXDXDXDXDXDXDXDXDXDXDX  DX",
"DXDXDX  DXDXDXDXDXDXDXDXDXDXDXDXDXDXDXDXDXDXDXDXDXDXDXDXAXDX  DXDXDXDXDXDXDXDXDXDXDXDXDXDXDXDXDXDXDXDXDXDXDXDXDXDX; a._ _ _ _ _ _ _ _ _ _ _ _ _ _ _ _ _ _ _ _ _ _ _ _ / q 0.^ _ _ _ _ _ _ _ _ _ _ _ _ _ _ _ _ _ _ _ _ _ _ ( k.: [.-X-X-X-X-X-X-X-X-X-X-X-X-X-X-X-X-X-X-X-X-X-X-X2X~.: 0.{ _ _ _ _ _ _ _ _ _ _ _ _ _ _ _ _ _ _ _ _ _ _ ( 8.w / _ _ _ _ _ _ _ _ _ _ _ _ _ _ _ _ _ _ _ _ _ _ _ _ ( w 0./ ! _ _ _ _ _ _ _ _ _ _ _ _ _ _ _ _ _ _ _ _ _ ) q.e ( _ _ _ _ _ _ _ _ _ _ _ _ _ _ _ _ _ _ _ _ _ _ _ ` d.- AXDXDXDXDXDXDXDXDXDXDXDXDXDXDXDXDXDXDXDXDXDXDXDXDXDX  DXDXDXDXDXDXDXDXDXDXDXDXDXDXDXDXDXDXDXDXDXDXDXDXDXDX  DXDXDXDXDXDXDXDXDXDXDXDXDXDXDXDXDXDXDXDXDXDXDXDXDXDX  DXDXDXDXDXDXDXDXDXDXDXDXDXDXDXDXDXDXDXDXDXDXDXDXDXDX  DX",
"DXDXDX  DXDXDXDXDXDXDXDXDXDXDXDXDXDXDXDXDXDXDXDXDXDXDXDXAXDX  DXDXDXDXDXDXDXDXDXDXDXDXDXDXDXDXDXDXDXDXDXDXDXDXDXDX; a._ _ _ _ _ _ _ _ _ _ _ _ _ _ _ _ _ _ _ _ _ _ _ _ / q 0.^ _ _ _ _ _ _ _ _ _ _ _ _ _ _ _ _ _ _ _ _ _ _ ( 0.: [.-X-X-X-X-X-X-X-X-X-X-X-X-X-X-X-X-X-X-X-X-X-X-X3X~.: 0.{ _ _ _ _ _ _ _ _ _ _ _ _ _ _ _ _ _ _ _ _ _ _ ( 8.w / _ _ _ _ _ _ _ _ _ _ _ _ _ _ _ _ _ _ _ _ _ _ _ _ ( w 0./ ~ _ _ _ _ _ _ _ _ _ _ _ _ _ _ _ _ _ _ _ _ _ ) q.e ( _ _ _ _ _ _ _ _ _ _ _ _ _ _ _ _ _ _ _ _ _ _ _ ` d.- AXDXDXDXDXDXDXDXDXDXDXDXDXDXDXDXDXDXDXDXDXDXDXDXDXDX  DXDXDXDXDXDXDXDXDXDXDXDXDXDXDXDXDXDXDXDXDXDXDXDXDXDX  DXDXDXDXDXDXDXDXDXDXDXDXDXDXDXDXDXDXDXDXDXDXDXDXDXDX  DXDXDXDXDXDXDXDXDXDXDXDXDXDXDXDXDXDXDXDXDXDXDXDXDXDX  DX",
"DXDXDX  DXDXDXDXDXDXDXDXDXDXDXDXDXDXDXDXDXDXDXDXDXDXDXDXAXDX  DXDXDXDXDXDXDXDXDXDXDXDXDXDXDXDXDXDXDXDXDXDXDXDXDXDX; s._ _ _ _ _ _ _ _ _ _ _ _ _ _ _ _ _ _ _ _ _ _ _ _ / q 0.^ _ _ _ _ _ _ _ _ _ _ _ _ _ _ _ _ _ _ _ _ _ _ / 0.: [.-X-X-X*X*X*X*X-X-X-X-X-X-X-X-X-X-X-X-X-X-X-X-X3X~.: 8.( _ _ _ _ _ _ _ _ _ _ _ _ _ _ _ _ _ _ _ _ _ _ ( 8.w / _ _ _ _ _ _ _ _ _ _ _ _ _ _ _ _ _ _ _ _ _ _ _ _ ( w 0./ ~ _ _ _ _ _ _ _ _ _ _ _ _ _ _ _ _ _ _ _ _ _ ( q.e ( _ _ _ _ _ _ _ _ _ _ _ _ _ _ _ _ _ _ _ _ _ _ _ ` d.- AXDXDXDXDXDXDXDXDXDXDXDXDXDXDXDXDXDXDXDXDXDXDXDXDXDX  DXDXDXDXDXDXDXDXDXDXDXDXDXDXDXDXDXDXDXDXDXDXDXDXDXDX  DXDXDXDXDXDXDXDXDXDXDXDXDXDXDXDXDXDXDXDXDXDXDXDXDXDX  DXDXDXDXDXDXDXDXDXDXDXDXDXDXDXDXDXDXDXDXDXDXDXDXDXDX  DX",
"DXDXDX  DXDXDXDXDXDXDXDXDXDXDXDXDXDXDXDXDXDXDXDXDXDXDXDXAXDX  DXDXDXDXDXDXDXDXDXDXDXDXDXDXDXDXDXDXDXDXDXDXDXDXDXDX; s._ _ _ _ _ _ _ _ _ _ _ _ _ _ _ _ _ _ _ _ _ _ _ _ / q 0.^ _ _ _ _ _ _ _ _ _ _ _ _ _ _ _ _ _ _ _ _ _ _ ( 0.- [.-X-X-X*X-X*X*X-X-X-X-X-X-X-X-X-X-X-X-X-X-X-X-X3X~.: 8.( _ _ _ _ _ _ _ _ _ _ _ _ _ _ _ _ _ _ _ _ _ _ ( 8.w / _ _ _ _ _ _ _ _ _ _ _ _ _ _ _ _ _ _ _ _ _ _ _ _ ( w 0./ ~ _ _ _ _ _ _ _ _ _ _ _ _ _ _ _ _ _ _ _ _ _ ( q.e ( _ _ _ _ _ _ _ _ _ _ _ _ _ _ _ _ _ _ _ _ _ _ _ ` d.- AXDXDXDXDXDXDXDXDXDXDXDXDXDXDXDXDXDXDXDXDXDXDXDXDXDX  DXDXDXDXDXDXDXDXDXDXDXDXDXDXDXDXDXDXDXDXDXDXDXDXDXDX  DXDXDXDXDXDXDXDXDXDXDXDXDXDXDXDXDXDXDXDXDXDXDXDXDXDX  DXDXDXDXDXDXDXDXDXDXDXDXDXDXDXDXDXDXDXDXDXDXDXDXDXDX  DX",
"DXDXDX  DXDXDXDXDXDXDXDXDXDXDXDXDXDXDXDXDXDXDXDXDXDXDXDXAXDX  DXDXDXDXDXDXDXDXDXDXDXDXDXDXDXDXDXDXDXDXDXDXDXDXDXDX; s._ _ _ _ _ _ _ _ _ _ _ _ _ _ _ _ _ _ _ _ _ _ _ _ / q 0.^ _ _ _ _ _ _ _ _ _ _ _ _ _ _ _ _ _ _ _ _ _ _ g.0.- [.-X-X-X-X-X-X-X-X-X-X-X-X-X-X-X-X-X-X-X-X-X&X&X:X~.: 8.( _ _ _ _ _ _ _ _ _ _ _ _ _ _ _ _ _ _ _ _ _ _ / 8.w / _ _ _ _ _ _ _ _ _ _ _ _ _ _ _ _ _ _ _ _ _ _ _ _ ( w 0./ ! _ _ _ _ _ _ _ _ _ _ _ _ _ _ _ _ _ _ _ _ _ ( q.e ( _ _ _ _ _ _ _ _ _ _ _ _ _ _ _ _ _ _ _ _ _ _ _ ` d.- AXDXDXDXDXDXDXDXDXDXDXDXDXDXDXDXDXDXDXDXDXDXDXDXDXDX  DXDXDXDXDXDXDXDXDXDXDXDXDXDXDXDXDXDXDXDXDXDXDXDXDXDX  DXDXDXDXDXDXDXDXDXDXDXDXDXDXDXDXDXDXDXDXDXDXDXDXDXDX  DXDXDXDXDXDXDXDXDXDXDXDXDXDXDXDXDXDXDXDXDXDXDXDXDXDX  DX",
"DXDXDX  DXDXDXDXDXDXDXDXDXDXDXDXDXDXDXDXDXDXDXDXDXDXDXDXAXDX  DXDXDXDXDXDXDXDXDXDXDXDXDXDXDXDXDXDXDXDXDXDXDXDXDXDX; s._ _ _ _ _ _ _ _ _ _ _ _ _ _ _ _ _ _ _ _ _ _ _ _ / q 0.^ _ _ _ _ _ _ _ _ _ _ _ _ _ _ _ _ _ _ _ _ _ _ / 0.- [.-X-X-X-X-X-X-X-X-X-X-X-X-X-X-X-X-X-X-X-X-X&X-X:X~.: 8.( _ _ _ _ _ _ _ _ _ _ _ _ _ _ _ _ _ _ _ _ _ _ ( 8.w / _ _ _ _ _ _ _ _ _ _ _ _ _ _ _ _ _ _ _ _ _ _ _ _ ( w 0./ ~ _ _ _ _ _ _ _ _ _ _ _ _ _ _ _ _ _ _ _ _ _ ( q.e ( _ _ _ _ _ _ _ _ _ _ _ _ _ _ _ _ _ _ _ _ _ _ _ ` d.- AXDXDXDXDXDXDXDXDXDXDXDXDXDXDXDXDXDXDXDXDXDXDXDXDXDX  DXDXDXDXDXDXDXDXDXDXDXDXDXDXDXDXDXDXDXDXDXDXDXDXDXDX  DXDXDXDXDXDXDXDXDXDXDXDXDXDXDXDXDXDXDXDXDXDXDXDXDXDX  DXDXDXDXDXDXDXDXDXDXDXDXDXDXDXDXDXDXDXDXDXDXDXDXDXDX  DX",
"DXDXDX  DXDXDXDXDXDXDXDXDXDXDXDXDXDXDXDXDXDXDXDXDXDXDXDXAXDX  DXDXDXDXDXDXDXDXDXDXDXDXDXDXDXDXDXDXDXDXDXDXDXDXDXDX; W _ _ _ _ _ _ _ _ _ _ _ _ _ _ _ _ _ _ _ _ _ _ _ _ / q 0.^ _ _ _ _ _ _ _ _ _ _ _ _ _ _ _ _ _ _ _ _ _ _ ( 0.- [.-X-X-X-X-X-X-X-X-X-X-X-X-X*X-X-X-X-X-X&X-X-X&X3X~.: 8.( _ _ _ _ _ _ _ _ _ _ _ _ _ _ _ _ _ _ _ _ _ _ ( 8.w / _ _ _ _ _ _ _ _ _ _ _ _ _ _ _ _ _ _ _ _ _ _ _ _ ( w 0./ ~ _ _ _ _ _ _ _ _ _ _ _ _ _ _ _ _ _ _ _ _ _ ( q.e ( _ _ _ _ _ _ _ _ _ _ _ _ _ _ _ _ _ _ _ _ _ _ _ ` d.- AXDXDXDXDXDXDXDXDXDXDXDXDXDXDXDXDXDXDXDXDXDXDXDXDXDX  DXDXDXDXDXDXDXDXDXDXDXDXDXDXDXDXDXDXDXDXDXDXDXDXDXDX  DXDXDXDXDXDXDXDXDXDXDXDXDXDXDXDXDXDXDXDXDXDXDXDXDXDX  DXDXDXDXDXDXDXDXDXDXDXDXDXDXDXDXDXDXDXDXDXDXDXDXDXDX  DX",
"DXDXDX  DXDXDXDXDXDXDXDXDXDXDXDXDXDXDXDXDXDXDXDXDXDXDXDXAXDX  DXDXDXDXDXDXDXDXDXDXDXDXDXDXDXDXDXDXDXDXDXDXDXDXDXDX; W _ _ _ _ _ _ _ _ _ _ _ _ _ _ _ _ _ _ _ _ _ _ _ _ / q 0.^ _ _ _ _ _ _ _ _ _ _ _ _ _ _ _ _ _ _ _ _ _ _ ( 0.> [.-X-X-X-X-X-X-X-X-X-X-X-X-X*X*X-X-X-X-X-X-X-X-X3X~.: 8.( _ _ _ _ _ _ _ _ _ _ _ _ _ _ _ _ _ _ _ _ _ _ ( 8.w / _ _ _ _ _ _ _ _ _ _ _ _ _ _ _ _ _ _ _ _ _ _ _ _ ( w 0./ ~ _ _ _ _ _ _ _ _ _ _ _ _ _ _ _ _ _ _ _ _ _ ( q.e ( _ _ _ _ _ _ _ _ _ _ _ _ _ _ _ _ _ _ _ _ _ _ _ ` d.- AXDXDXDXDXDXDXDXDXDXDXDXDXDXDXDXDXDXDXDXDXDXDXDXDXDX  DXDXDXDXDXDXDXDXDXDXDXDXDXDXDXDXDXDXDXDXDXDXDXDXDXDX  DXDXDXDXDXDXDXDXDXDXDXDXDXDXDXDXDXDXDXDXDXDXDXDXDXDX  DXDXDXDXDXDXDXDXDXDXDXDXDXDXDXDXDXDXDXDXDXDXDXDXDXDX  DX",
"DXDXDX  DXDXDXDXDXDXDXDXDXDXDXDXDXDXDXDXDXDXDXDXDXDXDXDXAXDX  DXDXDXDXDXDXDXDXDXDXDXDXDXDXDXDXDXDXDXDXDXDXDXDXDXDX; W _ ! ! _ _ _ _ _ _ _ _ _ _ _ _ _ _ _ _ _ _ _ _ _ / q 0.^ _ _ _ _ _ _ _ _ _ _ _ _ _ _ _ _ _ _ _ _ _ _ ( 0.> [.-X-X-X-X-X-X-X-X-X-X-X*X*X*X*X-X-X-X-X-X-X&X-X3X~.: 8.( _ _ _ _ _ _ _ _ _ _ _ _ _ _ _ _ _ _ _ _ _ _ ( 8.w / _ _ _ _ _ _ _ _ _ _ _ _ _ _ _ _ _ _ _ _ _ _ _ _ ( w 0./ ~ _ _ _ _ _ _ _ _ _ _ _ _ _ _ _ _ _ _ _ _ _ ( q.e ( _ _ _ _ _ _ _ _ _ _ _ _ _ _ _ _ _ _ _ _ _ _ _ ` d.- AXDXDXDXDXDXDXDXDXDXDXDXDXDXDXDXDXDXDXDXDXDXDXDXDXDX  DXDXDXDXDXDXDXDXDXDXDXDXDXDXDXDXDXDXDXDXDXDXDXDXDXDX  DXDXDXDXDXDXDXDXDXDXDXDXDXDXDXDXDXDXDXDXDXDXDXDXDXDX  DXDXDXDXDXDXDXDXDXDXDXDXDXDXDXDXDXDXDXDXDXDXDXDXDXDX  DX",
"DXDXDX  DXDXDXDXDXDXDXDXDXDXDXDXDXDXDXDXDXDXDXDXDXDXDXDXAXDX  DXDXDXDXDXDXDXDXDXDXDXDXDXDXDXDXDXDXDXDXDXDXDXDXDXDX; W ! ! ! _ _ _ _ _ _ _ _ _ _ _ _ _ _ _ _ _ _ _ _ _ / q 0.^ _ _ _ _ _ _ _ _ _ _ _ _ _ _ _ _ _ _ _ _ _ _ ( 0.> [.-X-X-X-X-X-X-X-X-X-X-X*X*X*X*X-X-X-X-X-X&X&X-X3X~.: 8.( _ _ _ _ _ _ _ _ _ _ _ _ _ _ _ _ _ _ _ _ _ _ ( 8.w / _ _ _ _ _ _ _ _ _ _ _ _ _ _ _ _ _ _ _ _ _ _ _ _ ( w 0./ ~ _ _ _ _ _ _ _ _ _ _ _ _ _ _ _ _ _ _ _ _ _ ( q.e ( _ _ _ _ _ _ _ _ _ _ _ _ _ _ _ _ _ _ _ _ _ _ _ ` d.- AXDXDXDXDXDXDXDXDXDXDXDXDXDXDXDXDXDXDXDXDXDXDXDXDXDX  DXDXDXDXDXDXDXDXDXDXDXDXDXDXDXDXDXDXDXDXDXDXDXDXDXDX  DXDXDXDXDXDXDXDXDXDXDXDXDXDXDXDXDXDXDXDXDXDXDXDXDXDX  DXDXDXDXDXDXDXDXDXDXDXDXDXDXDXDXDXDXDXDXDXDXDXDXDXDX  DX",
"DXDXDX  DXDXDXDXDXDXDXDXDXDXDXDXDXDXDXDXDXDXDXDXDXDXDXDXHXDX  DXDXDXDXDXDXDXDXDXDXDXDXDXDXDXDXDXDXDXDXDXDXDXDXDXDX; W _ _ _ _ _ _ _ _ _ _ _ _ _ _ _ _ _ _ _ _ _ _ _ _ / q 0.^ _ _ _ _ _ _ _ _ _ _ _ _ _ _ _ _ _ _ _ _ _ _ ( 0.> [.-X-X-X-X-X-X-X-X-X-X-X-X-X-X-X-X-X-X-X-X-X-X-X3X~.: 8.( _ _ _ _ _ _ _ _ _ _ _ _ _ _ _ _ _ _ _ _ _ _ ( 8.w / _ _ _ _ _ _ _ _ _ _ _ _ _ _ _ _ _ _ _ _ _ _ _ _ ( w 0./ ~ _ _ _ _ _ _ _ _ _ _ _ _ _ _ _ _ _ _ _ _ _ ( q.e ( _ _ _ _ _ _ _ _ _ _ _ _ _ _ _ _ _ _ _ _ _ _ _ ` d.- AXDXDXDXDXDXDXDXDXDXDXDXDXDXDXDXDXDXDXDXDXDXDXDXDXDX  DXDXDXDXDXDXDXDXDXDXDXDXDXDXDXDXDXDXDXDXDXDXDXDXDXDX  DXDXDXDXDXDXDXDXDXDXDXDXDXDXDXDXDXDXDXDXDXDXDXDXDXDX  DXDXDXDXDXDXDXDXDXDXDXDXDXDXDXDXDXDXDXDXDXDXDXDXDXDX  DX",
"DXDXDX  DXDXDXDXDXDXDXDXDXDXDXDXDXDXDXDXDXDXDXDXDXDXDXDXHXDX  DXDXDXDXDXDXDXDXDXDXDXDXDXDXDXDXDXDXDXDXDXDXDXDXDXDX; W _ _ _ _ _ _ _ _ _ _ _ _ _ _ _ _ _ _ _ _ _ _ _ _ / q 0.^ _ _ _ _ _ _ _ _ _ _ _ _ _ _ _ _ _ _ _ _ _ _ ( 0.> [.-X-X-X-X-X-X-X-X-X-X-X-X-X-X-X-X-X-X-X-X-X-X-X3X~.: 8.( _ _ _ _ _ _ _ _ _ _ _ _ _ _ _ _ _ _ _ _ _ _ ( 8.w / _ _ _ _ _ _ _ _ _ _ _ _ _ _ _ _ _ _ _ _ _ _ _ _ ( w 0./ ~ _ _ _ _ _ _ _ _ _ _ _ _ _ _ _ _ _ _ _ _ _ ( q.e ( _ _ _ _ _ _ _ _ _ _ _ _ _ _ _ _ _ _ _ _ _ _ _ ` d.- AXDXDXDXDXDXDXDXDXDXDXDXDXDXDXDXDXDXDXDXDXDXDXDXDXDX  DXDXDXDXDXDXDXDXDXDXDXDXDXDXDXDXDXDXDXDXDXDXDXDXDXDX  DXDXDXDXDXDXDXDXDXDXDXDXDXDXDXDXDXDXDXDXDXDXDXDXDXDX  DXDXDXDXDXDXDXDXDXDXDXDXDXDXDXDXDXDXDXDXDXDXDXDXDXDX  DX",
"DXDXDX  DXDXDXDXDXDXDXDXDXDXDXDXDXDXDXDXDXDXDXDXDXDXDXDXHXDX  DXDXDXDXDXDXDXDXDXDXDXDXDXDXDXDXDXDXDXDXDXDXDXDXDXDX; W _ ! _ _ _ _ _ _ _ _ _ _ _ _ _ _ _ _ _ _ _ _ _ _ / q 0.^ _ _ _ _ _ _ _ _ _ _ _ _ _ _ _ _ _ _ _ _ _ _ ( 0.> [.-X-X-X-X-X-X-X-X-X-X-X-X-X-X-X-X-X-X-X-X-X-X-X3X/.: 8.( _ _ _ _ _ _ _ _ _ _ _ _ _ _ _ _ _ _ _ _ _ _ ( 8.w / _ _ _ _ _ _ _ _ _ _ _ _ _ _ _ _ _ _ _ _ _ _ _ _ ( w 0./ ~ _ _ _ _ _ _ _ _ _ _ _ _ _ _ _ _ _ _ _ _ _ ( q.e ( _ _ _ _ _ _ _ _ _ _ _ _ _ _ _ _ _ _ _ _ _ _ _ ` d.- AXDXDXDXDXDXDXDXDXDXDXDXDXDXDXDXDXDXDXDXDXDXDXDXDXDX  DXDXDXDXDXDXDXDXDXDXDXDXDXDXDXDXDXDXDXDXDXDXDXDXDXDX  DXDXDXDXDXDXDXDXDXDXDXDXDXDXDXDXDXDXDXDXDXDXDXDXDXDX  DXDXDXDXDXDXDXDXDXDXDXDXDXDXDXDXDXDXDXDXDXDXDXDXDXDX  DX",
"DXDXDX  DXDXDXDXDXDXDXDXDXDXDXDXDXDXDXDXDXDXDXDXDXDXDXDXHXDX  DXDXDXDXDXDXDXDXDXDXDXDXDXDXDXDXDXDXDXDXDXDXDXDXDXDX; W _ ! ! _ _ _ _ _ _ _ _ _ _ _ _ _ _ _ _ _ _ _ _ _ / q 0.^ _ _ _ _ _ _ _ _ _ _ _ _ _ _ _ _ _ _ _ _ _ _ ( k.> [.-X-X-X-X-X-X-X-X-X-X-X-X-X-X-X-X-X-X-X-X-X-X-X3X/.: 0.( _ _ _ _ _ _ _ _ _ _ _ _ _ _ _ _ _ _ _ _ _ _ ( 8.w / _ _ _ _ _ _ _ _ _ _ _ _ _ _ _ _ _ _ _ _ _ _ _ _ ( w 0./ ~ _ _ _ _ _ _ _ _ _ _ _ _ _ _ _ _ _ _ _ _ _ ( q.e ( _ _ _ _ _ _ _ _ _ _ _ _ _ _ _ _ _ _ _ _ _ _ _ ` d.- AXDXDXDXDXDXDXDXDXDXDXDXDXDXDXDXDXDXDXDXDXDXDXDXDXDX  DXDXDXDXDXDXDXDXDXDXDXDXDXDXDXDXDXDXDXDXDXDXDXDXDXDX  DXDXDXDXDXDXDXDXDXDXDXDXDXDXDXDXDXDXDXDXDXDXDXDXDXDX  DXDXDXDXDXDXDXDXDXDXDXDXDXDXDXDXDXDXDXDXDXDXDXDXDXDX  DX",
"DXDXDX  DXDXDXDXDXDXDXDXDXDXDXDXDXDXDXDXDXDXDXDXDXDXDXDXHXDX  DXDXDXDXDXDXDXDXDXDXDXDXDXDXDXDXDXDXDXDXDXDXDXDXDXDX; W _ ! _ _ _ _ _ _ _ _ _ _ _ _ _ _ _ _ _ _ _ _ _ _ / q 0.^ _ _ _ _ _ _ _ _ _ _ _ _ _ _ _ _ _ _ _ _ _ ! ( k.> /.1X1X1X1X1X-X-X-X-X-X-X-X-X-X-X-X-X-X-X-X-X-X-X3X~.: 0.{ _ _ _ _ _ _ _ _ _ _ _ _ _ _ _ _ _ _ _ _ _ _ ( 8.e ( _ _ _ _ _ _ _ _ _ _ _ _ _ _ _ _ _ _ _ _ _ _ _ _ { w 0./ ~ _ _ _ _ _ _ _ _ _ _ _ _ _ _ _ _ _ _ _ _ _ ( q.e ( _ _ _ _ _ _ _ _ _ _ _ _ _ _ _ _ _ _ _ _ _ _ _ ` d.- AXDXDXDXDXDXDXDXDXDXDXDXDXDXDXDXDXDXDXDXDXDXDXDXDXDX  DXDXDXDXDXDXDXDXDXDXDXDXDXDXDXDXDXDXDXDXDXDXDXDXDXDX  DXDXDXDXDXDXDXDXDXDXDXDXDXDXDXDXDXDXDXDXDXDXDXDXDXDX  DXDXDXDXDXDXDXDXDXDXDXDXDXDXDXDXDXDXDXDXDXDXDXDXDXDX  DX",
"DXDXDX  DXDXDXDXDXDXDXDXDXDXDXDXDXDXDXDXDXDXDXDXDXDXDXDXHXDX  DXDXDXDXDXDXDXDXDXDXDXDXDXDXDXDXDXDXDXDXDXDXDXDXDXDX; W _ _ _ _ _ _ _ _ _ _ _ _ _ _ _ _ _ _ _ _ _ _ _ _ / q 0.^ _ _ _ _ _ _ _ _ _ _ _ _ _ _ _ _ _ _ ! ! _ _ ( 0.> /.1X1X1X1X-X-X-X-X-X-X-X-X-X-X-X-X-X-X-X-X-X-X-X3X~.: 0.{ _ _ _ _ _ _ _ _ _ _ _ _ _ _ _ _ _ _ _ _ _ _ ( 8.e ( _ _ _ _ _ _ _ _ _ _ _ _ _ _ _ _ _ _ _ _ _ _ _ _ { w 0./ ~ _ _ _ _ _ _ _ _ _ _ _ _ _ _ _ _ _ _ _ _ _ ( q.e ( _ _ _ _ _ _ _ _ _ _ _ _ _ _ _ _ _ _ _ _ _ _ _ ` d.- AXDXDXDXDXDXDXDXDXDXDXDXDXDXDXDXDXDXDXDXDXDXDXDXDXDX  DXDXDXDXDXDXDXDXDXDXDXDXDXDXDXDXDXDXDXDXDXDXDXDXDXDX  DXDXDXDXDXDXDXDXDXDXDXDXDXDXDXDXDXDXDXDXDXDXDXDXDXDX  DXDXDXDXDXDXDXDXDXDXDXDXDXDXDXDXDXDXDXDXDXDXDXDXDXDX  DX",
"DXDXDX  DXDXDXDXDXDXDXDXDXDXDXDXDXDXDXDXDXDXDXDXDXDXDXDXHXDX  DXDXDXDXDXDXDXDXDXDXDXDXDXDXDXDXDXDXDXDXDXDXDXDXDXDX; W _ _ _ _ _ _ _ _ _ _ _ _ _ _ _ _ _ _ _ _ _ _ _ _ / q 0.^ _ _ _ _ _ _ _ _ _ _ _ _ _ _ _ _ _ _ ! ! _ ! ( 0.> /.-X1X1X-X-X-X-X-X-X-X-X-X-X-X-X-X-X-X-X-X-X-X-X2X~.: 0.{ _ _ _ _ _ _ _ _ _ _ _ _ _ _ _ _ _ _ _ _ _ _ ( 8.e ( _ _ _ _ _ _ _ _ _ _ _ _ _ _ _ _ _ _ _ _ _ _ _ _ { w 0./ ~ _ _ _ _ _ _ _ _ _ _ _ _ _ _ _ _ _ _ _ _ _ ( q.e ( _ _ _ _ _ _ _ _ _ _ _ _ _ _ _ _ _ _ _ _ _ _ _ ` d.- AXDXDXDXDXDXDXDXDXDXDXDXDXDXDXDXDXDXDXDXDXDXDXDXDXDX  DXDXDXDXDXDXDXDXDXDXDXDXDXDXDXDXDXDXDXDXDXDXDXDXDXDX  DXDXDXDXDXDXDXDXDXDXDXDXDXDXDXDXDXDXDXDXDXDXDXDXDXDX  DXDXDXDXDXDXDXDXDXDXDXDXDXDXDXDXDXDXDXDXDXDXDXDXDXDX  DX",
"DXDXDX  DXDXDXDXDXDXDXDXDXDXDXDXDXDXDXDXDXDXDXDXDXDXDXDXHXDX  DXDXDXDXDXDXDXDXDXDXDXDXDXDXDXDXDXDXDXDXDXDXDXDXDXDX; W ! _ _ _ _ _ _ _ _ _ _ _ _ _ _ _ _ _ _ _ _ _ _ _ ( q 0.^ _ _ _ _ _ _ _ _ _ _ _ _ _ _ _ _ _ _ _ ! _ ! { 0.: /.-X-X-X-X-X-X-X-X-X-X-X-X*X-X-X-X-X-X-X-X-X-X-X2X~.: 0.{ _ _ _ _ _ _ _ _ _ _ _ _ _ _ _ _ _ _ _ _ _ _ ( 8.w ( _ _ _ _ _ _ _ _ _ _ _ _ _ _ _ _ _ _ _ _ _ _ _ _ ( w 0./ ! _ _ _ _ _ _ _ _ _ _ _ _ _ _ _ _ _ _ _ _ _ ( q.e ( _ _ _ _ _ _ _ _ _ _ _ _ _ _ _ _ _ _ _ _ _ _ _ _ d.- AXDXDXDXDXDXDXDXDXDXDXDXDXDXDXDXDXDXDXDXDXDXDXDXDXDX  DXDXDXDXDXDXDXDXDXDXDXDXDXDXDXDXDXDXDXDXDXDXDXDXDXDX  DXDXDXDXDXDXDXDXDXDXDXDXDXDXDXDXDXDXDXDXDXDXDXDXDXDX  DXDXDXDXDXDXDXDXDXDXDXDXDXDXDXDXDXDXDXDXDXDXDXDXDXDX  DX",
"DXAXHX  DXDXDXDXDXDXDXDXDXDXDXDXDXDXDXDXDXDXDXDXDXDXDXDXDXDX  DXDXDXDXDXDXDXDXDXDXDXDXDXDXDXDXDXDXDXDXDXDXDXDXDXZX; x.' _ _ _ _ _ _ _ _ _ ! ! ! ! ! ! ! _ _ _ _ _ _ ! ( w 9.^ ~ _ _ _ _ _ _ _ _ _ _ _ _ ! _ _ _ ! ! ! ! ' [ 9.O ~.XXXXXXXXXXXXXXXXXXXXXXXXXXXXXXXXXXXXXXXXXXXXXX&X{.: 0.{ _ ` ` _ _ _ _ _ _ _ _ _ _ _ _ _ _ _ _ ` _ _ ) 0.w j._ _ _ _ _ _ _ _ _ _ _ _ _ _ _ _ _ _ _ _ _ _ _ _ / w q.^ _ ! ! _ _ ! ! _ _ _ _ ! ! _ ! ! _ _ _ _ ! ' | 0.e ) _ ' ' ' ' ' ' ' ' ' _ _ _ _ _ _ _ _ _ _ _ _ _ ' a.; VXDXDXDXDXDXDXDXDXDXDXDXDXDXDXDXDXDXDXDXDXDXDXDXDXDX  DXAXAXAXDXDXDXDXDXDXDXDXDXDXDXDXDXDXDXDXDXDXDXDXDXDXX DXDXAXDXDXDXDXDXDXDXDXDXDXDXDXDXDXDXDXDXDXDXDXDXDXDX  DXDXDXDXDXDXDXDXDXDXDXDXDXDXDXDXDXDXDXDXDXDXDXDXDXDXX DX",
"DXDXDX  DXDXDXDXDXDXDXDXDXDXDXDXDXDXDXDXDXDXDXDXAXAXDXDXAXDXX DXAXDXDXDXDXDXDXDXDXDXDXDXDXDXDXDXDXDXDXDXDXDXDXDXZX- n.| ( ) ( ( ( ( ( ( ( ( ( ( ( ( ( ( ( ( ( ( ( ( { s.q u.a.^ ( ( ( ( ( ( ( ( ( ( ( ( ( ( ( ( { } { { j.a.e.+  X).).).).).).+X#X#X#X.X.X.X.X.X.X.X.X.X.X.X.X#X_.Q.O y.W / / / / / ( ( ( ( ( ( ( ( g.( g.g.( g.g.( ( s.e.0 d.) ( / g./ ( { { { { { { { { { { { { { / / / / g.d.q w.W { { { [ [ ( ( ( ( { { { { { { { { { { { { | W e.q h.| o.o.} { { { { { { { ( ( ( ( ( ( ( ( ( ( | | } l.- CXDXDXDXDXDXDXDXDXDXDXDXDXDXDXDXDXDXDXDXDXDXDXDXDXDX  DXDXDXDXDXDXDXDXDXDXDXDXDXDXDXDXDXDXDXDXDXDXDXDXDXDXX DXDXAXDXDXDXDXDXDXDXDXDXDXDXDXDXDXDXDXDXDXDXDXDXDXDX  DXDXDXDXDXDXDXDXDXDXDXDXDXDXDXDXDXDXDXDXDXDXDXDXDXDXX DX",
"DXDXHX  DXDXDXDXDXDXDXDXDXDXDXDXDXDXDXDXDXDXDXDXAXDXDXDXDXHXX DXAXAXAXAXAXAXAXAXAXAXHXHXAXAXAXAXAXAXAXAXAXAXAXAXZXo y.n.n.v.c.t.r.r.r.0.0.8.8.8.0.0.8.0.0.0.0.8.l.l.l.t., m.u.q.0.8.8.8.0.0.0.0.0.0.0.0.8.8.8.0.k.8.q.q.q.e.m.* U T.T.T.T.T.T.T.T.T.T.T.R.R.R.R.R.R.R.R.R.R.R.R.R.U . m.y.c.c.c.c.r.b.b.b.b.b.b.b.b.b.b.r.b.b.b.l.l.n.y.m., e.k.b.r.r.b.b.b.b.c.b.c.c.c.c.c.c.c.b.b.b.r.r.r.r.y.< m.t.b.0.r.r.r.r.r.r.r.r.r.r.r.r.r.r.r.r.r.r.c.v.y.m., t.v.t.v.v.k.k.c.c.c.c.k.k.k.k.k.k.k.k.k.c.c.r.r.9.u.. AXAXAXAXAXDXDXDXDXDXDXDXDXDXDXDXDXDXDXDXDXDXDXDXDXDX  CXCXAXAXAXDXDXDXDXDXDXDXDXDXDXDXDXDXDXDXAXAXAXAXAXDX  DXAXZXAXDXDXDXDXDXDXDXDXDXDXDXDXDXDXDXDXDXDXDXHXAXDX  DXDXDXDXDXDXDXDXDXDXDXDXDXDXDXDXDXDXDXDXDXDXDXDXDXDXX AX",
"                                                              o O - - - - - - - - - - - - - - - - - - - - - - O o o < w e e e w e e e e e e e e e e e e e e e e e e e q - , q w w e e e e e e w w w w w w w w e e e w w w q < + G K K K K K K K K K K K K K K K K K K K L L L K K G o , q w w w w w w w w w w w w w w w w w w w e e e q ; ; q e w w w w w w w w w w w w w w w w w w w w w w w 0 O + O > : : : : : : : + : : : : : : : : : : : : 1 1 * o 0 w e e w w w w w w w w w e e e e e e w w w q q w 0 O . O - - - - - - - - - - - - - - - - - - - - - - O O   - - - O - - - - - - - - - - - - - - - - - - - - - O                                                     X                                                           ",
"DXDXDX  DXDXDXDXDXDXDXDXDXDXDXDXDXDXDXDXDXDXDXDXDXDXDXAXDXCX- M.l.a.a.a.a.a.a.a.a.d.d.d.d.a.a.a.a.a.a.a.a.a.a.l.M.0 a./ [ [ } } { ( ( ( ( ( ( ( ( ( ( ( / / / ( ) ) / f.0 e.W ( ( ( ( ( ( ( / / / / / / / / / / ( ( / / / d.y.> Q.#X#X#X`.`.`.#X#X#X#X#X#X#X#X#X#X#X#X#X#X#X#X#X#XQ.O u.a./ / / / { { { { { { { ( ( ( ( ( / ( / / / / a.M.q x.{ [ [ [ [ [ { { { ( ( ( ( ( ( ( ( ( / / / / / / v.* U W.}./././././.(.(.(.R.R.(.~.[.[.Q.Q./.[.[.[./.Q.I * v.{ | | { { { { { { ( ( ( ( ( ( ( ( ( { } } } } / a.0 u.l.a.a.a.a.a.a.a.d.d.d.d.a.d.d.d.a.a.a.a.a.a.a.l.u., l.W d.d.d.d.a.a.a.a.d.d.a.a.a.a.d.d.a.a.a.a.a.x.a.r.O AXCXDXDXDXDXDXDXDXDXDXDXDXDXDXDXDXDXDXDXDXDXDXDXDXDX  DXDXDXDXDXDXDXDXDXDXDXDXDXDXDXDXDXDXDXDXDXDXDXDXDXDX  DX",
"DXDXDX  DXDXDXDXDXDXDXDXDXDXDXDXDXDXDXDXDXDXDXDXAXDXDXAXDXCX; r.[ _ _ _ _ _ _ _ _ _ _ _ _ _ _ _ _ _ _ _ _ _ _ [ k.e { _ _ _ ! ! _ _ _ _ _ _ _ _ _ _ _ _ _ _ _ _ _ _ _ / w 8.) ` _ _ _ _ _ _ _ _ _ _ _ _ _ _ _ _ _ _ _ _ ] { k.; [.*X*X*X*X*X*X&X;X;X;X;X*X*X*X*X*X*X*X-X-X-X-X-X-X[.O w.g.` ` _ _ _ _ _ _ _ _ _ _ _ _ _ _ _ _ _ _ ] _ [ t.w } _ _ _ _ _ _ _ _ _ _ _ _ _ _ _ _ _ _ _ _ _ _ _ _ z.& U.`.;X>X>XXXXX*X*X&X&X&X&X&X&X*X*X*X&X*X*X*X*X&X+XY.5 z._ _ _ _ _ _ _ _ _ _ _ _ _ _ _ _ _ _ _ ! ' ! _ ! { e 0./ _ ] _ _ _ _ _ _ _ _ _ _ _ _ _ _ _ _ _ _ _ _ / q.q ( _ _ _ _ ] _ _ _ _ _ _ _ _ _ _ _ _ _ _ _ _ ' _ ' a.- AXCXAXDXDXDXDXDXDXDXDXDXDXDXDXDXDXDXDXDXDXDXDXDXDXDX  DXDXDXDXDXDXDXDXDXDXDXDXDXDXDXDXDXDXDXDXDXDXDXDXDXDX  DX",
"DXDXDX  DXDXDXDXDXDXDXDXDXDXDXDXDXDXDXDXDXDXDXDXAXAXDXDXDXVX; t.[ _ _ _ _ ' _ _ _ _ _ _ _ _ _ _ _ _ _ _ _ _ _ / l.e ( _ ! _ _ _ _ _ _ _ _ _ _ _ _ _ _ _ _ _ _ _ _ _ _ ( w l.^ _ _ _ _ _ _ _ _ _ _ _ _ _ _ _ _ _ _ _ _ _ ] { k.> [.&X&X&X&X&X&X&X&X&X&X&X-X-X-X-X-X-X-X-X-X-X-X-X-X/.: q.) _ _ _ _ _ _ _ _ _ _ _ _ _ _ _ _ _ _ _ ] ] _ { 8.e [ _ _ _ _ _ _ _ _ _ _ _ _ _ _ _ _ _ _ _ _ _ _ _ _ x.% L.).*XXXXXXXXX-X*X*X*X&X&X&X&X*X*X&X&X*X*X*X&X=X+XL.& z.' ' ' _ _ _ _ _ _ _ _ _ _ _ _ _ _ _ _ _ _ _ _ _ } e c./ _ _ _ _ _ _ _ _ _ _ _ _ _ _ _ _ _ _ _ _ _ _ ( q.q ) _ _ _ ] ] _ _ _ _ _ _ _ _ _ _ _ _ _ _ _ _ _ ' ' x.- AXHXDXDXDXDXDXDXDXDXDXDXDXDXDXDXDXDXDXDXDXDXDXDXDXDX  DXDXDXDXDXDXDXDXDXDXDXDXDXDXDXDXDXDXDXDXDXDXDXDXDXDX  DX",
"DXDXDX  DXDXDXDXDXDXDXDXDXDXDXDXDXDXDXDXDXDXDXDXAXAXDXAXDXVX; 0.[ _ _ _ _ _ _ _ _ _ _ _ _ _ _ _ _ _ _ _ _ _ _ ( k.e ) _ ! ! _ _ _ _ _ _ _ _ _ _ _ _ _ _ _ _ _ _ _ _ _ { e l.^ _ _ _ _ _ _ _ _ _ _ _ _ _ _ _ _ _ ' ' _ _ ~ { k.> [.&X&X&X&X&X&X&X&X&X&X&X-X-X-X-X-X-X-X-X-X-X-X-X-X/.: q.) _ _ _ _ _ _ _ _ _ _ _ _ _ _ _ _ _ _ _ ` ` _ { 8.e / _ _ _ _ _ _ _ _ _ _ _ _ _ _ _ _ _ _ _ _ _ _ _ _ x.% L.).;XXXXXXX-X-X*X*X*X&X&X=X=X-X-X=X=X=X-X-X=X=X+XL.& z.' ` ` _ _ _ _ _ _ _ _ _ _ _ _ _ _ _ _ _ _ _ _ _ { e c./ _ _ _ _ _ _ _ _ _ _ _ _ _ _ _ _ _ _ _ _ _ _ ( q.q ) _ _ _ _ _ _ _ _ _ _ _ _ _ _ _ _ _ _ _ _ _ _ _ ' a.- AXHXDXDXDXDXDXDXDXDXDXDXDXDXDXDXDXDXDXDXDXDXDXDXDXDX  DXDXDXDXDXDXDXDXDXDXDXDXDXDXDXDXDXDXDXDXDXDXDXDXDXDX  DX",
"DXDXDX  DXDXDXDXDXDXDXDXDXDXDXDXDXDXDXDXDXDXDXDXAXAXDXDXDXCX; 0.( _ _ _ _ _ _ _ _ _ _ _ _ _ _ _ _ _ _ _ _ _ _ ( 0.w / _ _ _ _ _ _ _ _ _ _ _ _ _ _ _ _ _ _ _ _ _ _ _ _ ( w l.^ _ _ _ _ _ _ _ _ _ _ _ _ _ _ _ _ _ _ _ _ _ _ [ 0.> [.-X-X-X-X-X-X-X-X-X-X-X-X-X*X-X-X-X-X-X=X=X-X-X-X[.: k.( _ _ _ _ _ _ _ _ _ _ _ _ _ _ _ _ _ _ _ _ _ _ { 8.w ( _ _ _ _ _ _ _ _ _ _ _ _ _ _ _ _ _ _ _ _ _ _ _ _ z.* P.).-X-X-X-X=X-X-X-X-X=X-X-X-X-X-X-X-X-X-X-X-XoX+XU.& z._ _ _ _ _ _ _ _ _ _ _ _ _ _ _ _ _ _ _ _ _ _ _ ! ( w 0.( _ _ _ _ _ _ _ _ _ _ _ _ _ _ _ _ _ _ _ _ _ _ ( q.w / _ _ _ _ _ _ _ _ _ _ _ _ _ _ _ _ _ _ _ _ _ _ _ _ d.- AXHXDXDXDXDXDXDXDXDXDXDXDXDXDXDXDXDXDXDXDXDXDXDXDXDX  DXDXDXDXDXDXDXDXDXDXDXDXDXDXDXDXDXDXDXDXDXDXDXDXDXDX  DX",
"DXDXDX  DXDXDXDXDXDXDXDXDXDXDXDXDXDXDXDXDXDXDXDXAXAXDXAXDXCX; l.( _ _ _ _ _ _ _ _ _ _ _ _ _ _ _ _ _ _ _ _ _ _ { 0.w [ ! _ _ _ _ _ _ _ _ _ _ _ _ _ _ _ _ _ _ _ _ _ _ _ ( w 8./ ` _ _ _ _ _ _ _ _ _ _ _ _ _ _ _ _ _ _ _ _ _ ( 0.> [.-X-X-X-X-X-X-X-X-X-X-X-X-X*X*X-X-X-X-X=X=X=X1X<X{.: k.| _ _ _ _ _ _ _ _ _ _ _ _ _ _ _ _ _ _ _ _ _ _ { 8.w { _ _ _ _ _ _ _ _ _ _ _ _ _ _ _ _ _ _ _ _ _ _ _ _ z.* P.`.3X>X1X=X=X-X-X-X-X=X=X-X-X-X-X-X-X1X1X-X1XXX#XU.5 z._ _ _ _ _ _ _ _ _ _ _ _ _ _ _ _ _ _ _ _ _ _ _ ! ( w 0.( _ _ _ _ _ _ _ _ _ _ _ _ _ _ _ _ _ _ _ _ _ _ ( 9.w ( _ _ _ _ _ _ _ _ _ _ _ _ _ _ _ _ _ _ _ _ _ _ _ _ d.- AXHXDXDXDXDXDXDXDXDXDXDXDXDXDXDXDXDXDXDXDXDXDXDXDXDX  DXDXDXDXDXDXDXDXDXDXDXDXDXDXDXDXDXDXDXDXDXDXDXDXDXDX  DX",
"DXDXDX  DXDXDXDXDXDXDXDXDXDXDXDXDXDXDXDXDXDXDXDXAXAXDXAXDXCX; 8.( _ _ _ _ _ _ _ _ _ _ _ _ _ _ _ _ _ _ _ _ _ _ { 0.w [ ! _ _ _ _ _ _ _ _ _ _ _ _ _ _ _ _ _ _ _ _ _ _ _ ( w 8.^ _ _ _ _ _ _ _ _ _ _ _ _ _ _ _ _ _ _ _ _ _ _ ( 0.> [.-X-X-X-X-X-X-X-X-X-X-X-X-X-X-X-X-X-X-X=X=X-X1X<X{.: k.| _ _ _ _ _ _ _ _ _ _ _ _ _ _ _ _ _ _ _ _ _ _ { 8.w { _ _ _ _ _ _ _ _ _ _ _ _ _ _ _ _ _ _ _ _ _ _ _ _ z.* P.`.3X>X1X=X=X-X-X-X-X-X-X-X-X-X-X-X-X1X1X1X1XXX#XU.5 z._ _ _ _ _ _ _ _ _ _ _ _ _ _ _ _ _ _ _ _ _ _ _ ! ( w 0.( _ _ _ _ _ _ _ _ _ _ _ _ _ _ _ _ _ _ _ _ _ _ ( 9.w / _ _ _ _ _ _ _ _ _ _ _ _ _ _ _ _ _ _ _ _ _ _ _ _ d.- AXCXDXDXDXDXDXDXDXDXDXDXDXDXDXDXDXDXDXDXDXDXDXDXDXDX  DXDXDXDXDXDXDXDXDXDXDXDXDXDXDXDXDXDXDXDXDXDXDXDXDXDX  DX",
"DXDXDX  DXDXDXDXDXDXDXDXDXDXDXDXDXDXDXDXDXDXDXDXDXDXDXAXDXCX; 8.( _ _ _ _ _ _ _ _ _ _ _ _ _ _ _ _ _ _ _ _ _ _ { 0.w [ ! _ _ _ _ _ _ _ _ _ _ _ _ _ _ _ _ _ _ _ _ _ _ _ ( w 8.^ ` _ _ _ _ _ _ _ _ _ _ _ _ _ _ _ _ _ _ _ _ _ ( k.> [.-X-X-X-X-X-X-X-X-X-X-X-X-X-X-X-X-X-X-X=X=X-X1X<X{.: c.| _ _ _ _ _ _ _ _ _ _ _ _ _ _ _ _ _ _ _ _ _ _ { 8.w { _ _ _ _ _ _ _ _ _ _ _ _ _ _ _ _ _ _ _ _ _ _ _ _ z.* P.`.3X>X1X=X=X-X-X-X-X-X-X-X-X-X-X-X-X1X1X1X1XXX#XU.5 z._ _ _ _ _ _ _ _ _ _ _ _ _ _ _ _ _ _ _ _ _ _ _ ! ( w 0.( _ _ _ _ _ _ _ _ _ _ _ _ _ _ _ _ _ _ _ _ _ _ ( 9.w / ' _ _ _ _ _ _ _ _ _ _ _ _ _ _ _ _ _ _ _ _ _ _ _ d.- AXCXDXDXDXDXDXDXDXDXDXDXDXDXDXDXDXDXDXDXDXDXDXDXDXDX  DXDXDXDXDXDXDXDXDXDXDXDXDXDXDXDXDXDXDXDXDXDXDXDXDXDX  DX",
"DXDXDX  DXDXDXDXDXDXDXDXDXDXDXDXDXDXDXDXDXDXDXDXDXDXDXAXDXCX; 8.( _ _ _ _ _ _ _ _ _ _ _ _ _ _ _ _ _ _ _ _ _ _ { 0.w [ ! _ _ _ _ _ _ _ _ _ _ _ _ _ _ _ _ _ _ _ _ _ _ _ ( w 8.^ ` _ _ _ _ _ _ _ _ _ _ _ _ _ _ _ _ _ _ _ _ _ ( k.> [.-X-X-X-X-X-X-X-X-X-X-X-X-X-X-X-X-X-X-X-X-X-X1X<X{.: v.| _ _ _ _ _ _ _ _ _ _ _ _ _ _ _ _ _ _ _ _ _ _ { 0.w { _ _ _ _ _ _ _ _ _ _ _ _ _ _ _ _ _ _ _ _ _ _ _ _ z.* P.`.3X>X1X=X=X=X-X-X-X-X=X=X=X-X-X-X-X-X-X-X-XXX#XU.5 .._ _ _ _ _ _ _ _ _ _ _ _ _ _ _ _ _ _ _ _ _ _ _ ! ( w 0.( _ _ _ _ _ _ _ _ _ _ _ _ _ _ _ _ _ _ _ _ _ _ ( 8.w ( _ _ _ _ _ _ _ _ _ _ _ _ _ _ _ _ _ _ _ _ _ _ _ _ d.- DXHXDXDXDXDXDXDXDXDXDXDXDXDXDXDXDXDXDXDXDXDXDXDXDXDX  DXDXDXDXDXDXDXDXDXDXDXDXDXDXDXDXDXDXDXDXDXDXDXDXDXDX  DX",
"DXDXDX  DXDXDXDXDXDXDXDXDXDXDXDXDXDXDXDXDXDXDXDXDXDXDXAXDXCX; 0.( _ _ _ _ _ _ _ _ _ _ _ _ _ _ _ _ _ _ _ _ _ _ ( 0.w / _ _ _ _ _ _ _ _ _ _ _ _ _ _ _ _ _ _ _ _ _ _ _ _ ( w 8.^ _ _ _ _ _ _ _ _ _ _ _ _ _ _ _ _ _ _ _ _ _ _ ( k.> [.-X-X-X-X-X-X-X-X-X-X-X-X-X-X-X-X-X-X-X-X-X-X-X=X{.: v.| _ _ _ _ _ _ _ _ _ _ _ _ _ _ _ _ _ _ _ _ _ _ { 0.w { _ _ _ _ _ _ _ _ _ _ _ _ _ _ _ _ _ _ _ _ _ _ _ _ z.* P.`.3X>X1X=X=X=X-X-X-X-X=X=X=X-X-X-X-X-X-X-X-XXX#XU.5 .._ _ _ _ _ _ _ _ _ _ _ _ _ _ _ _ _ _ _ _ _ _ _ ! ( w 0.( _ _ _ _ _ _ _ _ _ _ _ _ _ _ _ _ _ _ _ _ _ _ ( 8.w ( _ _ _ _ _ _ _ _ _ _ _ _ _ _ _ _ _ _ _ _ _ _ _ _ d.- DXHXDXDXDXDXDXDXDXDXDXDXDXDXDXDXDXDXDXDXDXDXDXDXDXDX  DXDXDXDXDXDXDXDXDXDXDXDXDXDXDXDXDXDXDXDXDXDXDXDXDXDX  DX",
"DXDXDX  DXDXDXDXDXDXDXDXDXDXDXDXDXDXDXDXDXDXDXDXDXDXDXAXDXCX; 0.( _ _ _ _ _ _ _ _ _ _ _ _ _ _ _ _ _ _ _ _ _ _ ( 0.w / _ _ _ _ _ _ _ _ _ _ _ _ _ _ _ _ _ _ _ _ _ _ _ _ ( w 8.^ _ _ _ _ _ _ _ _ _ _ _ _ _ _ _ _ _ _ _ _ _ _ { 0.> [.-X-X-X-X-X-X-X-X-X-X-X-X-X-X-X-X-X-X-X&X-X-X-X=X{.: v.| _ _ _ _ _ _ _ _ _ _ _ _ _ _ _ _ _ _ _ _ _ _ { 0.w { _ _ _ _ _ _ _ _ _ _ _ _ _ _ _ _ _ _ _ _ _ _ _ _ z.* P.`.3X>X1X=X=X=X=X-X-X-X-X=X=X-X-X-X-X-X-X-X-XXX#XU.5 .._ _ _ _ _ _ _ _ _ _ _ _ _ _ _ _ _ _ _ _ _ _ _ ! ( w 0.( _ _ _ _ _ _ _ _ _ _ _ _ _ _ _ _ _ _ _ _ _ _ ( 8.w ( _ _ _ _ _ _ _ _ _ _ _ _ _ _ _ _ _ _ _ _ _ _ _ _ d.- DXHXDXDXDXDXDXDXDXDXDXDXDXDXDXDXDXDXDXDXDXDXDXDXDXDX  DXDXDXDXDXDXDXDXDXDXDXDXDXDXDXDXDXDXDXDXDXDXDXDXDXDX  DX",
"DXDXDX  DXDXDXDXDXDXDXDXDXDXDXDXDXDXDXDXDXDXDXDXDXDXDXAXDXCX; 0.( _ _ _ _ _ _ _ _ _ _ _ _ _ _ _ _ _ _ _ _ _ _ ( 0.w / ! _ _ _ _ _ _ _ _ _ _ _ _ _ _ _ _ _ _ _ _ _ _ _ ( w 8.^ _ _ _ _ _ _ _ _ _ _ _ _ _ _ _ _ _ _ _ _ _ _ { k.> [.-X-X-X-X-X-X-X-X-X-X-X-X-X-X-X-X-X-X-X&X&X-X-X=X{.: v.| _ _ _ _ _ _ _ _ _ _ _ _ _ _ _ _ _ _ _ _ _ _ { 0.w { _ _ _ _ _ _ _ _ _ _ _ _ _ _ _ _ _ _ _ _ _ _ _ _ z.* P.`.3X>X1X=X=X-X=X-X-X-X-X-X-X-X-X-X-X-X-X-X-XXX#XU.5 z._ _ _ _ _ _ _ _ _ _ _ _ _ _ _ _ _ _ _ _ _ _ _ ! ( w 0.( _ _ _ _ _ _ _ _ _ _ _ _ _ _ _ _ _ _ _ _ _ _ ( 8.w ( _ _ _ _ _ _ _ _ _ _ _ _ _ _ _ _ _ _ _ _ _ _ _ _ d.- DXHXDXDXDXDXDXDXDXDXDXDXDXDXDXDXDXDXDXDXDXDXDXDXDXDX  DXDXDXDXDXDXDXDXDXDXDXDXDXDXDXDXDXDXDXDXDXDXDXDXDXDX  DX",
"DXDXDX  DXDXDXDXDXDXDXDXDXDXDXDXDXDXDXDXDXDXDXDXDXDXDXAXDXCX; 0.( _ _ _ _ _ _ _ _ _ _ _ _ _ _ _ _ _ _ _ _ _ _ ( 0.w / _ _ _ _ _ _ _ _ _ _ _ _ _ _ _ _ _ _ _ _ _ _ _ _ ( w 8.^ _ _ _ _ _ _ _ _ _ _ _ _ _ _ _ _ _ _ _ _ _ _ { 0.> [.-X-X-X-X-X-X-X-X-X-X-X-X-X-X-X-X-X=X=X=X=X=X-X=X{.: v.| _ _ _ _ _ _ _ _ _ _ _ _ _ _ _ _ _ _ _ _ _ _ { 0.w { _ _ _ _ _ _ _ _ _ _ _ _ _ _ _ _ _ _ _ _ _ _ _ _ z.* P.`.3X>X1X=X=X-X-X-X=X=X=X=X=X-X-X-X-X-X-X-X-XXX#XU.5 z._ _ _ _ _ _ _ _ _ _ _ _ _ _ _ _ _ _ _ _ _ _ _ ! { w 0.( _ _ _ _ _ _ _ _ _ _ _ _ _ _ _ _ _ _ _ _ _ _ ( 8.w ( _ _ _ _ _ _ _ _ _ _ _ _ _ _ _ _ _ _ _ _ _ _ _ _ s.- DXHXDXDXDXDXDXDXDXDXDXDXDXDXDXDXDXDXDXDXDXDXDXDXDXDX  DXDXDXDXDXDXDXDXDXDXDXDXDXDXDXDXDXDXDXDXDXDXDXDXDXDX  DX",
"DXDXDX  DXDXDXDXDXDXDXDXDXDXDXDXDXDXDXDXDXDXDXDXDXDXDXAXDXCX; 0.( _ _ _ _ _ _ _ _ _ _ _ _ _ _ _ _ _ _ _ _ _ _ ( 0.w / _ _ _ _ _ _ _ _ _ _ _ _ _ _ _ _ _ _ _ _ _ _ _ _ ( w 8.^ _ _ _ _ _ _ _ _ _ _ _ _ _ _ _ _ _ _ _ _ _ _ { k.> [.-X-X-X-X-X-X-X-X-X-X-X-X-X-X-X-X-X=X-X=X=X-X-X=X{.: v.| _ _ _ _ _ _ _ _ _ _ _ _ _ _ _ _ _ _ _ _ _ _ { 0.w { _ _ _ _ _ _ _ _ _ _ _ _ _ _ _ _ _ _ _ _ _ _ _ _ ..* P.`.3X>X1X=X=X-X-X-X-X=X=X-X-X-X-X-X-X-X-X-X-XXX#XU.5 z._ _ _ _ _ _ _ _ _ _ _ _ _ _ _ _ _ _ _ _ _ _ _ ! { w 0.( _ _ _ _ _ _ _ _ _ _ _ _ _ _ _ _ _ _ _ _ _ _ ( 8.w ( _ _ _ _ _ _ _ _ _ _ _ _ _ _ _ _ _ _ _ _ _ _ _ _ s.- DXHXDXDXDXDXDXDXDXDXDXDXDXDXDXDXDXDXDXDXDXDXDXDXDXDX  DXDXDXDXDXDXDXDXDXDXDXDXDXDXDXDXDXDXDXDXDXDXDXDXDXDX  DX",
"DXDXDX  DXDXDXDXDXDXDXDXDXDXDXDXDXDXDXDXDXDXDXDXDXDXDXAXDXCX; 0.( _ _ _ _ _ _ _ _ _ _ _ _ _ _ _ _ _ _ _ _ _ _ ( 9.w / _ _ _ _ _ _ _ _ _ _ _ _ _ _ _ _ _ _ _ _ _ _ _ _ ( w 8.^ _ _ _ _ _ _ _ _ _ _ _ _ _ _ _ _ _ _ ' _ _ _ { k.> [.*X*X-X-X-X-X-X-X-X-X-X-X-X=X=X-X-X-X-X-X*X-X-X=X{.: v.| _ _ _ _ _ _ _ _ _ _ _ _ _ _ _ _ _ _ _ _ _ _ { 0.w { _ _ _ _ _ _ _ _ _ _ _ _ _ _ _ _ _ _ _ _ _ _ _ _ ..* P.`.3X>X1X=X=X-X-X-X-X-X-X-X-X-X-X-X-X-X-X-X-XXX#XU.5 z._ _ _ _ _ _ _ _ _ _ _ _ _ _ _ _ _ _ _ _ _ _ _ ! { w 0.( _ _ _ _ _ _ _ _ _ _ _ _ _ _ _ _ _ _ _ _ _ _ ( 8.w ( _ _ _ _ _ _ _ _ _ _ _ _ _ _ _ _ _ _ _ _ _ _ _ _ s.- DXHXDXDXDXDXDXDXDXDXDXDXDXDXDXDXDXDXDXDXDXDXDXDXDXDX  DXDXDXDXDXDXDXDXDXDXDXDXDXDXDXDXDXDXDXDXDXDXDXDXDXDX  DX",
"DXDXDX  DXDXDXDXDXDXDXDXDXDXDXDXDXDXDXDXDXDXDXDXDXDXDXAXDXCX; k.( _ _ _ _ _ _ _ _ _ _ _ _ _ _ _ _ _ _ _ _ _ _ ( 9.w / _ _ _ _ _ _ _ _ _ _ _ _ _ _ _ _ _ _ _ _ _ _ _ _ ( w 8.^ _ _ _ _ _ _ _ _ _ _ _ _ _ _ _ _ _ _ _ _ _ _ { k.> [.*X*X-X-X-X-X-X-X-X-X-X-X-X=X=X-X-X-X-X-X-X-X-X=X{.: v.| _ _ _ _ _ _ _ _ _ _ _ _ _ _ _ _ _ _ _ _ _ _ { 9.w { _ _ _ _ _ _ _ _ _ _ _ _ _ _ _ _ _ _ _ _ _ _ _ _ z.* P.`.3X>X1X=X=X-X-X-X-X-X-X-X-X-X-X-X-X-X-X-X-XXX#XU.5 z._ _ _ _ _ _ _ _ _ _ _ _ _ _ _ _ _ _ _ _ _ _ _ ! { w 0.( _ _ _ _ _ _ _ _ _ _ _ _ _ _ _ _ _ _ _ _ _ _ ( 8.w ( _ _ _ _ _ _ _ _ _ _ _ _ _ _ _ _ _ _ _ _ _ _ _ _ s.- DXHXDXDXDXDXDXDXDXDXDXDXDXDXDXDXDXDXDXDXDXDXDXDXDXDX  DXDXDXDXDXDXDXDXDXDXDXDXDXDXDXDXDXDXDXDXDXDXDXDXDXDX  DX",
"DXDXDX  DXDXDXDXDXDXDXDXDXDXDXDXDXDXDXDXDXDXDXDXDXDXDXAXDXCX; 0.( _ _ _ _ _ _ _ _ _ _ _ _ _ _ _ _ _ _ _ _ _ _ ( 9.w / _ _ _ _ _ _ _ _ _ _ _ _ _ _ _ _ _ _ _ _ _ _ _ _ ( w 8.^ _ _ _ _ _ _ _ _ _ _ _ _ _ _ _ _ _ _ _ _ _ _ ( k.> [.-X-X-X-X-X-X-X-X-X-X-X-X-X-X=X-X-X-X-X-X-X-X=X=X{.: k.| _ _ _ _ _ _ _ _ _ _ _ _ _ _ _ _ _ _ _ _ _ _ [ 9.w { _ _ _ _ _ _ _ _ _ _ _ _ _ _ _ _ _ _ _ _ _ _ _ _ z.* P.`.3X>X1X=X=X=X-X1X1X-X-X-X-X-X-X-X-X-X-X-X-XXX#XU.5 z._ _ _ _ _ _ _ _ _ _ _ _ _ _ _ _ _ _ _ _ _ _ _ ! { w 0.( _ _ _ _ _ _ _ _ _ _ _ _ _ _ _ _ _ _ _ _ _ _ ( 8.w ( ' _ _ _ _ _ _ _ _ _ _ _ _ _ _ _ _ _ _ _ _ _ _ _ s.- DXHXDXDXDXDXDXDXDXDXDXDXDXDXDXDXDXDXDXDXDXDXDXDXDXDX  DXDXDXDXDXDXDXDXDXDXDXDXDXDXDXDXDXDXDXDXDXDXDXDXDXDX  DX",
"DXDXDX  DXDXDXDXDXDXDXDXDXDXDXDXDXDXDXDXDXDXDXDXDXDXDXAXDXCX; 0.( _ _ _ _ _ _ _ _ _ _ _ _ _ _ _ _ _ _ _ _ _ _ ( 0.w / _ _ _ _ _ _ _ _ _ _ _ _ _ _ _ _ _ _ _ _ _ _ _ _ ( w 8.^ _ _ _ _ _ _ _ _ _ _ _ _ _ _ _ _ _ _ _ _ _ ! ( k.> [.-X-X-X-X-X-X-X-X-X-X-X-X-X=X=X-X-X-X-X-X-X-X-X-X{.: k.| _ _ _ _ _ _ _ _ _ _ _ _ _ _ _ _ _ _ _ _ _ _ { 9.w { _ _ _ _ _ _ _ _ _ _ _ _ _ _ _ _ _ _ _ _ _ _ _ _ z.* P.`.3X>X1X=X=X=X1X1X1X-X-X=X=X-X-X-X-X-X-X-X-XXX#XU.5 z._ _ _ _ _ _ _ _ _ _ _ _ _ _ _ _ _ _ _ _ _ _ _ ! { w 0.( _ _ _ _ _ _ _ _ _ _ _ _ _ _ _ _ _ _ _ _ _ _ ( 8.w ( ' _ _ _ _ _ _ _ _ _ _ _ _ _ _ _ _ _ _ _ _ _ _ _ s.- DXHXDXDXDXDXDXDXDXDXDXDXDXDXDXDXDXDXDXDXDXDXDXDXDXDX  DXDXDXDXDXDXDXDXDXDXDXDXDXDXDXDXDXDXDXDXDXDXDXDXDXDX  DX",
"DXDXDX  DXDXDXDXDXDXDXDXDXDXDXDXDXDXDXDXDXDXDXDXDXDXDXAXDXCX; 0.( _ _ _ _ _ _ _ _ _ _ _ _ _ _ _ _ _ _ _ _ _ _ / 0.w / _ _ _ _ _ _ _ _ _ _ _ _ _ _ _ _ _ _ _ _ _ _ _ _ ( w l.^ _ _ _ _ _ _ _ _ _ _ _ _ _ _ _ _ _ _ _ _ _ ! { k.> [.-X-X-X-X-X-X-X=X=X=X=X-X-X-X-X-X-X-X-X-X-X-X-X-X{.: k.| _ _ _ _ _ _ _ _ _ _ _ _ _ _ _ _ _ _ _ _ _ _ { 9.w { _ _ _ _ _ _ _ _ _ _ _ _ _ _ _ _ _ _ _ _ _ _ _ _ z.* P.`.3X>X1X=X=X=X=X1X1X-X-X=X=X-X-X-X-X-X-X-X-XXX#XU.5 z._ _ _ _ _ _ _ _ _ _ _ _ _ _ _ _ _ _ _ _ _ _ _ ! { w 0.( _ _ _ _ _ _ _ _ _ _ _ _ _ _ _ _ _ _ _ _ _ _ ( 8.w ( ' _ _ _ _ _ _ _ _ _ _ _ _ _ _ _ _ _ _ _ _ _ _ _ s.- DXHXDXDXDXDXDXDXDXDXDXDXDXDXDXDXDXDXDXDXDXDXDXDXDXDX  DXDXDXDXDXDXDXDXDXDXDXDXDXDXDXDXDXDXDXDXDXDXDXDXDXDX  DX",
"DXDXDX  DXDXDXDXDXDXDXDXDXDXDXDXDXDXDXDXDXDXDXDXDXDXDXAXDXCX; 0.( _ _ _ _ _ _ _ _ _ _ _ _ _ _ _ _ _ _ _ _ _ _ / 0.w / _ _ _ _ _ _ _ _ _ _ _ _ _ _ _ _ _ _ _ _ _ _ _ _ ( w l./ _ _ _ _ _ _ _ _ _ _ _ _ _ _ _ _ _ _ _ _ _ ! { k.> [.-X-X-X-X-X-X-X=X=X=X=X-X-X-X-X-X-X-X-X-X-X-X-X-X{.: k.| _ _ _ _ _ _ _ _ _ _ _ _ _ _ _ _ _ _ _ _ _ _ { 0.w { _ _ _ _ _ _ _ _ _ _ _ _ _ _ _ _ _ _ _ _ _ _ _ _ z.* P.`.3X>X1X=X=X=X=X1X1X-X-X-X=X-X-X-X-X-X-X-X-XXX#XU.5 z._ _ _ _ _ _ _ _ _ _ _ _ _ _ _ _ _ _ _ _ _ _ _ ! { w 0.( _ _ _ _ _ _ _ _ _ _ _ _ _ _ _ _ _ _ _ _ _ _ ( 8.w ( _ _ _ _ _ _ _ _ _ _ _ _ _ _ _ _ _ _ _ _ _ _ _ _ s.- DXHXDXDXDXDXDXDXDXDXDXDXDXDXDXDXDXDXDXDXDXDXDXDXDXDX  DXDXDXDXDXDXDXDXDXDXDXDXDXDXDXDXDXDXDXDXDXDXDXDXDXDX  DX",
"DXDXDX  DXDXDXDXDXDXDXDXDXDXDXDXDXDXDXDXDXDXDXDXDXDXDXDXDXCX; k.( _ _ _ _ _ _ _ _ _ _ _ _ _ _ _ _ _ _ _ _ _ _ ( 0.w / _ _ _ _ _ _ _ _ _ _ _ _ _ _ _ _ _ _ _ _ _ _ _ _ { w 8.^ _ _ _ _ _ _ _ _ _ _ _ _ _ _ _ _ _ _ _ _ _ ! { k.> [.-X-X-X-X-X-X-X-X-X=X=X-X-X-X-X-X-X-X-X-X-X-X-X1X{.: v.| _ _ _ _ _ _ _ _ _ _ _ _ _ _ _ _ _ _ _ _ _ _ { 0.w { _ _ _ _ _ _ _ _ _ _ _ _ _ _ _ _ _ _ _ _ _ _ _ _ z.* P.`.3X>X1X=X=X=X=X=X<X=X-X-X-X-X-X-X-X-X-X-X-XXX#XU.5 z._ _ _ _ _ _ _ _ _ _ _ _ _ _ _ _ _ _ _ _ _ _ _ ! ( w 0.( _ _ _ _ _ _ _ _ _ _ _ _ _ _ _ _ _ _ _ _ _ _ ( 8.w ( _ _ _ _ _ _ _ _ _ _ _ _ _ _ _ _ _ _ _ _ _ _ _ _ d.- DXHXDXDXDXDXDXDXDXDXDXDXDXDXDXDXDXDXDXDXDXDXDXDXDXDX  DXDXDXDXDXDXDXDXDXDXDXDXDXDXDXDXDXDXDXDXDXDXDXDXDXDX  DX",
"DXDXDX  DXDXDXDXDXDXDXDXDXDXDXDXDXDXDXDXDXDXDXDXDXDXDXDXDXCX; k.( _ _ _ _ _ _ _ _ _ _ _ _ _ _ _ _ _ _ _ _ _ _ ( 0.w [ ! _ _ _ _ _ _ _ _ _ _ _ _ _ _ _ _ _ _ _ _ _ _ _ { w 8.^ _ _ _ _ _ _ _ _ _ _ _ _ _ _ _ _ _ _ _ _ _ ! { k.> [.-X-X-X-X-X-X-X-X-X=X-X-X-X-X-X-X-X-X-X-X-X-X-X1X{.: v.| _ _ _ _ _ _ _ _ _ _ _ _ _ _ _ _ _ _ _ _ _ _ { 8.w { _ _ _ _ _ _ _ _ _ _ _ _ _ _ _ _ _ _ _ _ _ _ _ _ z.* P.`.3X>X1X=X=X=X=X<X<X-X-X-X-X-X-X-X-X-X-X-X-XXX#XU.5 z._ _ _ _ _ _ _ _ _ _ _ _ _ _ _ _ _ _ _ _ _ _ _ ! ( w 0.( _ _ _ _ _ _ _ _ _ _ _ _ _ _ _ _ _ _ _ _ _ _ ( 8.w ( _ _ _ _ _ _ _ _ _ _ _ _ _ _ _ _ _ _ _ _ _ _ _ _ d.- DXCXDXDXDXDXDXDXDXDXDXDXDXDXDXDXDXDXDXDXDXDXDXDXDXDX  DXDXDXDXDXDXDXDXDXDXDXDXDXDXDXDXDXDXDXDXDXDXDXDXDXDX  DX",
"DXDXDX  DXDXDXDXDXDXDXDXDXDXDXDXDXDXDXDXDXDXDXDXDXDXDXDXDXCX; k.( _ _ _ _ _ _ _ _ _ _ _ _ _ _ _ _ _ _ _ _ _ _ ( 0.w [ ! _ _ _ _ _ _ _ _ _ _ _ _ _ _ _ _ _ _ _ _ _ _ _ { w 8.^ _ _ _ _ _ _ _ _ _ _ _ _ _ _ _ _ _ _ _ _ _ ! { k.> [.-X-X-X-X-X-X-X-X-X-X-X-X-X-X-X-X-X-X-X-X-X-X-X-X{.: v.| _ _ _ _ _ _ _ _ _ _ _ _ _ _ _ _ _ _ _ _ _ _ { 0.w { _ _ _ _ _ _ _ _ _ _ _ _ _ _ _ _ _ _ _ _ _ _ _ _ z.* P.`.3X>X1X=X=X-X-X-X-X-X-X-X-X-X-X-X-X-X-X-X-XXX#XU.5 z._ _ _ _ _ _ _ _ _ _ _ _ _ _ _ _ _ _ _ _ _ _ _ ! ( w 0.( _ _ _ _ _ _ _ _ _ _ _ _ _ _ _ _ _ _ _ _ _ _ ( 8.w ( _ _ _ _ _ _ _ _ _ _ _ _ _ _ _ _ _ _ _ _ _ _ _ _ d.- DXCXDXDXDXDXDXDXDXDXDXDXDXDXDXDXDXDXDXDXDXDXDXDXDXDX  DXDXDXDXDXDXDXDXDXDXDXDXDXDXDXDXDXDXDXDXDXDXDXDXDXDX  DX",
"DXDXDX  DXDXDXDXDXDXDXDXDXDXDXDXDXDXDXDXDXDXDXDXDXDXDXDXDXCX; k.( _ _ _ _ _ _ _ _ _ _ _ _ _ _ _ _ _ _ _ _ _ _ ( 0.w [ ! _ _ _ _ _ _ _ _ _ _ _ _ _ _ _ _ _ _ _ _ _ _ _ { w 8.^ _ _ _ _ _ _ _ _ _ _ _ _ _ _ _ _ _ _ _ _ _ ! { k.> [.-X-X-X-X-X-X-X-X-X-X-X-X-X-X-X-X-X-X-X-X-X-X-X-X{.: k.| _ _ _ _ _ _ _ _ _ _ _ _ _ _ _ _ _ _ _ _ _ _ { 8.w { _ _ _ _ _ _ _ _ _ _ _ _ _ _ _ _ _ _ _ _ _ _ _ _ z.* P.`.3X>X1X=X=X-X1X1X-X-X-X-X-X-X-X-X-X-X-X-X-XXX#XU.5 z._ _ _ _ _ _ _ _ _ _ _ _ _ _ _ _ _ _ _ _ _ _ _ ! ( w 0.( _ _ _ _ _ _ _ _ _ _ _ _ _ _ _ _ _ _ _ _ _ _ ( 8.w ( _ _ _ _ _ _ _ _ _ _ _ _ _ _ _ _ _ _ _ _ _ _ _ _ d.- DXCXAXDXDXDXDXDXDXDXDXDXDXDXDXDXDXDXDXDXDXDXDXDXDXDX  DXDXDXDXDXDXDXDXDXDXDXDXDXDXDXDXDXDXDXDXDXDXDXDXDXDX  DX",
"DXDXDX  DXDXDXDXDXDXDXDXDXDXDXDXDXDXDXDXDXDXDXDXDXDXDXDXDXCX; k.( _ _ _ _ _ _ _ _ _ _ _ _ _ _ _ _ _ _ _ _ _ _ ( 0.w [ ! _ _ _ _ _ _ _ _ _ _ _ _ _ _ _ _ _ _ _ _ _ _ _ { w 8.^ _ _ _ _ _ _ _ _ _ _ _ _ _ _ _ _ _ _ _ _ _ ! ( k.> [.-X-X-X-X-X-X-X-X-X-X-X-X-X-X-X-X-X-X-X-X-XXX-X-X[.: k.| _ _ _ _ _ _ _ _ _ _ _ _ _ _ _ _ _ _ _ _ _ _ { 0.w { _ _ _ _ _ _ _ _ _ _ _ _ _ _ _ _ _ _ _ _ _ _ _ _ z.* P.`.3X>X1X=X=X-X1X1X-X-X-X-X-X-X-X-X-X-X-X-X-XXX#XU.5 z._ _ _ _ _ _ _ _ _ _ _ _ _ _ _ _ _ _ _ _ _ _ _ ! ( w 0.( _ _ _ _ _ _ _ _ _ _ _ _ _ _ _ _ _ _ _ _ _ _ ( 9.w ( _ _ _ _ _ _ _ _ _ _ _ _ _ _ _ _ _ _ _ _ _ _ _ _ d.- AXCXAXDXDXDXDXDXDXDXDXDXDXDXDXDXDXDXDXDXDXDXDXDXDXDX  DXDXDXDXDXDXDXDXDXDXDXDXDXDXDXDXDXDXDXDXDXDXDXDXDXDX  DX",
"DXDXDX  DXDXDXDXDXDXDXDXDXDXDXDXDXDXDXDXDXDXDXDXDXDXDXDXDXCX; k.( _ _ _ _ _ _ _ _ _ _ _ _ _ _ _ _ _ _ _ _ _ _ ( 0.w [ ! _ _ _ _ _ _ _ _ _ _ _ _ _ _ _ _ _ _ _ _ _ _ _ { w 8.^ _ _ _ _ _ _ _ _ _ _ _ _ _ _ _ _ _ _ _ _ _ ! ( k.> [.-X-X-X-X-X-X-X-X-X-X-X-X-X-X-X-X-X-X-X-X-X-X-X-X[.: k.| _ _ _ _ _ _ _ _ _ _ _ _ _ _ _ _ _ _ _ _ _ _ { 0.w { _ _ _ _ _ _ _ _ _ _ _ _ _ _ _ _ _ _ _ _ _ _ _ _ z.* P.`.3X>X1X=X=X-X<X1X1X-X-X-X-X-X-X-X-X-X-X-X-XXX#XU.5 z._ _ _ _ _ _ _ _ _ _ _ _ _ _ _ _ _ _ _ _ _ _ _ ! ( w 0.( _ _ _ _ _ _ _ _ _ _ _ _ _ _ _ _ _ _ _ _ _ _ ( 9.w ( _ _ _ _ _ _ _ _ _ _ _ _ _ _ _ _ _ _ _ _ _ _ _ _ d.- AXCXAXDXDXDXDXDXDXDXDXDXDXDXDXDXDXDXDXDXDXDXDXDXDXDX  DXDXDXDXDXDXDXDXDXDXDXDXDXDXDXDXDXDXDXDXDXDXDXDXDXDX  DX",
"DXDXDX  DXDXDXDXDXDXDXDXDXDXDXDXDXDXDXDXDXDXDXDXDXDXDXDXDXCX; k.( _ _ _ _ _ _ _ _ _ _ _ _ _ _ _ _ _ _ _ _ _ _ ( 0.w [ ! _ _ _ _ _ _ _ _ _ _ _ _ _ _ _ _ _ _ _ _ _ _ _ { w 8.^ _ _ _ _ _ _ _ _ _ _ _ _ _ _ _ _ _ _ _ _ _ ! ( k.> [.-X-X-X-X-X-X-X-X-X-X-X-X-X-X-X-X-X-X-X1X1X>X>X-X[.: k.| _ _ _ _ _ _ _ _ _ _ _ _ _ _ _ _ _ _ _ _ _ _ { 0.w { _ _ _ _ _ _ _ _ _ _ _ _ _ _ _ _ _ _ _ _ _ _ _ _ z.* P.`.3X>X1X=X=X=X<X<X1X-X-X-X-X-X-X-X-X-X-X-X-XXX#XU.5 z._ _ _ _ _ _ _ _ _ _ _ _ _ _ _ _ _ _ _ _ _ _ _ ! ( w 0.( _ _ _ _ _ _ _ _ _ _ _ _ _ _ _ _ _ _ _ _ _ _ ( 9.w ( _ _ _ _ _ _ _ _ _ _ _ _ _ _ _ _ _ _ _ _ _ _ _ _ d.- AXCXAXDXDXDXDXDXDXDXDXDXDXDXDXDXDXDXDXDXDXDXDXDXDXDX  DXDXDXDXDXDXDXDXDXDXDXDXDXDXDXDXDXDXDXDXDXDXDXDXDXDX  DX",
"DXDXDX  CXCXCXCXCXCXCXCXCXCXCXCXCXCXCXCXCXCXCXCXCXCXCXCXCXVX; y.a.( ( ( ( ( ( ( ( ( ( ( ( ( ( ( ( ( ( ( ( ( ( a.e.0 a./ ( ( ( [ ( ( ( ( / ( ( ( ( ( ( ( ( ( ( ( ( ( ( a.0 y.W [ ( ( ( ( ( ( ( ( ( ( ( ( ( ( ( { { { ( ( ( s.y.O Q.+X+X+X+X+X+X+X+X+X+X+X+X+X+X+X#X#X#X#X#X#X#X#X+XQ.* M.v.z.z.z.z.z.z.z.z.z.z.z.z.z.z.z.z.z.z.z.z.....v.M.< v.z.z.z.............z.z.z.z.z.z.z.z.z.z.z.z.z.z.z.M.% I (.%X#X#X+X+X+X#X#X+X+X+X+X+X+X+X+X+X+X+X+X#X.X'.I.* v./ / / ( ( ( ( ( ( ( ( ( ( ( ( ( ( ( ( / / / ( ) d.q y.a.( ( ( ( ( ( ( ( ( ( ( ( ( ( ( ( ( ( ( ( { ( a.e.0 a.( / / / / ( ( ( ( ( ( ( ( ( ( ( ( ( ( ( ( / / ( l.- AXVXVXCXCXCXCXCXCXCXCXCXCXCXCXCXCXCXCXCXCXCXCXCXCXAX  DXDXDXDXDXDXDXDXDXDXDXDXDXDXDXDXDXDXDXDXDXDXDXDXDXDX  DX",
"  X   . - ; , , , , , , , , , , , , , , , , , , , , , , , , - - 0 q q q q q w q q q q q q q q q q q q q q q q 0 ; O q w q q q q w w w w w w w w w w w w w w w w w w w 0 - - < q q w w w w w w w w w w w w w w w w w q q w q ;   G K K L K K K K K K K K K K K K K K K K L L L K J G # $ * % % % % % % % % % % % % % % % % % % % 5 5 % % % % * % % % % % % % % % % % % % % % % % % % % % % % % % 2 7 H K K K K K K K K K K K K K K L L L K K K K L H 7   < w q w w w w w w w w w w w w w w w w w w q q q w 0 - ; q w w w w w w w w w w w w w w w w w w w w w w q , O 0 w w q w w w w w w w w w w w w w w w w w w w w w 0 o O O - ; ; ; ; ; ; ; ; ; ; ; ; ; ; ; ; ; ; - - ; ; O .                                                 X       ",
"DXDXAX. u.8.q.q.q.8.8.8.8.0.0.0.0.t.0.0.t.8.t.r.r.r.8.q.q.y.; m.y.9.w.w.w.w.0.0.0.0.w.w.0.0.0.0.r.r.r.r.r.r.r.y.m.; e.q.9.w.0.0.r.k.k.k.k.k.k.0.k.k.k.k.c.c.k.k.0.k.k.y.; m.u.9.0.k.k.k.k.k.k.0.0.0.0.0.0.0.0.r.v.v.r.0.q.e.m.. U Y.Y.Y.Y.Y.Y.Y.Y.Y.T.T.T.T.Y.T.T.T.T.T.T.Y.T.Y.L.I G U I L.L.L.L.L.L.L.L.K.L.L.L.L.L.L.L.L.L.L.Y.Y.L.I.U 7 !.I.L.L.L.L.L.L.L.L.L.L.L.L.L.L.L.L.L.L.L.L.L.L.L.I 7 U P.T.L.L.L.Y.Y.U.U.U.U.U.U.U.U.U.U.R.R.R.R.R.Y.I.Y $ M.r.0.0.k.v.v.v.v.v.c.c.v.r.r.r.r.r.r.r.r.r.w.w.q.w., m.y.v.c.v.v.v.v.v.v.v.v.v.v.v.v.v.v.v.c.c.v.v.v.y.N., e.q.w.w.0.0.0.r.r.r.r.r.r.v.v.v.v.v.v.v.c.k.q.w.q.y., m.u.w.9.0.0.0.0.0.0.0.0.0.0.0.0.0.0.r.t.r.w.9.q.w.m.O HXDXDXDXDXDXDXDXDXDXDXDXDXDXDXDXDXDXDXDXDXDXDXDXDXDXX AX",
"ZXDXDXO l.{ ( ) ( { { { { { { { { } } } } } } } { [ [ g./ f.w 0.d.^ ^ ^ / / ^ / ^ / ^ / / / / / / / / / / / / a.y.q a.^ ^ / ( ( ( / / / / / / / / / / / / / / / / / / f.q u.a.h./ / / / / / / / / / / / / / / / } } / ^ g.d.y.: U.+X+X+X+X+X+X+X+X+X+X+X+X+X+X+X+X+X+X+X+X+X+X+X).].K T._.+X).).).+X+X+X+X+X+X+X+X+X+X+X+X+X+X+X+X@X+X'.K.H '.).).+X+X+X+X+X+X+X+X+X+X+X+X+X+X+X+X+X+X+X+X+X+X(.H W.'.#X#X#X#X#X#X#X#X#X#X#X+X+X+X+X+X+X+X+X@X+X`.(.I * v.{ ( ( { | | | | | { { { { { { { { { { } { h.h.Q p.q 9.s.| | | { { { { { { { { { { { { { { { { | | | W b.w f./ ( ( ( { { { { { { { { { { { { { | | { ( g.g.( d.q t.a./ ( { { { { { { { { { { { { { { { } [ [ h./ f.9.; CXDXDXDXDXDXDXDXDXDXDXDXDXDXDXDXDXDXDXDXDXDXDXDXAXDX  DX",
"DXDXDX- s._ _ _ _ _ _ _ _ _ _ _ _ _ _ _ _ _ _ _ ' _ _ _  .) e l.( _ _ _ _ _ _ _ _ _ _ ` ` _ _ _ ' ' ' ' ' ' ' { 8.w Q  ._ _ _ _ _ ' _ _ _ _ _ _ _ _ _ _ _ _ _ _ _ _ _ ( q q.( _ _ ' _ _ _ _ _ _ _ _ _ _ _ _ _ _ ' _ _ _ ] g.k.- [.=X=X=X=X=X=X=X=X=X=X=X-X-X=X-X-X-X-X-X=X=X-X=XoX%XP (.%X-X*X*X-X2X2X2X2X2X2X2X2X2X2X2X2X2X2X-X;X;X-X@XR.K $X*X-X1X1X1X1X1X1X1X1X1X1X1X1X1X1X1X1X1X1X1X1X1X1X#XL U.#X-XXX>X,X,XXXOX&X*X*X*X*X*XoXoX&X=X=X=X=XoX*X'.W.1 z.' _ _ _ _ _ _ _ _ _ _ _ _ _ _ _ _ _ ' _ ' _ `  .g.w l.| _ _ _ _ _ _ _ _ _ _ _ _ _ _ _ _ _ _ _ _ _ _ | n.e / _ _ _ _ _ _ _ _ _ _ _ _ _ _ _ _ _ _ _ _ _ ` ` ` ( e c.( _ _ _ _ _ _ _ _ _ _ _ _ _ _ _ _ _ _ ' ] ` ] g.l., CXDXDXDXDXDXDXDXDXDXDXDXDXDXDXDXDXDXDXDXDXDXDXDXHXDX  DX",
"AXAXDX- s._ _ _ _ _ _ _ _ _ _ _ _ _ _ _ _ _ _ _ ' _ _ _ ` / w k.( _ _ _ _ _ _ _ _ _ _ _ _ _ _ _ _ _ _ _ _ _ _ ( 0.w / _ _ _ _ _ _ _ _ _ _ _ _ _ _ _ _ _ _ _ _ _ _ _ _ / 0 w.^ _ _ _ _ _ _ _ _ _ _ _ _ _ _ _ _ _ _ _ _ _ ~ / 0.: /.-X-X-X-X-X-X-X*XXX*X*XXXXXXXXXXXXXXXXXXXXXXXXX2X#XL R.%X1X*X*X*X-X1X1X>X>X-X-X-X-X-X-X1X1X>X-X&X&X-X+XT.K #X*X-X-X-X-X-X-X-X-X>X1X1X1X-X-X-X-X-X-X-X-X-X-X-X#XK L.).*X-X1X<X=X&X&X&X&X&X&X&X&X*X*X*X*X-X-X-X-X*X`.I.* .._ _ _ _ _ _ _ _ _ _ _ _ _ _ _ _ _ _ _ _ _ ' _ ~ / w 9.( _ _ _ _ _ _ _ _ _ _ _ _ _ _ _ _ _ _ _ _ _ _ { 8.w [ ` _ _ _ _ _ _ _ _ _ _ _ _ _ _ _ _ _ _ _ _ _ _ _ / q t.} ! _ _ _ _ _ _ _ _ _ _ _ _ _ _ _ _ _ _ _ _ ] h.9.; CXDXDXDXDXDXDXDXDXDXDXDXDXDXDXDXDXDXDXDXDXDXDXDXDXDX  DX",
"AXAXDX- a._ _ _ _ _ _ _ _ _ _ _ _ _ _ _ _ _ _ _ _ _ _ _ _ / q r.( _ _ _ _ _ _ _ _ _ _ _ _ _ _ _ _ _ _ _ _ _ _ ( 9.w / _ _ _ _ _ _ _ _ _ _ _ _ _ _ _ _ _ _ _ _ _ _ _ _ / q w.^ _ _ _ _ _ _ _ _ _ _ _ _ _ _ _ _ _ _ _ _ _ _ [ 0.: /.XXXXXXXXXXXXXX*XXXXXXXXXXXXXXXXXXXXXXXXXXXXXXX2X%XL R.#X-X*XXX*XXXXXXXXXXXXXXXXXXXXXXXXXXXXX-X&X&X*X`.T.K $XXX-X-X-X-X-X-X-X-XXXXX-X-X-X-X-X-X-X-X-X-X-X-X-X#XK L.).-X1X1X<X=X&X&X&X&X&X&X&X&X*X*X*X*X-X-X-X-X-X#XP.* x._ _ _ _ _ _ _ _ _ _ _ _ _ _ _ _ _ _ _ _ _ _ _ _ [ w 0.( _ _ _ _ _ _ _ _ _ _ _ _ _ _ _ _ _ _ _ _ _ _ ( 8.w [ ' _ _ _ _ _ _ _ _ _ _ _ _ _ _ _ _ _ _ _ _ _ _ _ [ w r.} ! _ _ _ _ _ _ _ _ _ _ _ _ _ _ _ _ _ _ _ _ ~ [ 9.; CXDXDXDXDXDXDXDXDXDXDXDXDXDXDXDXDXDXDXDXDXDXDXDXDXDX  DX",
"AXAXDX- a.] ] _ _ _ _ _ _ _ _ _ _ _ _ _ _ _ _ _ _ _ _ _ _ [ q r.( _ _ _ _ _ _ _ _ _ _ _ _ _ _ _ _ _ _ _ _ _ _ ( 0.w / _ _ _ _ _ _ _ _ _ _ _ _ _ _ _ _ _ _ _ _ _ _ _ _ ( w q.) _ _ _ _ _ _ _ _ _ _ _ _ _ _ _ _ _ _ _ _ _ ! { v.: /.-X-X-X*X*X-XXXXXXX*X*X-X-X-X-X-X-X-XXXXXXXXXXX2X%XL R.#X*X*X*X*X*X*X*XXXXX-X-X*X*X*X*X*XXX*X-X&X=X&X).T.K #XXX*X*X-X-X-X-X-X-X-X-X-X-X*X*X-X-X-X-X-X-X-X-X-X#XK U.#X1X>X>X=X=X*X*X&X*XXXXXXX*X-X-X-X-X-X-X-X-X-X#XP.* x._ _ _ _ _ _ _ _ _ _ _ _ _ _ _ _ _ _ _ _ _ _ _ ! | e 0.( _ _ _ _ _ _ _ _ _ _ _ _ _ _ _ _ _ _ _ _ _ _ ( v.e | ' ! ! _ ' _ _ _ _ _ _ _ _ _ _ _ _ _ _ _ _ _ _ _ ( e k.| ! _ _ _ _ _ _ _ _ _ _ _ _ _ _ _ _ _ _ _ _ _ } t.; CXDXDXDXDXDXDXDXDXDXDXDXDXDXDXDXDXDXDXDXDXDXDXDXDXDX  DX",
"CXAXDX- a.] ] ' _ _ _ _ _ _ _ _ _ _ _ _ _ _ _ _ _ _ _ _ _ [ q r.{ _ _ _ _ _ _ _ _ _ _ _ _ _ _ _ _ _ _ _ _ _ _ ( 8.w / _ _ _ _ ] _ _ _ _ _ _ _ _ _ _ _ _ _ _ _ _ _ _ _ ( w l.^ _ _ _ _ _ _ _ _ _ _ _ _ _ _ _ _ _ _ _ _ _ ! { v.: /.-X-X-X-X-X-XXXXXXX*X*X-XXXXX-X-X-X-X-XXXXXXX-X2X%XL T.`.*X*X-X*X*X*X*X*X*X*X*X-X-X-X-X*X*X*X-X-X=X*X).T.K %XXX-X*X-X-X-X-X-X-X*X*X*X*X*X*X*X*X-X-X-X-X-X-X-X#XK R.#X>X>X>X-X-X-XXX*X*XXX*X*X*X-X-X-X-X-X-X-X-X-X#XL.* a._ _ _ _ _ _ _ _ _ _ _ _ _ _ _ _ _ _ _ _ _ _ _ ! | e k.( _ _ _ _ _ _ _ _ _ _ _ _ _ _ _ _ _ _ _ _ _ _ ( k.e | _ ! _ _ _ _ _ _ _ _ _ _ _ _ _ _ _ _ _ _ _ _ _ _ ( e v.( _ _ _ _ _ _ _ _ _ _ _ _ _ _ _ _ _ _ _ _ _ ! } t.; CXDXDXDXDXDXDXDXDXDXDXDXDXDXDXDXDXDXDXDXDXDXDXDXDXDX  DX",
"CXAXDX- p._ _ _ _ _ _ _ _ _ _ _ _ _ _ _ _ _ _ _ _ _ _ _ _ [ w r.{ _ _ _ _ _ _ _ _ _ _ _ _ _ _ _ _ _ _ _ _ _ _ ( 0.w [ _ _ _ _ _ _ _ _ _ _ _ _ _ _ _ _ _ _ _ _ _ _ _ _ ( w 8.^ _ _ _ _ _ _ _ _ _ _ _ _ _ _ _ _ _ _ _ _ _ _ { k.> /.-X-X-X-X-X-X-X-X-X-X-X-X-X-X-X-X-X-X-X-X-X-X-X1X+XK L.+X*X*XXX-X-X-X*X-X-X-X-X-X-X-X-X-X-X-X-X&X-X*X`.T.K $X-X-X-X-X-X-X-X-X-X-X-X-X-X-X-X-X-X-X-X-X-X-X-X-X#XK U.#XXXXX-X-X-X-X-X-X-X-X-X-X-X-X-X-X-X-X-X-X-X=X+XL.* x._ _ _ _ _ _ _ _ _ _ _ _ _ _ _ _ _ _ _ _ _ _ _ ! } e c.( _ _ _ _ _ _ _ _ _ _ _ _ _ _ _ _ _ _ _ _ _ _ ( 8.w ( _ _ _ _ _ _ _ _ _ _ _ _ _ _ _ _ _ _ _ _ _ _ _ _ ( e v./ _ _ _ _ _ _ _ _ _ _ _ _ _ _ _ _ _ _ _ _ _ _ } r., CXDXDXDXDXDXDXDXDXDXDXDXDXDXDXDXDXDXDXDXDXDXDXDXDXDX  DX",
"CXCXDX- p._ _ _ _ _ _ _ _ _ _ _ _ _ _ _ _ _ _ _ _ _ _ _ _ / w r.{ _ _ _ _ _ _ _ _ _ _ _ _ _ _ _ _ _ _ _ _ _ _ ( 0.w [ ~ _ _ _ _ _ _ _ _ _ _ _ _ _ _ _ _ _ _ _ _ _ _ _ ( w 8.^ _ _ _ _ _ _ _ _ _ _ _ _ _ _ _ _ _ _ _ _ _ _ { k.> /.-X-X-X-X-X-X-X-X-X-X-X-X-X-X-X-X-X-X-X-X-X-X-X1X+XJ L.+X*XXXXX-X-X-X*X*X-X-X-X-X-X-X-X=X-X-X-X-X*X*X#XT.K $X-X-X-X-X-X-X-X-X-X-X-X-X-X-X-X-X-X-X-X-X-X-X-X-X#XK U.#XXX*X*X-X=X-X-X-X-X-X-X-X-X-X-X-X-X-X-X-X-X=X+XL.& .._ _ _ _ _ _ _ _ _ _ _ _ _ _ _ _ _ _ _ _ _ _ _ ! [ e r.( _ _ _ _ _ _ _ _ _ _ _ _ _ _ _ _ _ _ _ _ _ _ ( 8.w / _ _ _ _ _ _ _ _ _ _ _ _ _ _ _ _ _ _ _ _ _ _ _ _ ( e r./ _ _ _ _ _ _ _ _ _ _ _ _ _ _ _ _ _ _ _ _ _ _ } r., CXDXDXDXDXDXDXDXDXDXDXDXDXDXDXDXDXDXDXDXDXDXDXDXDXDX  DX",
"CXCXDX- p._ _ _ _ _ _ _ _ _ _ _ _ _ _ _ _ _ _ _ _ _ _ _ _ / w r.{ _ _ _ _ _ _ _ _ _ _ _ _ _ _ _ _ _ _ _ _ _ _ ( 0.w [ ~ _ _ _ _ _ _ _ _ _ _ _ _ _ _ _ _ _ _ _ _ _ _ _ ( w 8.^ _ _ _ _ _ _ _ _ _ _ _ _ _ _ _ _ _ _ _ _ _ _ ( k.> /.-X-X-X1X-X-X1X-X-X-X-X-X-X-X-X-X-X-X-X-X-X-X-X1X+XJ L.+X*X*X*X-X-X*X*X*X*X-X-X-X-X-X-X=X=X-X-X-X*X*X#XT.K $X-X-X-X-X-X-X-X-X-X-X-X-X-X-X-X-X-X-X-X-X-X-X-X-X#XK U.#XXX*X*X-X=X-X-X=X-X-X-X-X-X-X-X-X-X-X-X-X-X-X+XY.& x._ _ _ _ _ _ _ _ _ _ _ _ _ _ _ _ _ _ _ _ _ _ _ ! [ e v.( _ _ _ _ _ _ _ _ _ _ _ _ _ _ _ _ _ _ _ _ _ _ ( 8.w / _ _ _ _ _ _ _ _ _ _ _ _ _ _ _ _ _ _ _ _ _ _ _ _ ( e r.[ _ _ _ _ _ _ _ _ _ _ _ _ _ _ _ _ _ _ _ _ _ _ { r., CXDXDXDXDXDXDXDXDXDXDXDXDXDXDXDXDXDXDXDXDXDXDXDXDXDX  DX",
"CXCXDX- p._ _ _ _ _ _ _ _ _ _ _ _ _ _ _ _ _ _ _ _ _ _ _ _ / w r.{ _ _ _ _ _ _ _ _ _ _ _ _ _ _ _ _ _ _ _ _ _ _ ( k.w [ ~ _ _ _ _ _ _ _ _ _ _ _ _ _ _ _ _ _ _ _ _ _ _ _ ( w 8.^ _ _ _ _ _ _ _ _ _ _ _ _ _ _ _ _ _ _ _ _ _ _ ( k.> /.-X-X-X1X1X-X1X-X-X-X-X-X-X-X-X-X-X-X-X-X-X-X-X1X+XJ L.+X*X-X*X-X-X*X*X*X*X-X-X-X-X-X=X=X=X-X-X-X*X*X#XT.K $X-X-X-X-X-X-X-X-X-X-X-X-X-X-X-X-X-X-X-X-X-X-X-X-X#XK U.#XXX*X*X-X=X-X-X=X=X=X=X-X-X-X-X-X-X-X-X-X-X-X+XY.& x._ _ _ _ _ _ _ _ _ _ _ _ _ _ _ _ _ _ _ _ _ _ _ ! [ e v.( _ _ _ _ _ _ _ _ _ _ _ _ _ _ _ _ _ _ _ _ _ _ ( 8.w / _ _ _ _ _ _ _ _ _ _ _ _ _ _ _ _ _ _ _ _ _ _ _ _ ( e r./ _ _ _ _ _ _ _ _ _ _ _ _ _ _ _ _ _ _ _ _ _ _ { r., CXDXDXDXDXDXDXDXDXDXDXDXDXDXDXDXDXDXDXDXDXDXDXDXDXDX  DX",
"CXCXDXO p._ _ _ _ _ _ _ _ _ _ _ _ _ _ _ _ _ _ _ _ _ _ _ _ / w r.{ _ _ _ _ _ _ _ _ _ _ _ _ _ _ _ _ _ _ _ _ _ _ ( k.w [ _ _ _ _ _ _ _ _ _ _ _ _ _ _ _ _ _ _ _ _ _ _ _ _ ( w 8.^ _ _ _ _ _ _ _ _ _ _ _ _ _ _ _ _ _ _ _ _ _ _ { k.> /.1X-X-X-X-X1X1X-X-X-X-X-X-X-X-X-X-X-X-X-X-X-X-X1X+XJ L.).-X*X*X-X-X-X-X-X-X-X-X-X-X-X-X-X-X-X-X-X*X*X#XT.K $X-X-X-X-X-X-X-X-X-X-X-X-X-X-X-X-X-X-X-X-X-X-X-X-X#XK U.#XXX*X*X-X=X-X-X-X-X-X-X-X-X-X-X-X-X-X-X-X-X-X+XY.& x._ _ _ _ _ _ _ _ _ _ _ _ _ _ _ _ _ _ _ _ _ _ _ ! { e v.( _ _ _ _ _ _ _ _ _ _ _ _ _ _ _ _ _ _ _ _ _ _ ( 8.w / _ _ _ _ _ _ _ _ _ _ _ _ _ _ _ _ _ _ _ _ _ _ _ _ ( e 0./ _ _ _ _ _ _ _ _ _ _ _ _ _ _ _ _ _ _ _ _ _ _ { r., CXDXDXDXDXDXDXDXDXDXDXDXDXDXDXDXDXDXDXDXDXDXDXDXDXDX  DX",
"CXCXDXO p._ _ _ _ _ _ _ _ _ _ _ _ _ _ _ _ _ _ _ _ _ _ _ _ / w 0.( _ _ _ _ _ _ _ _ _ _ _ _ _ _ _ _ _ _ _ _ _ _ ( k.w [ _ _ _ _ _ _ _ _ _ _ _ _ _ _ _ _ _ _ _ _ _ _ _ _ ( w 8.^ _ _ _ _ _ _ _ _ _ _ _ _ _ _ _ _ _ _ _ _ _ _ { k.> /.1X1X1X1X1X1X1X-X-X-X-X-X-X-X-X-X-X-X-X-X-X-X-X1X+XJ L.).-X*X*X-X-X*X*X-X-X-X-X-X=X-X-X-X-X-X-X-X*X*X#XT.K $X-X-X-X-X-X-X-X-X-X-X-X-X-X-X-X-X-X-X-X-X-X-X-X-X#XK U.#XXX*X*X-X=X-X-X-X-X-X-X-X-X-X-X-X-X-X-X-X-X-X+XY.& .._ _ _ _ _ _ _ _ _ _ _ _ _ _ _ _ _ _ _ _ _ _ _ ! { e v.( _ _ _ _ _ _ _ _ _ _ _ _ _ _ _ _ _ _ _ _ _ _ ( 8.w / _ _ _ _ _ _ _ _ _ _ _ _ _ _ _ _ _ _ _ _ _ _ _ _ ( e 0./ _ _ _ _ _ _ _ _ _ _ _ _ _ _ _ _ _ _ _ _ _ _ { r., CXDXDXDXDXDXDXDXDXDXDXDXDXDXDXDXDXDXDXDXDXDXDXDXDXDX  DX",
"CXCXDXO p._ _ _ _ _ _ _ _ _ _ _ _ _ _ _ _ _ _ _ _ _ _ _ _ / w 0.( _ _ _ _ _ _ _ _ _ _ _ _ _ _ _ _ _ _ _ _ _ _ ( k.w [ _ _ _ _ _ _ _ _ _ _ _ _ _ _ _ _ _ _ _ _ _ _ _ _ ( w 8.^ _ _ _ _ _ _ _ _ _ _ _ _ _ _ _ _ _ _ _ _ _ _ { k.> /.-X-X-X-X-X-X-X-X-X-X-X-X-X-X-X-X-X-X-X-X-X-X-X1X+XJ L.).-X*X*X-X-X*X*X-X-X-X-X-X-X-X-X-X-X-X-X-X*X*X#XT.K $X-X-X-X-X-X*X-X-X-X-X-X-X-X-X-X-X-X-X-X-X-X-X-X-X#XK U.+X-X*X-X-X=X-X-X-X-X-X-X-X-X-X-X-X-X-X-X-X-X-X+XU.& .._ _ _ _ _ _ _ _ _ _ _ _ _ _ _ _ _ _ _ _ _ _ _ _ [ w r.( _ _ _ _ _ _ _ _ _ _ _ _ _ _ _ _ _ _ _ _ _ _ ( 0.w / _ _ _ _ _ _ _ _ _ _ _ _ _ _ _ _ _ _ _ _ _ _ _ _ ( e 0./ _ _ _ _ _ _ _ _ _ _ _ _ _ _ _ _ _ _ _ _ _ _ { r.; CXDXDXDXDXDXDXDXDXDXDXDXDXDXDXDXDXDXDXDXDXDXDXDXDXDX  DX",
"CXCXDXO p._ _ _ _ _ _ _ _ _ _ _ _ _ _ _ _ _ _ _ _ _ _ _ _ / w 0.( _ _ _ _ _ _ _ _ _ _ _ _ _ _ _ _ _ _ _ _ _ _ ( k.w / _ _ _ _ _ _ _ _ _ _ _ _ _ _ _ _ _ _ _ _ _ _ _ _ ( w 8.^ _ _ _ _ _ _ _ _ _ _ _ _ _ _ _ _ _ _ _ _ _ _ { k.> /.-X-X-X-X-X-X-X-X-X-X-X-X-X-X-X-X-X-X-X-X-X-X-X1X+XJ L.).-X*X*X-X-X-X-X-X-X-X-X-X-X-X-X-X-X-X-X-X*X*X#XT.K $X-X-X-X-X-X-X-X-X-X-X-X-X-X-X-X-X-X-X-X-X-X-X-X-X#XK U.+X-X*X-X=X=X-X-X-X-X-X-X-X-X-X-X-X-X-X-X-X-X=X+XY.& .._ _ _ _ _ _ _ _ _ _ _ _ _ _ _ _ _ _ _ _ _ _ _ _ [ w r.( _ _ _ _ _ _ _ _ _ _ _ _ _ _ _ _ _ _ _ _ _ _ ( 0.w / _ _ _ _ _ _ _ _ _ _ _ _ _ _ _ _ _ _ _ _ _ _ _ _ ( e 0./ _ _ _ _ _ _ _ _ _ _ _ _ _ _ _ _ _ _ _ _ _ _ { r.; CXDXDXDXDXDXDXDXDXDXDXDXDXDXDXDXDXDXDXDXDXDXDXDXDXDX  DX",
"CXCXDXO p._ _ _ _ _ _ _ _ _ _ _ _ _ _ _ _ _ _ _ _ _ _ _ _ / w 0.( _ _ _ _ _ _ _ _ _ _ _ _ _ _ _ _ _ _ _ _ _ _ ( k.w / ~ _ _ _ _ _ _ _ _ _ _ _ _ _ _ _ _ _ _ _ _ _ _ _ ( w 8.^ _ _ _ _ _ _ _ _ _ _ _ _ _ _ _ _ _ _ _ _ _ ! { v.> /.-X-X-X-X-X-X-X-X-X-X-X-X-X-X-X-X-X-X-X-X-X-X-X1X+XJ L.+X*X*X-X-X-X-X-X-X-X-X-X-X-X-X-X-X-X-X-X-X*X*X#XT.K $X-X-X-X-X-X-X-X-X-X-X-X-X-X-X-X-X-X-X-X-X-X-X-X-X#XK U.+X-X*X-X=X=X-X-X-X-X-X-X-X-X-X-X-X-X-X-X-X-X=X+XY.& .._ _ _ _ _ _ _ _ _ _ _ _ _ _ _ _ _ _ _ _ _ _ _ _ [ w r.( _ _ _ _ _ _ _ _ _ _ _ _ _ _ _ _ _ _ _ _ _ _ ( 8.w / _ _ _ _ _ _ _ _ _ _ _ _ _ _ _ _ _ _ _ _ _ _ _ _ ( e 0./ _ _ _ _ _ _ _ _ _ _ _ _ _ _ _ _ _ _ _ _ _ _ { t.; CXDXDXDXDXDXDXDXDXDXDXDXDXDXDXDXDXDXDXDXDXDXDXDXDXDX  DX",
"CXCXDXO p._ _ _ _ _ _ _ _ _ _ _ _ _ _ _ _ _ _ _ _ _ _ _ _ / w 0.( _ _ _ _ _ _ _ _ _ _ _ _ _ _ _ _ _ _ _ _ _ _ ( l.w / ~ _ _ _ _ _ _ _ _ _ _ _ _ _ _ _ _ _ _ _ _ _ _ _ ( w 8.^ _ _ _ _ _ _ _ _ _ _ _ _ _ _ _ _ _ _ _ _ _ ! { v.> /.-X-X-X-X-X-X-X-X-X-X-X-X-X-X-X-X-X-X-X-X-X-X-X1X+XJ L.+X*X*X-X-X-X-X-X-X-X-X-X-X-X-X-X*X*X-X-X-X*X*X#XT.K $X-X-X-X-X-X-X-X-X-X-X-X-X-X-X-X-X-X-X-X-X-X-X-X-X#XK U.+X-X-X-X=X=X-X-X-X-X-X-X-X-X-X-X-X-X-X-X-X-X-X+XY.& .._ _ _ _ _ _ _ _ _ _ _ _ _ _ _ _ _ _ _ _ _ _ _ _ [ w r.( _ _ _ _ _ _ _ _ _ _ _ _ _ _ _ _ _ _ _ _ _ _ ( 8.w / _ _ _ _ _ _ _ _ _ _ _ _ _ _ _ _ _ _ _ _ _ _ _ _ ( e 0.[ _ _ _ _ _ _ _ _ _ _ _ _ _ _ _ _ _ _ _ _ _ _ { t.; CXDXDXDXDXDXDXDXDXDXDXDXDXDXDXDXDXDXDXDXDXDXDXDXDXDX  DX",
"CXCXDXO p._ _ _ _ _ _ _ _ _ _ _ _ _ _ _ _ _ _ _ _ _ _ _ _ / w 0.( _ _ _ _ _ _ _ _ _ _ _ _ _ _ _ _ _ _ _ _ _ _ ( l.w / _ _ _ _ _ _ _ _ _ _ _ _ _ _ _ _ _ _ _ _ _ _ _ _ ( w 8.^ _ _ _ _ _ _ _ _ _ _ _ _ _ _ _ _ _ _ _ _ _ ! { v.> /.-X-X-X-X-X-X-X-X-X-X-X-X-X-X-X-X-X-X-X-X-X-X-X1X+XJ L.+X*X-X-X-X-X-X-X-X-X-X-X-X-X-X*X*X*X-X-X-X*X*X#XT.K $X-X-X-X-X-X*X*X*X*X-X-X-X-X-X-X-X-X-X-X-X-X-X-X-X#XK U.+X-X-X-X=X=X-X-X-X-X-X-X-X-X-X-X-X-X-X-X-X-X-X+XY.& .._ _ _ _ _ _ _ _ _ _ _ _ _ _ _ _ _ _ _ _ _ _ _ _ [ w r.( _ _ _ _ _ _ _ _ _ _ _ _ _ _ _ _ _ _ _ _ _ _ ( 8.w / _ _ _ _ _ _ _ _ _ _ _ _ _ _ _ _ _ _ _ _ _ _ _ _ { e 0.[ _ _ _ _ _ _ _ _ _ _ _ _ _ _ _ _ _ _ _ _ _ _ [ r.; CXDXDXDXDXDXDXDXDXDXDXDXDXDXDXDXDXDXDXDXDXDXDXDXDXDX  DX",
"CXCXDXO p._ _ _ _ _ _ _ _ _ _ _ _ _ _ _ _ _ _ _ _ _ _ _ _ / w 0.( _ _ _ _ _ _ _ _ _ _ _ _ _ _ _ _ _ _ _ _ _ _ ( l.w / _ _ _ _ _ _ _ _ _ _ _ _ _ _ _ _ _ _ _ _ _ _ _ _ ( w 8.^ _ _ _ _ _ _ _ _ _ _ _ _ _ _ _ _ _ _ _ _ _ ! } v.> /.-X-X-X-X-X-X-X-X-X-X-X-X-X-X-X-X-X-X-X-X-X-X-X1X+XJ L.).*X*X-X-X-X-X-X-X-X-X-X-X-X-X*X*X*X-X-X-X*X*X#XT.K $X-X-X-X-X-X*X*X*X*X-X-X-X-X-X-X-X-X-X-X-X-X-X-X-X#XK U.+X-X-X-X=X=X-X-X-X-X-X-X-X-X-X-X-X-X-X-X-X-X-X+XY.& .._ _ _ _ _ _ _ _ _ _ _ _ _ _ _ _ _ _ _ _ _ _ _ _ [ w r.( _ _ _ _ _ _ _ _ _ _ _ _ _ _ _ _ _ _ _ _ _ _ ( 8.w / ' _ _ _ _ _ _ _ _ _ _ _ _ _ _ _ _ _ _ _ _ _ _ _ | e 0.[ _ _ _ _ _ _ _ _ _ _ _ _ _ _ _ _ _ _ _ _ _ ~ [ r.; CXDXDXDXDXDXDXDXDXDXDXDXDXDXDXDXDXDXDXDXDXDXDXDXDXDX  DX",
"CXCXDX- p._ _ _ _ _ _ _ _ _ _ _ _ _ _ _ _ _ _ _ _ _ _ _ _ / w 0.( _ _ _ _ _ _ _ _ _ _ _ _ _ _ _ _ _ _ _ _ _ _ ( 8.w / _ _ _ _ _ _ _ _ _ _ _ _ _ _ _ _ _ _ _ _ _ _ _ _ ( w 8.^ _ _ _ _ _ _ _ _ _ _ _ _ _ _ _ _ _ _ _ _ _ _ { v.> /.-X-X-X-X-X-X-X-X-X-X-X-X-X-X-X-X-X-X-X-X-X-X-X1X+XJ L.).-X*X-X-X-X-X-X-X-X-X-X*X*X*X*X-X*X*X-X-X*X*X#XT.K $X-X*X*X*X*X-X*X*X*X-X-X-X-X-X-X-X-X-X-X-X-X-X-X-X#XK U.+X-X-X-X=X=X-X*X*X*X-X-X-X-X-X-X-X-X-X-X-X-X-X+XU.& .._ _ _ _ _ _ _ _ _ _ _ _ _ _ _ _ _ _ _ _ _ _ _ _ [ w r.( _ _ _ _ _ _ _ _ _ _ _ _ _ _ _ _ _ _ _ _ _ _ { 8.w / _ _ _ _ _ _ _ _ _ _ _ _ _ _ _ _ _ _ _ _ _ _ _ _ ( e 0./ _ _ _ _ _ _ _ _ _ _ _ _ _ _ _ _ _ _ _ _ _ ~ [ r.; CXDXDXDXDXDXDXDXDXDXDXDXDXDXDXDXDXDXDXDXDXDXDXDXDXDX  DX",
"CXCXDX- p._ _ _ _ _ _ _ _ _ _ _ _ _ _ _ _ _ _ _ _ _ _ _ _ / w 0.( _ _ _ _ _ _ _ _ _ _ _ _ _ _ _ _ _ _ _ _ _ _ ( 8.w / _ _ _ _ _ _ _ _ _ _ _ _ _ _ _ _ _ _ _ _ _ _ _ _ ( w 8.^ _ _ _ _ _ _ _ _ _ _ _ _ _ _ _ _ _ _ _ _ _ _ { v.> /.-X-X-X-X-X-X-X-X-X-X-X-X-X-X-X-X-X-X-X-X-X-X-X1X+XJ L.).-X*X-X-X-X-X-X=X-X=X-X-X-X*X*X-X*X-X-X-X*X*X#XT.K $X-X*X*X*X*X*X*X*X-X-X-X-X-X-X-X-X-X-X-X-X-X-X-X-X#XK U.+X-X-X-X=X=X-X*X*X*X-X-X-X-X-X-X-X-X-X-X-X-X-X+XU.5 .._ _ _ _ _ _ _ _ _ _ _ _ _ _ _ _ _ _ _ _ _ _ _ _ [ w r.( _ _ _ _ _ _ _ _ _ _ _ _ _ _ _ _ _ _ _ _ _ _ { 0.w / _ _ _ _ _ _ _ _ _ _ _ _ _ _ _ _ _ _ _ _ _ _ _ _ ( e 0./ _ _ _ _ _ _ _ _ _ _ _ _ _ _ _ _ _ _ _ _ _ ~ [ r.; CXDXDXDXDXDXDXDXDXDXDXDXDXDXDXDXDXDXDXDXDXDXDXDXDXDX  DX",
"CXCXDX- p._ _ _ _ _ _ _ _ _ _ _ _ _ _ _ _ _ _ _ _ _ _ _ _ / w 0.( _ _ _ _ _ _ _ _ _ _ _ _ _ _ _ _ _ _ _ _ _ _ ( 8.w / ~ _ _ _ _ _ _ _ _ _ _ _ _ _ _ _ _ _ _ _ _ _ _ _ ( w 8.^ _ _ _ _ _ _ _ _ _ _ _ _ _ _ _ _ _ _ _ _ _ _ { v.> /.-X-X-X-X-X-X-X-X-X-X-X-X-X-X-X-X-X-X-X-X-X-X-X1X+XJ L.).-X*X-X-X-X-X-X-X=X=X-X-X-X-X-X-X-X*X*X-X*X*X#XT.K $X-X*X*X-X-X*X*X*X*X-X-X-X-X-X-X-X-X-X-X-X-X-X-X-X#XK U.+X-X-X-X=X=X-X*X-X-X-X-X-X-X-X-X-X-X-X-X-X-X-X+XU.5 .._ _ _ _ _ _ _ _ _ _ _ _ _ _ _ _ _ _ _ _ _ _ _ ~ [ w r.( _ _ _ _ _ _ _ _ _ _ _ _ _ _ _ _ _ _ _ _ _ _ { 8.w / _ _ _ _ _ _ _ _ _ _ _ _ _ _ _ _ _ _ _ _ _ _ _ _ ( e 0./ _ _ _ _ _ _ _ _ _ _ _ _ _ _ _ _ _ _ _ _ _ ~ [ r.; CXDXDXDXDXDXDXDXDXDXDXDXDXDXDXDXDXDXDXDXDXDXDXDXDXDX  DX",
"CXCXDX- p._ _ _ _ _ _ _ _ _ _ _ _ _ _ _ _ _ _ _ _ _ _ _ _ / q 0./ _ _ _ _ _ _ _ _ _ _ _ _ _ _ _ _ _ _ _ _ _ _ ( 0.w / _ _ _ _ _ _ _ _ _ _ _ _ _ _ _ _ _ _ _ _ _ _ _ ' { w 8.^ _ _ _ _ _ _ _ _ _ _ _ _ _ _ _ _ _ _ _ _ _ _ } v.> /.-X-X-X-X-X-X-X-X-X-X-X-X1X1X-X-X-X-X-X-X-X-X-X2X+XJ L.+X-X*X*X-X-X-X-X-X-X-X-X-X-X-X-X-X-X*X-X-X-X*X#XT.K $X-X*X*X-X-X-X*X*X-X-X-X-X-X-X-X-X-X-X-X-X-X-X-X-X#XK K.+X-X-X-X=X=X-X*X-X-X-X-X-X-X-X-X-X-X-X-X-X-X-X#XK.& .._ _ _ _ _ _ _ _ _ _ _ _ _ _ _ _ _ _ _ _ _ _ _ ! / w 0.( _ _ _ _ _ _ _ _ _ _ _ _ _ _ _ _ _ _ _ _ _ _ ( 8.w / _ _ _ _ _ _ _ _ _ _ _ _ _ _ _ _ _ _ _ _ _ _ _ _ ( w 0./ _ _ _ _ _ _ _ _ _ _ _ _ _ _ _ _ _ _ _ _ _ _ [ r.; CXDXDXDXDXDXDXDXDXDXDXDXDXDXDXDXDXDXDXDXDXDXDXDXDXDX  DX",
"CXCXDX- [ ! ! ! _ _ _ _ _ _ _ _ _ _ _ _ _ _ _ _ _ _ _ _ _ / q w./ _ _ _ _ _ _ _ _ _ _ _ _ _ _ _ _ _ _ _ _ _ _ / 0.w / _ _ _ _ _ _ _ _ _ _ _ _ _ _ _ _ _ _ _ _ _ ] ] ] [ w 0./ _ _ _ _ _ _ _ _ _ _ _ _ _ _ _ _ _ _ _ _ _ ! { v.> /.-X-X-X-X-X-X-X-X1X>XXXXX>X>X-X-X-X-X-X-X-X1X-X1X#XH K.@X<X>X>XXX-X-X-X-X-X-X-X-X-X-X-X-X-XXX-X-X*X*X#XR.K %X-X-X-XXXXX-X-X-X-X-X-X-X-X-X-X-X-X-X-X-X-X-X-X-X#XK K.`.-X<X<X=X=X-X1X-X-X-X1X-X-X-X-X-X-X-X-X1X-X*X`.W.1 .._ _ _ _ _ _ _ _ _ _ _ _ _ _ _ _ _ _ _ _ _ _ _ ! ) w q.( _ _ _ _ _ _ _ ' ' ' ' ' ' ' ' ' ' _ _ ' ' ' { r.w { ` _ _ _ _ _ _ _ _ _ _ _ _ _ _ _ _ _ _ _ _ _ _ _ { w 0./ _ _ _ _ _ _ _ _ _ _ _ _ _ _ _ _ _ _ _ _ _ _ [ t.; CXDXDXDXDXDXDXDXDXDXDXDXDXDXDXDXDXDXDXDXDXDXDXDXDXDX  DX",
"CXAXDX- W _ ! _ _ _ _ _ _ _ _ _ _ _ _ _ _ _ _ _ _ _ _ _ _ / q w./ _ _ _ _ _ _ _ _ _ _ _ _ _ _ _ _ _ _ _ _ _ _ / 0.w [ ! _ _ _ _ _ _ _ _ _ _ _ _ _ _ _ _ _ _ _ _ ' ' ' [ w 0.^ ` _ _ _ _ _ _ _ _ _ _ _ _ _ _ _ _ _ _ _ _ ! { v.: /.-X1X-X-X-X-X-X1X1X>X>XXX-X1X1X-X-X-X-X-X-X-X-X-X#XJ U.@X<X>X>XXX-X-X-X-X-X-X-X-X-X-X-X-X-XXX-X*X*X*X#XR.L %X-X-X1X1X>X-X-X-X-X-X-X-X-X-X-X-X-X-X-X-X-X-X-X-X#XK K.`.-X<X<X=X=X=X1X-X-X-X-X1X1X-X-X-X-X-X-X-X-X-X#XW.1 .._ _ _ _ _ _ _ _ _ _ _ _ _ _ _ _ _ _ _ _ ! ' _ ! ) w q.( _ _ _ _ _ _ _ ' ' ' ' ' ' ' ' _ _ _ _ ' ' ' { r.w { ' _ _ _ _ _ _ _ _ _ _ _ _ _ _ _ _ _ _ _ _ ' _ _ { e k./ _ _ _ _ _ _ _ _ _ _ _ _ _ _ _ _ _ _ _ _ _ _ { 0.; CXDXDXDXDXDXDXDXDXDXDXDXDXDXDXDXDXDXDXDXDXDXDXDXDXDX  DX",
"ZXAXDX- d._ _ _ _ _ _ _ _ _ _ _ _ _ _ _ _ _ _ _ _ _ _ ' _ / w l.( _ _ _ _ _ _ _ _ _ _ _ _ _ _ _ _ _ _ _ _ _ _ ( r.w [ _ _ _ _ _ _ _ _ _ _ _ _ _ _ _ _ _ _ _ _ _ _ _ ' } w l.) ` _ _ _ _ _ _ _ _ _ _ _ _ _ _ _ _ _ _ _ _ _ } c.: /.-X-X-X-X-X-X-X-X-X-X-X-X-X-X-X-X-X-X-X-X-X-X-X*X`.K R.%X<X<X1X-X-X-X*X-X-X*X*X-X-X-X-X*X*X-X*X*X*XXX#XR.L #X-X-X-X-X-X-X-X-X-X-X-X-X-X-X-X-X-X-X-X-X-X-X-X*X+XL R.#X>X<X<X=X=X=X=X-X-X-X-X-X-X-X-X-X-X*X-X-X-X<X%XK.9 .._ _ _ _ _ _ _ _ _ _ _ _ _ _ _ _ _ _ _ _ ! _ _ ! ) w 9./ _ _ _ _ _ _ _ _ _ _ _ _ _ _ _ _ _ _ _ _ _ _ { 9.w [ ' ' _ _ _ _ _ _ _ _ _ _ _ _ _ _ ' ' ' ' ' _ _ _ { e l.) _ _ _ _ _ _ _ _ _ _ _ _ _ _ _ _ _ _ _ _ _ _ ( l., CXDXDXDXDXDXDXDXDXDXDXDXDXDXDXDXDXDXDXDXDXDXDXDXDXDX  DX",
"AXAXDXO l./ / / ( ( ( ( { { { { { { { { } } } { ( [ [ [ [ a.q r.d.{ { { { { { { { { { { { { { { { { { ( ( ( ( a.y.q a./ ( ( { [ / ( ( ( ( ( ( ( ( ( ( ( ( ( ( ( | | { a.q 9.f.g./ / / / / / / / [ [ [ { { { { { ( ) { | } x.y.+ Q.+X+X+X+X+X+X+X+X+X+X+X+X+X+X+X+X+X+X+X+X+X+X).`.(.H W.'.+X+X+X+X#X#X#X#X#X#X#X#X#X#X#X#X#X#X#X#X#X#X'.W.H (.).#X#X#X#X#X#X#X#X+X+X+X+X+X+X+X+X+X+X+X+X+X#X#X(.J L.'.#X#X%X+X@X@X@X+X+X+X+X+X+X+X+X+X+X#X#X#X+X@X`.I.* v.[ / ( ( ( ( ( ( ( ( ( { { { { { { { | ] ( { [ ^ W 0 u.a.[ / / / / / / ( ( ( ( { { { { ( ( ( ( ( { { a.u.0 a.h.{ { ( ( ( { { { { { { { { } } [ [ [ [ [ / / } x.w r.f./ ( ( ( ( { { { { { { { { { { { { ( ) ) ) ) d.r., CXDXDXDXDXDXDXDXDXDXDXDXDXDXDXDXDXDXDXDXDXDXDXDXDXDX  DX",
"DXDXDXo u.q.9.0.0.k.k.k.k.k.k.v.v.v.v.v.r.r.r.r.r.t.t.t.t.e.; m.e.8.8.8.8.8.8.8.8.8.8.8.8.8.8.8.8.8.8.q.8.8.8.e.m., u.q.q.0.r.t.t.t.t.t.0.0.0.r.r.r.r.r.r.r.r.0.v.c.8.e., m.u.b.9.0.0.0.8.8.8.t.t.r.r.r.r.r.r.r.r.v.v.v.r.e.m.+ U U.U.U.U.U.U.U.U.U.U.U.U.U.U.L.L.L.L.L.L.L.L.P.I.I 7 U I.T.U.U.T.T.T.T.T.T.T.T.T.T.T.T.T.T.T.T.T.R.R.W.U 6 I.L.T.U.U.U.U.U.U.U.U.T.T.T.T.T.T.T.T.T.T.T.T.U.U.I.G Y I I.Q.T.R.R.T.T.T.T.T.T.T.T.T.T.T.T.T.T.T.T.U.P.Y % M.k.k.k.0.0.0.0.0.0.0.0.0.0.0.r.0.0.0.k.k.k.0.9.t.e., m.e.t.0.0.0.0.9.9.8.0.0.0.0.0.0.0.0.0.0.0.0.0.0.e.m.; e.c.c.v.l.8.k.k.k.k.k.c.c.r.r.r.r.r.r.t.r.r.8.0.r.t., m.y.q.8.8.8.8.8.8.8.8.8.8.8.8.r.r.r.8.8.8.q.q.q.y.m.O HXDXDXDXDXDXDXDXDXDXDXDXDXDXDXDXDXDXDXDXDXDXDXDXDXDX  DX",
"X X   o ; < < < < < < < < < < < < < < < < < < < , , < < < , O - , < < < < < < < < < < < < < < < < < < < < < < , - ; 0 q w e e w w w w w w w w w w w w w e e e e e e e 0 - + o : : : : : : : : : 1 1 1 1 1 1 1 1 1 1 1 1 1 + o                                                       # 7 H K K K K K K K K K K K K K K K K K K K K K L H 6 6 H K K K K K K K K K K K K K K K K K K K K K K K K H @                                                 X X   O : : : > : : : : : : : : : : : : : : : : > : O : > O , 0 w w w w w q q w w w w w w w w w w w w w w w 0 ; O , 0 < < < < < < < < < < < < < < < < , , , , , < < , O O < 0 < 0 < < < < < < < < < < 0 0 < < < < < < < ; O .                                                 X       ",
"DXAXDXo pXuX9X7X6X6X7X7X7X7X7X7X9X9X9X9X9X9X9XuXuXpXuXuXqX8X. rX9X6X6X6X6X5X5X5X6X5X6X6X6X6X6X6X6X6X6X6X6X6X6X9XpX, W g./ ) ) ) / / / / ) ) ) ( ( ( ( ( ( ( ( ( / ( | v.O U W.[.[.(.(.{.{.{.{.{.{.{.{./././././././.{.{.(.R.I   J.S.S.S.S.S.S.S.S.S.S.S.S.S.S.S.S.S.S.S.S.S.S.S.A.MXX I.].)..X.X+X).).).).).).).).).).).).).).).).).).(.!.G ].$X+X+X+X+X+X+X+X+X+X+X+X+X+X+X+X+X+X+X+X+X+X+X+XT.  MXH.F.F.F.F.F.F.F.F.F.F.F.F.F.F.F.F.F.F.F.F.F.G.H.MX  U [.{.{.{.{.{.{.{.{.{.{.{.{.{.{.{.|.|.{.[.[.[.[.[.U O u.s.{ { { { { { { { { { { { { { { { { { { { { { d.y.< KX5X9X9X6X6X6X7X7X7X7X7X7X7X9X9X9X9X9X9X9X9X9XuXpXxXo vXpX7X7X7X9X7X9X9X9X9X9X9X9X9XuXuXuXuXuXuXaX7X6XuXBX. AXDXDXDXDXDXDXDXDXDXDXDXDXDXDXDXDXDXDXDXDXDXDXDXHXDX  DX",
"DXDXHX. iX7X7X6X6X6X6X6X6X6X6X6X6X6X6X6X6X6X6X6X8X8X9X7X6XwXO tX9X6X6X6X6X6X6X6X6X6X6X6X6X6X6X6X6X6X6X6X4X4X6X9XpXq [ ! _ _ _ _ _ _ _ _ _ _ _ _ _ _ _ _ _ _ _ _ _ _ ! X.9 K.^.oX&X&X&X&X=X=X=X=X=X=XoXXXXXXXXXoXXXXX&X=X=X+XY.  D.B.B.B.B.B.B.B.B.B.B.B.B.B.B.B.B.B.B.B.B.B.B.B.B.D.  Y.+X=X-X-X-X=X=X=X=X-X-X-X-X-X-X-X-X-X-X*X*X*X*X`.I.J ).oXoXoXoXoXoXoXoXoX&X&X&X&X&X&X&X&X&X&X&X&X&X=X=XY.  H.Z.V.B.B.B.B.B.B.B.B.B.B.B.B.B.B.B.B.B.B.B.B.B.Z.H.  Y.&X=X=X=X=X=X=X=X=X=X=X=X=X=X=X=XXXXX=X&X&XoXoX*XQ.> q./ _ _ _ _ _ _ _ _ _ _ _ _ _ _ _ _ _ _ _ _ _ _ ( q.< KX4X6X5X4X4X4X4X4X4X6X5X5X5X5X5X5X5X5X5X5X5X0X7XaXiXO kXuX7X9X9X9X9X9X9XqXqXqXqXqXqXqX9XqX9XuXuXuX9X6X0XnXo CXAXAXAXAXAXDXDXDXDXDXDXDXDXDXDXDXDXDXDXDXDXDXDXDXDXX DX",
"DXHXDX. iX7X6X6X6X6X6X6X6X6X6X6X6X6X6X6X6X6X6X6X6X6X7X7X6XqXO rXuX9X9X9X9X9X6X6X6X6X6X6X6X6X6X6X6X6X6X6X6X6X6XuXzX, p._ _ _ _ _ _ _ _ _ _ _ _ _ _ _ _ _ _ _ _ _ _ _ _ X.& K.+X-X-X-X-X-X-X-X-X-X=X-X-X-X=X=X=X-X-X*X&X&X=X+XY.  D.B.B.B.B.B.B.B.B.B.B.B.B.B.B.B.B.B.B.B.B.B.B.B.B.D.  P.).*X-XXX-X-X-X-X-X-X-X-X-X-X-X-X-X-X-X-X-X-X-X#XT.K +X-X-X-X-X-X-X-X-X-X-X-X-X-X-X-X-X-X-X-X-X-X-X-X=XR.  H.Z.V.B.B.B.B.B.B.B.B.B.B.B.B.B.B.B.B.B.B.B.B.B.Z.H.  R.-X=X=X-X-X-X-X-X-X-X-X-X-X-X-X-X-X-X-X=X=X=XoX-X[.: 0./ _ _ _ _ _ _ _ _ _ _ _ _ _ _ _ _ _ _ _ _ _ _ ( 0.< 7X6X6X6X6X6X6X6X6X6X6X6X6X6X6X6X6X6X6X6X6X6X6X6X9XyXo cXuX6X6X6X6X6X6X6X6X6X6X6X6X6X6X6X6X6X6X7X7X7X6X0XcX. AXDXDXDXDXDXDXDXDXDXDXDXDXDXDXDXDXDXDXDXDXDXDXDXDXDX  DX",
"DXHXDX. iX6X6X6X6X6X6X6X6X6X6X6X6X6X6X6X6X6X6X6X6X6X7X7X9XuXO kXpX9X9X9X7X9X9X9X9X9X6X6X6X6X6X6X9X9X9X9X9X9X9XyXzX; p._ _ _ _ _ _ _ _ _ _ _ _ _ _ _ _ _ _ _ _ _ _ _ _ X.& U.#X1X-X-X-X-XXXXX-X-X-X-X-X-X=X=X=X-X-X*X&X&X&X+XY.  D.B.B.B.B.B.B.B.B.B.B.B.B.B.B.B.B.B.B.B.B.B.B.B.B.D.  I.).*XXXXX-X-X-X-X-X-X-X-X-X-X-X-X*X-X*X*X-X*X*X#XT.K +X-X-X-X-X-X-X-X-X-X-X-X-X-X-X-X-X-X-X-X-X-X-X-X-XR.  H.Z.V.B.B.B.B.B.B.B.B.B.B.B.B.B.B.B.B.B.B.B.B.B.Z.H.  R.-X=X=X-X-X-X-X-X-X-X-X-X-X*X*X*X*X*X-X<X<X=XoX-X}.: t./ _ _ _ _ _ _ _ _ _ _ _ _ _ _ _ _ _ _ _ _ _ _ ( 0., 9X6X4X6X6X6X6X6X6X6X6X6X6X6X6X6X6X6X6X6X6X6X6X6X6X8Xo cXqX6X6X7X7X7X7X7X6X6X6X6X6X6X6X6X6X6X6X6X7X7X6X5XsX. CXDXDXDXDXDXDXDXDXDXDXDXDXDXDXDXDXDXDXDXDXDXDXDXDXDX  DX",
"DXHXDX. iX6X6X6X6X6X6X6X6X6X6X6X6X6X6X6X6X6X6X6X6X6X5X7X7XuXO kXpX9X7X7X7X7X9X9X9X9X6X6X6X6X6X6X9X9X9X9X9X9X9XyXzX; p._ _ _ _ _ _ _ _ _ _ _ _ _ _ _ _ _ _ _ _ _ _ _ _ X.& U.#X1X-X-X-X*XXXXX-X-X-X-X-X-X=X=X=X=X*X*X&X&X&X+XY.  D.B.B.B.B.B.B.B.B.B.B.B.B.B.B.B.B.B.B.B.B.B.B.B.B.D.  I.).*XXXXX-X-X-X-X-X-X-X-X-X-X-X-X-X-X-X-X-X-X*X#XT.K +X-X-X-X*X*X*X-X-X-X-X-X-X-X-X-X-X-X-X-X-X-X-X-X-XR.  H.Z.V.B.B.B.B.B.B.B.B.B.B.B.B.B.B.B.B.B.B.B.B.B.Z.H.  R.-X=X=X-X-X-X-X-X-X-X-X-X-X*X*X*X*X*X-X<X<X=X=X-X}.: t./ _ _ _ _ _ _ _ _ _ _ _ _ _ _ _ _ _ _ _ _ _ _ ( 0., 9X6X4X4X6X6X6X6X6X6X6X6X6X6X6X6X6X6X6X6X6X6X6X6X6X8XO cXqX6X6X7X7X7X7X7X6X6X6X6X6X6X6X6X6X6X6X6X7X7X6X0XsX. CXDXDXDXDXDXDXDXDXDXDXDXDXDXDXDXDXDXDXDXDXDXDXDXDXDX  DX",
"DXAXDX. iX9X6X6X6X6X6X6X6X6X6X6X6X6X6X6X6X6X6X6X6X6X6X7X7XuXO kXpX9X7X7X7X7X9X9X9X9X6X6X6X6X6X6X9X9X9X9X9X9X9XyXzX; p._ _ _ _ _ _ _ _ _ _ _ _ _ _ _ _ _ _ _ _ _ _ _ _ X.& U.#X1X-X-X-X*XXXXX-X-X-X-X-X-X=X=X=X=X*X*X&X&X&X).Y.  D.B.B.B.B.B.B.B.B.B.B.B.B.B.B.B.B.B.B.B.B.B.B.B.B.D.  I.).*XXXXX-X-X-X-X-X-X-X-X-X-X-X-X-X-X-X-X-X-X*X#XT.K +X-X-X-X*X*X-X-X-X-X-X-X-X-X-X-X-X-X-X-X-X-X-X-X-XR.  H.Z.V.B.B.B.B.B.B.B.B.B.B.B.B.B.B.B.B.B.B.B.B.B.Z.H.  R.-X=X=X-X-X-X-X-X-X-X-X-X-X*X*X*X*X*X-X<X<X=X=X-X}.: t./ _ _ _ _ _ _ _ _ _ _ _ _ _ _ _ _ _ _ _ _ _ _ ( 0., 9X6X4X4X6X6X6X6X6X6X6X6X6X6X6X6X6X6X6X6X6X6X7X6X6X8XO sXqX6X6X7X7X7X7X7X6X6X6X6X6X6X6X6X6X6X6X6X7X7X6X0XsX. AXDXDXDXDXDXDXDXDXDXDXDXDXDXDXDXDXDXDXDXDXDXDXDXDXDX  DX",
"DXAXDX. iX9X6X6X6X6X6X6X6X6X6X6X6X6X6X6X6X6X6X6X6X6X6X7X9XuXO kXpX7X7X7X7X7X9X9X9X9X6X6X6X6X6X6X9X9X9X9X9X9X9XuXzX; p._ _ _ _ _ _ _ _ _ _ _ _ _ _ _ _ _ ' ' _ _ _ _ ' X.& U.#X1X-X-X-X-X-X-X-X-X-X-X-X-X-X-X=X-X-X*X&X&X*X).T.  D.B.B.B.B.B.B.B.B.B.B.B.B.B.B.B.B.B.B.B.B.B.B.B.B.D.  K.).-X*X*X-X-X-X-X-X-X-X-X-X-X-X-X-X-X-X-X-X-X-X#XT.K +X-X*X*X*X*X-X-X-X-X-X-X-X-X-X-X-X-X-X-X-X-X-X-X-XR.  H.Z.V.B.B.B.B.B.B.B.B.B.B.B.B.B.B.B.B.B.B.B.B.B.Z.H.  R.-X=X=X-X-X-X-X-X-X-X-X-X-X*X*X*X*X*X=X<X<X=X=X3X}.: 0./ _ _ _ _ _ _ _ _ _ _ _ _ _ _ _ _ _ _ _ _ _ _ ( r., 9X9X6X6X6X7X9X9X9X9X9X9X9X9X9X9X9X9X9X9X9X9X9X9X6X8XO cXgX6X9X7X7X7X7X7X9X9X6X6X6X6X6X6X6X6X6X9X9X9X6X0XnXo CXDXDXDXDXDXDXDXDXDXDXDXDXDXDXDXDXDXDXDXDXDXDXDXDXDX  DX",
"DXAXDX. iX7X6X6X6X6X6X6X6X6X6X6X6X6X6X6X6X6X6X6X6X6X6X6X9XuXO kXpX9X7X7X7X9X9X9X9X9X6X6X6X6X6X6X9X9X9X9X9X9X9XuXzX; p._ _ _ _ _ _ _ _ _ _ _ _ _ _ _ _ _ ' ' ' _ _ _ ' X.& U.#X1X-X-X-X-X-X-X-X-X-X-X-X-X-X-X=X-X-X*X&X&X*X).T.  D.B.B.B.B.B.B.B.B.B.B.B.B.B.B.B.B.B.B.B.B.B.B.B.B.D.  K.+X-X*X*X-X=X-X-X-X-X-X-X-X-X-X-X-X-X-X-X-X-X-X#XT.K +X-X*X-X*X*X-X-X-X-X-X-X-X-X-X-X-X-X-X-X-X-X-X-X-XR.  H.Z.V.B.B.B.B.B.B.B.B.B.B.B.B.B.B.B.B.B.B.B.B.B.Z.H.  R.-X=X=X-X-X-X-X-X-X-X-X-X-X*X*X*X*X*X=X<X<X=X=X3X}.: 0./ _ _ _ _ _ _ _ _ _ _ _ _ _ _ _ _ _ _ _ _ _ _ ( r., 7X9X6X6X6X7X9X9X9X9X9X9X9X9X9X9X9X9X9X9X9X9X9X9X6X8XO sXgX6X9X7X7X7X7X7X9X9X6X6X6X6X6X6X6X6X6X9X9X9X6X7XnXo CXDXDXDXDXDXDXDXDXDXDXDXDXDXDXDXDXDXDXDXDXDXDXDXDXDX  DX",
"DXAXDX. iX7X6X6X6X6X6X6X6X6X6X6X6X6X6X6X6X6X6X6X6X6X6X6X7XpXO kXpX9X7X7X9X9X9X9X9X9X6X6X6X6X6X6X9X9X9X9X9X9X9XuXzX; p._ _ _ _ _ _ _ _ _ _ _ _ _ _ _ _ _ ' ' ' _ _ _ _ X.& U.#X1X-X-X-X-X-X-X-X-X-X-X-X-X-X-X-X-X-X*X&X&X*X+XT.  D.B.B.B.B.B.B.B.B.B.B.B.B.B.B.B.B.B.B.B.B.B.B.B.B.D.  K.+X-X*X*X-X=X-X-X-X-X-X-X-X-X-X-X-X-X-X-X-X*X-X#XT.K +X-X-X-X-X-X-X-X-X-X-X-X-X-X-X-X-X-X-X-X-X-X-X-X-XR.  H.Z.V.B.B.B.B.B.B.B.B.B.B.B.B.B.B.B.B.B.B.B.B.B.Z.H.  R.-X=X=X-X-X-X-X-X-X-X-X-X-X*X*X*X*X*X=X<X<X=X=X3X}.: 0./ _ _ _ _ _ _ _ _ _ _ _ _ _ _ _ _ _ _ _ _ _ _ ( r., 9X9X6X6X6X7X9X9X9X9X9X9X9X9X9X9X9X9X9X9X9X9X9X9X6X8Xo cXgX6X9X7X7X7X7X7X9X9X6X6X6X6X6X6X6X6X6X7X9X9X6X7XrXo CXDXDXDXDXDXDXDXDXDXDXDXDXDXDXDXDXDXDXDXDXDXDXDXDXDX  DX",
"DXAXDX. iX7X7X6X6X6X6X6X6X6X6X6X6X6X6X6X6X6X6X6X6X6X6X6X7XpXO kXuX9X7X7X9X9X9X9X9X9X9X9X9X9X9X9X9X9X9X9X9X9X9XpXzX; p._ _ _ _ _ _ _ _ _ _ _ _ _ _ _ _ _ _ _ ' _ _ _ ' X.& U.#X1X-X-X-X-X-X-X-X-X-X-X-X-X-X-X-X-X-X-X&X&X*X+XT.  D.B.B.B.B.B.B.B.B.B.B.B.B.B.B.B.B.B.B.B.B.B.B.B.B.D.  K.+X-X*X*X-X=X-X-X-X-X-X-X-X-X-X-X-X-X-X-X-X*X-X#XT.K +X-X-X-X-X-X-X-X-X-X-X-X-X-X-X-X-X-X-X-X-X-X-X-X-XR.  H.Z.V.B.B.B.B.B.B.B.B.B.B.B.B.B.B.B.B.B.B.B.B.B.Z.H.  R.-X=X=X=X-X-X-X-X-X-X-X-X-X-X-X-X-X-X=X=X<X=X=X3X}.: 0./ _ _ _ _ _ _ _ _ _ _ _ _ _ _ _ _ _ _ _ _ _ _ ( r., 9X6X6X6X6X7X9X9X9X9X9X9X9X9X9X9X9X9X9X9X9X9X9X9X6X8Xo sXgX6X9X7X7X7X7X7X9X9X6X6X6X6X6X6X6X6X9X7X9X9X6X7XrXo CXDXDXDXDXDXDXDXDXDXDXDXDXDXDXDXDXDXDXDXDXDXDXDXDXDX  DX",
"DXAXAX. iX8X9X9X9X9X9X9X9X7X9X9X9X9X9X9X9X9X9X9X6X6X7X7X7XpXO kXuX9X9X9X9X9X9X9X9X7X7X9X9X9X7X9X9X9X9X9X9X9X9XuXkX; p._ _ _ _ _ _ _ _ _ _ _ _ _ _ _ _ _ _ _ _ _ _ _ _ X.& U.#X1X-X-X-X-X-X-X-X-X=X=X=X=X-X-X-X-X-X-X*X*X*X+XT.  D.B.B.B.B.B.B.B.B.B.B.B.B.B.B.B.B.B.B.B.B.B.B.B.B.D.  K.).-XXXXX-X-X-X-X-X-X-X-X-X-X-X-X-X-X-X-X-X-X*X#XT.K +X-X-X-X-X*X*X*X*X*X-X-X-X-X-X-X-X-X-X-X-X-X-X-X-XR.  H.Z.V.B.B.B.B.B.B.B.B.B.B.B.B.B.B.B.B.B.B.B.B.B.Z.H.  R.-X=X=X-X-X-X-X-X-X-X-X-X-X-X-X-X-X-X-X=X=X=X-X-X}.: 0.( _ _ _ _ _ _ _ _ _ _ _ _ _ _ _ _ _ _ _ _ _ _ ( t., 7X9X6X6X9X7X9X9X9X9X9X9X9X9X9X9X9X9X9X9X9X9X9X9X6X8Xo sXqX6X9X9X9X9X9X9X9X9X9X9X9X9X9X9X9X6X9X9X9X9X6X7XrXo AXDXDXDXDXDXDXDXDXDXDXDXDXDXDXDXDXDXDXDXDXDXDXDXDXDX  DX",
"DXDXAX. iX8X9X9X9X9X9X9X7X7X9X9X9X9X9X9X9X9X9X9X6X6X7X7X7XpXO kXuX9X9X9X9X9X9X9X7X7X7X7X9X9X9X9X9X9X9X9X9X9X9XuXkX; h._ _ _ _ _ _ _ _ _ _ _ _ _ _ _ _ _ _ _ _ _ _ _ _ X.& U.#X1X-X-X-X-X-X-X-X-X=X=X=X-X-X-X-X-X-X*X*X*X*X+XT.  D.B.B.B.B.B.B.B.B.B.B.B.B.B.B.B.B.B.B.B.B.B.B.B.B.D.  K.+X-XXXXX-X-X-X-X-X-X-X-X-X-X-X-X-X-X-X-X-X*X*X#XT.K +X-X-X-X-X-X*X*X-X*X-X-X-X-X-X-X-X-X-X-X-X-X-X-X-XR.  H.Z.V.B.B.B.B.B.B.B.B.B.B.B.B.B.B.B.B.B.B.B.B.B.Z.H.  R.-X=X=X-X-X-X-X-X-X-X-X-X-X-X-X-X-X-X-X=X=X=X-X*X}.: 8.( _ _ _ _ _ _ _ _ _ _ _ _ _ _ _ _ _ _ _ _ _ _ { t., aX9X6X6X9X7X9X9X9X9X9X9X9X9X9X9X9X9X9X9X9X9X9X9X6X8Xo sXqX6X9X9X9X9X9X9X9X9X9X9X9X9X9X9X9X9X9X9X9X9X6X7XrXo AXDXDXDXDXDXDXDXDXDXDXDXDXDXDXDXDXDXDXDXDXDXDXDXDXDX  DX",
"DXDXAX. iX8X9X7X9X9X9X7X7X7X7X7X9X9X9X9X9X9X9X9X6X6X6X7X6XpXO kXuX9X9X9X9X9X9X9X7X7X7X7X9X9X9X9X9X9X9X9X9X9X9XuXkX; h._ _ _ _ _ _ _ _ _ _ _ _ _ _ _ _ _ _ _ _ _ _ _ _ X.& U.#X1X-X-X-X-X-X-X-X-X-X-X-X-X-X-X-X-X-X*X*X*X*X+XL.  D.B.B.B.B.B.B.B.B.B.B.B.B.B.B.B.B.B.B.B.B.B.B.B.B.D.  K.+X-XXXXX-X-X-X-X-X-X-X-X-X-X-X-X-X-X-X-X-X-X*X#XT.K +X-X-X-X-X-X-X-X-X-X-X-X-X-X-X-X-X-X-X-X-X-X-X-X-XY.  H.Z.V.B.B.B.B.B.B.B.B.B.B.B.B.B.B.B.B.B.B.B.B.B.Z.H.  R.-X=X=X-X-X-X-X-X-X-X-X-X-X-X-X-X-X-X-X=X=X=X-X*X}.: 8.( _ _ _ _ _ _ _ _ _ _ _ _ _ _ _ _ _ _ _ _ _ _ { t., aX9X6X6X9X7X9X9X9X9X9X9X9X9X9X9X9X9X9X9X9X9X9X9X6X8Xo sXqX6X9X9X9X9X9X9X9X9X9X9X9X9X9X9X9X9X9X9X9X9X6X7XrXo AXDXDXDXDXDXDXDXDXDXDXDXDXDXDXDXDXDXDXDXDXDXDXDXDXDX  DX",
"DXDXHX. iX8X9X7X9X9X9X7X7X7X7X7X9X9X9X9X9X9X9X9X6X6X6X7X7XpXO cXuX9X9X9X9X9X9X9X7X7X7X7X9X9X9X9X9X9X9X9X9X9X9XuXcX; h._ _ _ _ _ _ _ _ _ _ _ _ _ _ _ _ _ _ _ _ _ _ _ _ X.& U.#X1X-X-X-X-X-X-X-X-X-X-X-X-X-X-X-X-X-X*X*X*X*X#XK.  D.B.B.B.B.B.B.B.B.B.B.B.B.B.B.B.B.B.B.B.B.B.B.B.B.D.  K.+X-XXXXX-X-X-X-X-X-X-X-X-X-X-X-X-X-X-X-X-X-X*X#XT.K +X-X-X-X-X-X-X-X-X-X-X-X-X-X-X-X-X-X-X-X-X-X-X-X-XY.  H.Z.V.B.B.B.B.B.B.B.B.B.B.B.B.B.B.B.B.B.B.B.B.B.Z.H.  R.-X=X=X-X-X-X-X-X-X-X-X-X-X-X-X-X-X-X-X=X=X=X-X*X}.: 8.( _ _ _ _ _ _ _ _ _ _ _ _ _ _ _ _ _ _ _ _ _ _ { t., aX9X6X6X9X7X9X9X9X9X9X9X9X9X9X9X9X9X9X9X9X9X9X9X6X8Xo sXgX6X9X9X9X9X9X9X9X9X9X9X9X9X9X9X9X9X9X9X9X9X6X8XrXo AXDXDXDXDXDXDXDXDXDXDXDXDXDXDXDXDXDXDXDXDXDXDXDXDXDX  DX",
"DXDXHX. iX8X9X7X7X7X7X7X9X7X7X7X7X7X9X7X7X7X7X9X9X9X6X7X7XpXO cXuX9X9X9X9X9X9X9X7X7X7X7X7X7X7X7X9X9X9X9X9X9X9XyXbX; h._ _ _ _ _ _ _ _ _ _ _ _ _ _ _ _ _ _ _ _ _ _ _ _ X.& U.#X1X-X-X-X-X-X=X-X-X-X-X-X-X-X-X-X-X-X*X*X*X*X#XL.  D.B.B.B.B.B.B.B.B.B.B.B.B.B.B.B.B.B.B.B.B.B.B.B.B.D.  U.+X-XXXXX-X-X-X-X-X-X-X-X-X-X-X-X-X-X-X-X-X*X*X#XT.K +X-X-X-X-X-X-X-X-X-X-X-X-X-X-X-X-X-X-X-X-X-X-X-X-XY.  H.Z.V.B.B.B.B.B.B.B.B.B.B.B.B.B.B.B.B.B.B.B.B.B.Z.H.  R.-X=X=X-X-X-X-X-X-X-X-X-X-X-X-X-X-X-X-X=X=X=X*X*X}.: 8.( _ _ _ _ _ _ _ _ _ _ _ _ _ _ _ _ _ _ _ _ _ _ { r., uX9X6X6X9X7X9X9X9X9X9X9X9X9X9X9X9X9X9X9X9X9X9X9X6X8Xo rXuX6X9X9X9X9X9X9X9X9X9X9X9X9X9X9X9X9X9X9X9X9X6X8XrXo AXDXDXDXDXDXDXDXDXDXDXDXDXDXDXDXDXDXDXDXDXDXDXDXDXDX  DX",
"DXDXHX. iX9X9X7X7X9X7X7X9X7X7X7X7X7X9X9X7X7X7X9X9X9X6X6X7XpXO cXuX9X9X9X9X9X9X9X7X7X7X7X9X7X7X7X9X9X9X9X9X9X9XyXbX; h._ _ _ _ _ _ _ _ _ _ _ _ _ _ _ _ _ _ _ _ _ _ _ _ X.& U.#X1X-X-X-X-X-X-X-X-X-X-X-X-X-X-X-X*X-X*X*X*X*X#XL.  D.B.B.B.B.B.B.B.B.B.B.B.B.B.B.B.B.B.B.B.B.B.B.B.B.D.  U.+X=X-XXX-X-X-X-X-X-X-X-X-X-X-X-X-X-X-X-X-X*X*X#XT.K +X-X-X-X-X-X-X-X*X-X-X-X-X-X-X-X-X-X-X-X-X-X-X-X-XR.  H.Z.V.B.B.B.B.B.B.B.B.B.B.B.B.B.B.B.B.B.B.B.B.B.Z.H.  R.-X=X=X-X-X-X-X-X-X-X-X-X-X-X-X-X-X-X-X=X=X=X*X*X}.- 8.( _ _ _ _ _ _ _ _ _ _ _ _ _ _ _ _ _ _ _ _ _ _ { t., uX9X6X6X9X7X9X9X9X9X9X9X9X9X9X9X9X9X9X9X9X9X9X9X9X8Xo rXuX6X9X9X9X9X9X9X9X9X9X9X9X9X9X9X9X9X9X9X9X9X6X8XrXo AXDXDXDXDXDXDXDXDXDXDXDXDXDXDXDXDXDXDXDXDXDXDXDXDXDX  DX",
"DXDXHX. hX8X9X9X9X9X9X9X9X9X7X7X9X9X9X9X9X9X9X9X9X9X6X6X7XpXO cXuX9X9X9X9X9X9X9X7X7X7X7X9X9X7X7X9X9X9X9X9X9X9XuXbX; h._ _ _ _ _ _ _ _ _ _ _ _ _ _ _ _ _ _ _ _ _ _ _ _ X.& U.#X1X-X-X-X-X=X=X=X-X=X=X-X-X-X-X-X-X-X-X*X*X*X#XL.  D.B.B.B.B.B.B.B.B.B.B.B.B.B.B.B.B.B.B.B.B.B.B.B.B.S.  U.+X=X*X*X-X-X-X-X-X-X-X-X-X-X-X-X-X-X-X-X-X*X*X#XT.K +X-X-X-X-X-X-X-X-X-X-X-X-X-X-X-X-X-X-X-X-X-X-X-X-XR.  H.Z.V.B.B.B.B.B.B.B.B.B.B.B.B.B.B.B.B.B.B.B.B.B.Z.H.  R.-X=X=X-X-X-X-X-X-X-X-X-X-X-X-X-X-X-X-X=X=X=X*X:X}.: 8.( _ _ _ _ _ _ _ _ _ _ _ _ _ _ _ _ _ _ _ _ _ _ { t., uX9X6X6X9X7X9X9X9X9X9X9X9X9X9X9X9X9X9X9X9X9X9X9X9X8Xo rXgX6X9X9X9X9X9X9X9X9X9X9X9X9X9X9X9X9X9X9X9X9X6X8XrXo AXDXDXDXDXDXDXDXDXDXDXDXDXDXDXDXDXDXDXDXDXDXDXDXDXDX  DX",
"DXDXHX. iX9X9X9X7X9X9X9X9X9X7X7X9X9X9X9X9X9X9X9X9X9X6X6X7XpXO cXuX9X9X9X9X9X9X9X9X7X7X9X9X9X7X9X9X9X9X9X9X9X9XuXbX; h._ _ _ _ _ _ _ _ _ _ _ _ _ _ _ _ _ _ _ _ _ _ _ _ X.& U.#X1X-X-X-X-X=X=X=X-X=X=X-X-X-X-X-X-XXX*X*X*X*X#XL.  D.B.B.B.B.B.B.B.B.B.B.B.B.B.B.B.B.B.B.B.B.B.B.B.B.S.  U.@X=X*X*X-X-X-X-X-X-X-X-X-X-X-X-X-X-X-X-X-X*X*X#XT.K +X-X-X-X-X-X-X-X-X-X-X-X-X-X-X-X-X-X-X-X-X-X-X-X-XR.  H.Z.V.B.B.B.B.B.B.B.B.B.B.B.B.B.B.B.B.B.B.B.B.B.Z.H.  R.-X=X=X-X-X-X-X-X-X-X-X-X-X-X-X-X-X-X-X=X=X=X*X:X}.: 8.( _ _ _ _ _ _ _ _ _ _ _ _ _ _ _ _ _ _ _ _ _ _ ( t., 9X9X6X6X9X7X9X9X9X9X9X9X9X9X9X9X9X9X9X9X9X9X9X9X9XyXo rXgX6X9X9X9X9X9X9X9X9X9X9X9X9X9X9X9X9X9X9X9X9X6X8XrXo AXDXDXDXDXDXDXDXDXDXDXDXDXDXDXDXDXDXDXDXDXDXDXDXDXDX  DX",
"DXDXHX. iXuX9X9X9X7X7X7X9X9X9X9X9X9X9X9X9X9X9X9X9X9X6X6X7XpXO cXuX9X9X9X9X9X9X9X9X9X9X9X9X9X9X9X7X7X7X7X9X9X9XuXlX; h._ _ _ _ _ _ _ _ _ _ _ _ _ _ _ _ _ _ _ _ _ _ _ _ X.& U.#X1X-X-X-X-X-X-X-X-X-X-X-X-X-X-X-X-X-X*X*X*X*X#XL.  D.B.B.B.B.B.B.B.B.B.B.B.B.B.B.B.B.B.B.B.B.B.B.B.B.S.  U.+X=X*X&X-X-X-X-X-X-X-X*X-X-X-X-X-X-X-X-X-X-X-X#XT.K +X-X-X-X-X-X-X-X-X-X-X-X-X-X-X-X-X-X-X-X-X-X-X-X-XR.  H.Z.V.B.B.B.B.B.B.B.B.B.B.B.B.B.B.B.B.B.B.B.B.B.Z.H.  R.-X=X=X-X-X-X-X-X-X-X-X-X-X-X-X-X-X-X=X=X=X=X*X*X}.- 8.( _ _ _ _ _ _ _ _ _ _ _ _ _ _ _ _ _ _ _ _ _ _ ( r.< 7X9X6X6X6X9X9X9X9X9X9X9X9X9X9X9X9X9X9X9X9X9X9X9X9XyXo kXgX9X9X9X9X9X9X9X9X9X9X9X9X9X9X9X9X9X9X9X9X9X6X8XrXo AXDXDXDXDXDXDXDXDXDXDXDXDXDXDXDXDXDXDXDXDXDXDXDXDXDX  DX",
"DXDXHX. iXuX9X9X9X7X7X7X9X9X9X9X9X9X9X9X9X9X9X9X9X9X6X6X7XpXO cXuX9X9X9X9X9X9X9X6X6X6X6X6X6X6X6X7X7X7X7X9X9X9XuXlX; h._ _ _ _ _ _ _ _ _ _ _ _ _ _ _ _ _ _ _ _ _ _ _ _ X.& U.#X1X-X-X-X-X-X-X-X-X-X-X-X-X-X-X-X-X-X-X*X*X*X#XL.  D.B.B.B.B.B.B.B.B.B.B.B.B.B.B.B.B.B.B.B.B.B.B.B.B.S.  Y.+X=X&X*X-X-X-X-X-X-X*X*X-X-X-X-X-X-X-X-X-X-X-X#XT.K +X-X-X-X-X-X-X-X-X-X-X-X-X-X-X-X-X-X-X-X-X-X-X-X-XR.  H.Z.V.B.B.B.B.B.B.B.B.B.B.B.B.B.B.B.B.B.B.B.B.B.Z.H.  R.-X=X=X-X-X-X-X-X-X-X-X-X-X-X-X-X-X-X-X=X=X=X*X*X}.- 8.( _ _ _ _ _ _ _ _ _ _ _ _ _ _ _ _ _ _ _ _ _ _ ( r.< 9X9X6X6X6X7X9X9X9X9X9X9X9X9X9X9X9X9X9X9X9X9X9X9X9XyXo rXgX9X9X9X9X9X9X9X9X9X9X9X9X9X9X9X9X9X9X9X9X9X6X8XsXo AXDXDXDXDXDXDXDXDXDXDXDXDXDXDXDXDXDXDXDXDXDXDXDXDXDX  DX",
"DXDXHX. hXuX9X9X7X7X7X7X9X9X9X9X9X9X9X9X9X9X9X9X9X9X6X6X7XpXO cXuX9X9X9X9X9X9X9X6X6X6X6X6X6X6X6X9X9X7X7X9X9X9XuXlX; h._ _ _ _ _ _ _ _ _ _ _ _ _ _ _ _ _ _ _ _ _ _ _ _ X.& U.#X1X-X=X-X-X-X-X-X-X-X-X-X-X-X-X-X-XXXXX*X*X*X#XL.  D.B.B.B.B.B.B.B.B.B.B.B.B.B.B.B.B.B.B.B.B.B.B.B.B.S.  L.+X=X&X&X-X-X-X-X*X*X*X*X-X-X-X-X-X-X-X-X-X-X-X#XT.K +X-X-X-X-X-X-X-X-X-X-X-X-X-X-X-X-X-X-X-X-X-X-X-X-XR.  H.Z.V.B.B.B.B.B.B.B.B.B.B.B.B.B.B.B.B.B.B.B.B.B.Z.H.  R.-X=X=X-X-X-X-X-X-X-X-X-X-X-X-X-X-X-X-X<X=X=X&X*X}.- 8.( _ _ _ _ _ _ _ _ _ _ _ _ _ _ _ _ _ _ _ _ _ _ ( 0., 9X6X4X4X6X6X9X9X9X9X9X9X9X9X9X9X9X9X9X9X9X7X9X9X9XyXo rXuX7X9X9X9X9X9X9X9X9X9X9X9X9X9X9X9X9XqX9X9X9X6X8XsXo AXDXDXDXDXDXDXDXDXDXDXDXDXDXDXDXDXDXDXDXDXDXDXDXDXDX  DX",
"DXDXHX. hX8X9X9X7X7X7X7X9X9X9X9X9X9X9X9X9X9X9X9X9X9X6X6X7XpXO cXuX9X9X9X9X9X9X9X6X6X6X6X6X6X6X6X9X9X9X9X9X9X9XuXlX; h._ _ _ _ _ _ _ _ _ _ _ _ _ _ _ _ _ _ _ _ _ _ _ _ X.& U.#X1X-X=X-X-X-X-X-X-X-X-X-X-X-X-X-X-XXXXX*X*X*X#XL.  D.B.B.B.B.B.B.B.B.B.B.B.B.B.B.B.B.B.B.B.B.B.B.B.B.S.  L.+X=X*X&X-X-X-X-X*X*X*X*X-X-X-X-X-X-X-X-X-X-X-X#XT.K +X-X-X-X-X-X-X-X-X-X-X-X-X-X-X-X-X-X-X-X-X-X-X-X-XR.  H.Z.V.B.B.B.B.B.B.B.B.B.B.B.B.B.B.B.B.B.B.B.B.B.Z.H.  R.-X=X=X=X-X-X-X-X-X-X-X-X-X-X-X-X-X-X-X<X=X=X&X*X}.- 8.( _ _ _ _ _ _ _ _ _ _ _ _ _ _ _ _ _ _ _ _ _ _ ( 0., 9X6X4X4X6X6X9X9X9X9X9X9X9X9X9X9X9X9X9X9X9X7X9X9X9XyXo kXpX7X9X9X9X9X9X9X9X9X9X9X9X9X9X9X9X9XqX9X9X9X6X8XsX. AXDXDXDXDXDXDXDXDXDXDXDXDXDXDXDXDXDXDXDXDXDXDXDXDXDX  DX",
"DXDXHX. iX8X9X9X7X9X9X9X9X9X9X9X9X9X9X9X9X9X9X9X9X9X6X6X7XpXO cXuX9X9X9X9X9X9X9X6X6X6X6X6X6X6X6X9X9X7X7X7X7X7XuXlX; h._ _ ' _ _ _ _ _ _ _ _ _ _ _ _ _ _ _ _ _ _ _ _ _ X.& U.#X1X-X=X=X-X-X-X-X-X-X-X-X-X-X-X-X-X-X*X*X*X*X#XL.  D.B.B.B.B.B.B.B.B.B.B.B.B.B.B.B.B.B.B.B.B.B.B.B.B.S.  L.+X=X*X&X-X-X-X-X-X-X-X-X-X-X-X-X-X-X-X-X-X-X*X#XT.K +X-X-X-X-X-X-X-X=X=X-X-X-X-X-X-X-X-X-X-X-X-X-X-X-XR.  H.Z.V.B.B.B.B.B.B.B.B.B.B.B.B.B.B.B.B.B.B.B.B.B.Z.H.  R.-X=X=X-X-X-X-X-X-X-X-X-X-X-X-X-X-X-X-X<X=X=X*X*X}.: 8.( _ _ _ _ _ _ _ _ _ _ _ _ _ _ _ _ _ _ _ _ _ _ ( 0., 9X6X6X6X6X6X9X9X9X9X9X9X9X9X9X9X9X9X9X9X9X7X9X9X8XyXo kXpX7X9X9X9X9X9X9X9X9X9X9X9X9X9X9X9X9XqX9X9X9X6X8XsXo AXDXDXDXDXDXDXDXDXDXDXDXDXDXDXDXDXDXDXDXDXDXDXDXDXDX  DX",
"DXDXCX. iX8X9X9X7X9X9X9X9X9X9X9X9X9X9X9X9X9X9X9X9X9X6X6X7XpXO cXuX9X9X9X9X9X9X9X6X6X6X6X6X6X6X6X9X9X7X7X7X7X7XpXlX; h._ _ ' _ _ _ _ _ _ _ _ _ _ _ _ _ _ _ _ _ _ _ _ _ X.& U.#X1X-X=X-X-X-X-X-X-X-X-X-X-X-X-X-X-X-X*X*X*X*X#XL.  D.B.B.B.B.B.B.B.B.B.B.B.B.B.B.B.B.B.B.B.B.B.B.B.B.S.  L.+X=X*X&X-X-X-X*X-X-X-X-X-X-X-X-X-X-X-X-X-X*X*X#XT.K +X-X-X-X-X-X-X-X=X=X-X-X-X-X-X-X-X-X-X-X-X-X-X-X-XR.  H.Z.V.B.B.B.B.B.B.B.B.B.B.B.B.B.B.B.B.B.B.B.B.B.Z.H.  R.-X=X=X-X-X-X-X-X-X-X-X-X-X-X-X-X-X-X-X=X=X=X*X;X}.: 8.( _ _ _ _ _ _ _ _ _ _ _ _ _ _ _ _ _ _ _ _ _ _ ( 0., 9X6X6X6X6X6X9X9X9X9X9X9X9X9X9X9X9X9X9X9X9X7X9X9X8XyXo kXpX7X9X9X9X9X9X9X9X9X9X9X9X9X9X9X9X9XqX9X9X9X6X8XsXo AXDXDXDXDXDXDXDXDXDXDXDXDXDXDXDXDXDXDXDXDXDXDXDXDXDX  DX",
"DXDXCX. iX8X9X9X7X9X9X9X9X9X9X9X9X9X9X9X9X9X9X9X9X9X6X6X7XpXO cXuX9X9X9X9X9X9X9X6X6X6X6X6X6X6X6X9X9X9X7X7X7X7XpXlX; h._ _ ' _ _ _ _ _ _ _ _ _ _ _ _ _ _ _ _ _ _ _ _ _ X.& U.#X1X-X-X-X-X-X-X-X-X-X-X-X-X-X-X-X-X-X*X*X*X*X#XL.  D.B.B.B.B.B.B.B.B.B.B.B.B.B.B.B.B.B.B.B.B.B.B.B.B.S.  L.+X=X*X&X-X-X*X*X-X-X-X-X-X-X-X-X-X-X-X-X-X-X*X#XT.K +X-X=X=X-X-X-X-X=X=X-X-X-X-X-X-X-X-X-X-X-X-X-X-X-XR.  H.Z.V.B.B.B.B.B.B.B.B.B.B.B.B.B.B.B.B.B.B.B.B.B.Z.H.  R.-X=X=X-X-X-X-X-X-X-X-X-X-X-X-X-X-X-X-X=X=X=X*X;X}.: 8.( _ _ _ _ _ _ _ _ _ _ _ _ _ _ _ _ _ _ _ _ _ _ ( 0., 9X6X6X6X6X6X9X9X9X9X9X9X9X9X9X9X9X9X9X9X9X7X9X9X8XyXo kXpX7X9X9X9X9X9X9X9X9X9X9X9X9X9X9X9X9XqX9X9X9X6X8XsXo AXDXDXDXDXDXDXDXDXDXDXDXDXDXDXDXDXDXDXDXDXDXDXDXDXDX  DX",
"DXDXCX. iX7X7X7X9X9X9X9X7X7X7X9X9X9X9X9X9X9X9X9X9X9X7X7X7XpXO cXuX7X7X7X9X9X9X9X9X9X9X9X9X9X9X9X9X9X7X7X7X7X7XpXvX; p._ _ _ _ _ _ _ _ _ _ _ _ _ _ _ _ _ _ _ _ _ _ _ _ X.& U.#X1X-X-X-X-X-X-X-X-X-X-X-X-X-X-X-X-X-X-X*X*X-X#XK.  D.B.B.B.B.B.B.B.B.B.B.B.B.B.B.B.B.B.B.B.B.B.B.B.B.S.  Y.@X-X*X*X-X-X-X-X-X-X-X-X-X-X-X-X-X-X-X-X-X-X-X#XT.K +X-X=X=X-X-X-X-X=X=X-X-X-X-X-X-X-X-X-X-X-X-X-X-X-XR.  H.Z.V.B.B.B.B.B.B.B.B.B.B.B.B.B.B.B.B.B.B.B.B.V.Z.H.  R.-X-X-X-X-X-X-X=X-X-X-X-X-X-X-X=X-X-X-X=X=X=X=X-X}.: 8.( _ _ _ _ _ _ _ _ _ _ _ _ _ _ _ _ _ _ _ _ _ _ ( 0., 9X6X6X6X6X9X7X9X9X9X9X9X9X7X7X7X7X7X9X9X9X7X9X9X8XyXo kXpX7X7X9X9X9X9X9X9X9X9X9X9X9X9X9X9X9X9X9XuXuX7XyXrXo AXDXDXDXDXDXDXDXDXDXDXDXDXDXDXDXDXDXDXDXDXDXDXDXDXDX  DX",
"AXDXAX. pX6X6X6X9X9X9X9X9X9X9X9X8X8X8X9X9X9X9X8XuXuX9X9X8XjXO nXpX9X9X9XuXuX9X9X9X9XuXuX9X9X9X9X9X9X9X9X9X9XqXhXkX; W ] _ _ _ _ _ _ _ _ _ _ _ _ _ _ _ _ _ _ _ _ ` ] ] z.& U.%X2XoX&X&X&XoX&X&X&X*X&X&X;X;X;X;X-X3X3X2X2XXX+XK.X D.B.B.B.B.B.B.B.B.B.B.B.B.B.B.B.B.B.B.B.B.B.B.B.B.D.  R.#X>XXXXX-X-X=X=X=X=X&X&X&X&X&X&X&X&X&X&X&X&XXX).L.K +X=X=X&X&X&X&X&X&X&X&X&X&X&X&X&X&X&X&X&X&X&X&X&X&XR.. H.C.B.B.B.B.B.B.B.B.B.B.B.B.B.B.B.B.B.B.B.B.B.B.Z.G.  R.-X-X-X-X=X=X=X=X=X=X=X=X=X=X=X=X=X=X=X1X1X=X=X1X/.O r.{ _ _ _ _ _ _ _ _ _ _ _ _ _ _ _ _ _ _ _ _ _ _ [ 9., 7X6X6X6X6X7X8XuX8X8X8X8X8X9X9X9X9X9X9X9X9X9XuXpXuXpXO mXpX7X7X7X7X7X7X7X7X7X7X7X7X7X7X7X7X7X9XuXuXuX7XpXkX+ CXDXDXDXDXDXDXDXDXDXDXDXDXDXDXDXDXDXDXDXDXDXDXDXDXDXX DX",
"DXAXAX. hX9X9X9XpXpXpXjXgXgXgXgXpXgXfXgXpXpXpXpXpXpXpXpXyXtXo vXtXyXyXyXyXyXyXyXyXyXyXyXyXyXyXyXyXyXyXyXyXyXyXrXbXO l.d.p.p.g.g.h.h.h.h.h.h.h.h.h.h.h.h.h.h.h.f.f.f.d.t.% I._.@X+X+X+X#X+X+X+X+X+X+X+X+X+X).).`.#X%X%X%X%X'.I   J.D.D.D.D.D.D.D.D.D.G.G.G.G.G.G.G.D.D.D.D.D.G.G.S.MX@ I.'..X.X#X#X#X#X$X$X$X$X$X$X$X$X$X$X$X$X$X$X$X#X'.I.H '.).$X$X$X$X$X$X$X$X$X$X$X$X$X$X$X$X$X$X$X$X$X$X$XT.  MXG.A.F.F.S.S.D.G.G.G.D.D.G.D.D.D.D.D.D.D.D.D.D.H.MX  L.#X#X#X+X+X+X+X+X+X+X+X+X+X+X+X+X+X+X+X%X%X%X%X#X X+ 7.x.W W W W W W W W W W W p.p.p.p.p.p.p.p.p.p.p.l.u.; gX0XqXqXuXpXjXhXhXhXjXjXjXjXjXjXjXjXjXjXgXjXjXjXjXnXo BXiXaXpXpXpXgXpXgXpXpXpXpXpXgXpXgXpXpXjXpXjXjXjXiXlX. DXDXDXDXDXDXDXDXDXDXDXDXDXDXDXDXDXDXDXDXDXDXDXDXHXDX  DX",
"    X   o O O O O O o O O O O O o o o o o o o o O O O O o o .   o o o o o O O O O O O O O O O o o o o o o o o o o o ; < , , , , , , ; ; ; ; ; ; ; ; ; ; ; ; ; ; ; ; ; - X 6 H K K K K K K K K K K K K K K J J K K K K K K H 7 #                                                   @ 2 7 H K K K K K K K K K K K K K J J J J J J K K K H 7 3 H K J K K K K K K K K K K K K K K K K K K K K K K G @ X     .         X X X                               X G K K K K K K K K K K K K K K K K K K K K L L L L H + O ; ; ; ; ; ; ; ; ; ; ; ; ; ; ; ; - - ; ; ; ; ; - O O O O O O O O O o o o o o o o O O O O O O O O O O O o   . O O O O O O O O O O O O O O O O O O O O O O o o .                                                   X       ",
"DXDXDX  bXcXcXcXcXcXcXcXcXcXcXcXkXkXkXrXrXrXrXkXkXzXkXkXtXvX  BXbXcXcXcXcXkXcXcXkXkXkXkXkXkXcXcXcXcXcXcXcXcXcXbXvXo hXrXmXnXnXnXnXcXcXcXcXcXcXcXcXcXcXcXcXcXcXcXvXcXnXBX$ Y I.R.U.R.R.R.U.R.U.U.T.T.T.T.T.T.T.T.T.Q.Q.T.K.I Y 6 W.T.T.T.T.T.T.T.T.T.T.T.T.T.T.T.T.T.T.T.T.T.T.T.T.I.G U W.Q.Q.T.T.T.R.R.U.U.U.U.U.U.U.U.U.U.U.T.T.T.U.W.U 6 !.I.L.U.U.U.U.U.U.U.U.U.U.U.U.U.U.U.U.U.U.U.U.U.U.I.6 Y I I.P.L.T.Y.Y.Y.T.T.T.T.T.T.L.L.L.K.K.K.K.K.I.I Y 6 W.R.Q.Q.Q.Q.Q.Q.Q.Q.Q.Q.Q.Q.Q.Q.Q.Q.Q.Q.R.R.(.(.T.!.X bXbXcXcXcXcXcXcXcXcXcXcXbXbXcXcXcXbXbXcXcXcXcXcXbXBXo cXtXrXiXiXiXkXkXkXkXkXkXkXkXcXcXkXkXkXkXzXzXkXcXcXbX  NXlXtXkXkXrXrXrXrXkXkXkXrXkXrXkXkXkXkXzXkXkXkXsXbXNX  DXDXDXDXDXDXDXDXDXDXDXDXDXDXDXDXDXDXDXDXDXDXDXDXDXDX  DX",
"DXDXAX  cXfXfXuXuXuXuXuXuXuXuXuX8X8X8X8X9X9X9X9XuXpXuXuX8XpXO zXyX8X8X8X9X9X9X9X9XuXuXuXuXuXuXuXuXuXuXuXuXuXuXiXcXO iXjXpXuXqXwX8X8XyXyXyXyXuXuXyXyXyXyXyXyXyXyX8X8X8XkX@ I (.%X#X#X#X#X#X#X+X+X#X#X+X+X+X+X+X+X#X#X#X#X+X'.I.H (.).).).).).).).#X#X#X#X+X+X+X+X#X#X#X#X#X#X#X#X+X'.J I.(.`.@X@X+X+X+X+X+X+X+X+X+X+X+X+X+X+X+X+X+X#X#X'.W.H (.+X+X+X+X+X+X+X+X+X+X+X+X+X+X+X+X+X+X+X+X+X+X#X#X'.H I.'.#X+X+X+X+X+X+X+X+X+X+X+X+X+X+X+X+X#X#X#X+X$X(.I.H '.+X+X).).#X#X#X`.`.`.`.`.#X#X#X`.`.`.#X#X#X@X@X).L.@ lXpXuXuXuXpXpXpXpXpXpXpXyXyXyXyXyXyXyXyXyXpXyXyXiXzXO iX8XuXuXpXpXpXpXpXuXyXyXyXyXuXuXuXuXgXgXqXgXpXpXyXhX. bXnXpX8X8X8X8X8X8X8X8X8X8X8X8X8X8X8X8XpXpXpXpXfXsXbX. DXDXDXDXDXDXDXDXDXDXDXDXDXDXDXDXDXDXDXDXDXDXDXDXDXDX  DX",
"DXDXAX  hX9X9X9X9X7X9X9X9X9X9X9X6X6X6X6X6X6X6X6X9X7X9X7X6XuX- iX9X6X6X6X6X6X6X6X6X7X7X7X7X7X7X7X7X7X7X7X9X7X7X8XsXO yXgXuX9X6X6X6X6X6X6X6X6X6X6X6X6X6X6X6X6X6X6XwXwX6XkX# I.+X1XXXXXXXXXXXXXXX-X-X-X-X-X-X-X-X-X*X*XXX-X-X$XU.K ).&X&X&X*X*X*X*X;X;X;X;X&X&X&X&X;X;X;X;X;X;X;X;X*X$XK Y.`.&X=X<X=X-X-X-X-X-X-X-X-X-X-X-X-X-X-X-X-X-X*X#XR.L +X&X-X-X-X-X-X-X-X-X-X-X-X-X-X-X-X-X-X-X-X-X-X-X-X#XK U.#X1X=X=X=X&X&X&X&X=X-X-X-X-X-X-X-X-X-X-X-X-X-X+XL.K +X-X&X&X*X-X&X&X*X*X*X*X*X-X&X&X*X*X*X-XXX-X=X=X&XR.@ kXuX7X7X7X7X7X7X7X7X7X7X7X7X7X7X7X7X7X7X7X7X9X9XuXiX- yX7X7X7X9XuX9X9X7X9X9X9X9X9X9X9X9X9X6X6X6X9X9XuX8XfXo kXgX9X6X6X6X6X6X6X6X6X6X6X6X6X6X6X6X6X9X9XuXuXqXfXtX. AXDXDXDXDXDXDXDXDXDXDXDXDXDXDXDXDXDXDXDXDXDXDXDXDXDX  DX",
"DXDXAX  hX9X9X9X9X9X9X9X9X9X9X9X7X7X7X6X6X6X6X7XuXaX7X7X7XpX- iX9X7X7X7X9X7X7X7X7X7X7X9X7X7X7X7X7X7X7X9X7X7X7XuXcXO 8XqX9X9X9X9X7X6X6X6X6X6X6X6X6X6X6X6X6X6X6X6X6X6X6XkX2 U.+X=X-XXXXXXXXXXXXX-X-X=X=X=X=X=X=X-X*X*X-X-X&X+XT.K `.&X&X&X*X*X*X*X*X*X*X*X*X*X*X*X*X*X*X*X*X*X*X;X*X$XK Y.@X=X-X-X-X-X-X-X-X-X-X-X-X-X-X-X-X-X-X-X-X-X-X#XR.L %X-X-X-X-X-X-X-X-X-X-X-X-X-X-X-X-X-X-X-X-X*X*X-X-X#XJ I.`.-X=X=X&X&X*X-X-X-X*X*X*X*X-X-X-X-X-X-X-X-X-X).L.H `.*X&X=X&X-X-X-X*X*X-X-X-X-X-X-X-X-X-X*XOXOX*X&X&X(.# kX9X6X6X6X6X6X6X6X6X6X6X6X6X6X6X6X6X6X6X6X6X6X6X8XsXO yX7X7X7X9X9X7X7X7X9X9X6X6X6X9X6X6X6X6X6X6X9X9X9X9XfXo cXgX9X6X6X6X6X6X6X6X6X6X6X6X6X6X6X6X6X9X9X8X8XqX8XtXo AXDXDXDXDXDXDXDXDXDXDXDXDXDXDXDXDXDXDXDXDXDXDXDXDXDX  DX",
"DXDXAX  hX9X9X9X9X9X9X9X9X9X9X9X9X9X9X9X6X6X6X7XuXuX9X9X7XpX- nXuX9X9X9X9X7X7X7X7X7X7X7X7X7X7X9X7X7X7X7X9X9X9XyXbXO 8X6X9X9X9X9X7X6X6X6X6X6X6X6X6X6X6X6X6X6X6X6X6X6X6XzX3 R.+X=X-XXXXXXXXXXXXX-X-X=X=X=X=X=X=X-X*X-X-X-X&X+XY.J `.*X*X*X*X*X*X*XXXXXXX*X*X*X*X*X*X*X*X*X*X*X*X;X*X$XK Y.@X=X-X-X-X-X-X-X-X-X-X-X-X-X-X-X-X-X-X-X-X-X-X#XR.L %X-X-X-X-X-X-X-X-X*X-X-X-X-X-X-X-X-X-X-X*X*X-X-X-X#XJ I.`.-X=X=X&X*X-X-X-X-X*XXXXXXX-X-X-X-X-X-X-X-X-X).L.H '.*X&X=X-X-X-X-X*X-X-X-X-X-X-X-X-X-X-X*XOXOX*X&X*X(.# kX9X6X6X6X6X6X6X6X6X6X6X6X6X6X6X6X6X6X6X6X6X6X6X8XsXO yX7X9X9X9X9X7X6X6X6X6X6X6X6X9X9X9X9X9X9X9X9X9X9X9XfXo sXgX9X6X9X9X9X9X9X9X9X9X9X9X9X9X9X9X6X9X9X9X9XqX8XtX. AXDXDXDXDXDXDXDXDXDXDXDXDXDXDXDXDXDXDXDXDXDXDXDXDXDX  DX",
"DXDXAX  hX9X9X9X9X9X9X9X9X9X9X9X7X7X9X9X9X9X9X9X9X9X6X7X7XpXO nXuX9X9X9X9X9X9X9X9X9X9X9X9X9X9X9X9X9X9X9X9X9X9XyXbXO 8XqX9X9X9X9X9X9X9X9X9X9X9X9X9X9X9X9X9X9X9X6X6X6X7XxX3 U.+X-X-X-X-X-X-X-X-X-X-X-X-X-X-X-X-X-X-X-X-X*X&X+XL.J #X*X*X*X*X*X*X*X*X-X3X-X-X-X-X-X&X&X&X;X-X-X&X&X*X$XK T.+X-X*X*X-X-X-X-X-X-X-X-X-X-X-X-X-X-X=X-X-X-X-X#XR.K +X-X-X-X-X-X-X-X-X-X-X-X-X-X-X-X-X-X-X-X-X-X-X-X-X+XK L.+X-X=X=X-X-X*X*X*X*X-X-X-X-X-X-X-X-X-X-X-X-X-X+XL.J `.*X-X-X-X-X-X-X-X-X-X-X-X-X-X-X-X-X-X-X*X*X*X-X*X(.@ rX8X6X6X6X6X6X6X6X6X6X6X6X6X6X6X6X6X6X6X6X6X6X6X8XcXO 8X6XuXuXuX9X9X9X9X9X9X9X9X9X9X9X9X9X9X9X9X9X9X9X6X8Xo rXgX6X9X7X9X9X9X9X9X9X9X7X7X7X7X7X9X9X6X9X9X9XqX8XtX. AXDXDXDXDXDXDXDXDXDXDXDXDXDXDXDXDXDXDXDXDXDXDXDXDXDX  DX",
"DXDXDX  hXuX9X9X9X9X9X9X9X9X9X9X7X7X9X9X9X9X7X9X9X9X6X6X7XpXO cXuX9X9X9X9X9X9X9X6X6X6X6X6X6X6X6X6X6X6X6X6X6X6XyXcXO uX9X9X9X6X6X6X9X9X9X9X9X9X9X9X9X9X9X9X9X9X6X6X6X7XxX2 U.+X-X-X-X-X-X-X-X-X-X-X-X-X-X-X-X-X-X-X-X*X*X&X+XL.J +X-X-X-X-X*X*X*X-X-X-X-X-X-X-X-X&X&X&X&X-X-X&X&X*X$XK U.#X-X*X*X*X-X-X-X-X-X-X-X-X-X-X-X-X-X=X-X-X*X-X#XT.K +X-X-X-X-X-X-X-X-X-X-X-X-X-X-X-X-X-X-X-X-X-X-X-X-X+XK Y.+X-X=X=X-X-X*X*X*X*X-X-X-X-X-X-X-X-X-X-X-X-X-X+XU.K #X-X*X*X-X-X-X-X-X-X-X-X-X-X=X=X-X-X-X-X-X-X*X*XXX~.@ sX8X6X6X6X6X6X6X6X6X6X6X6X6X6X6X6X6X6X6X6X6X6X6X8XcXO 8X6XuXuXuX9X9X9X9X9X9X9X9X9X9X9X9X9X9X9X9X9X9X9X9X8Xo rXgX9X9X9X9X7X9X9X9X9X9X9X7X7X7X7X9X9X9X9X9X9X9XqXtX. AXDXDXDXDXDXDXDXDXDXDXDXDXDXDXDXDXDXDXDXDXDXDXDXDXDX  DX",
"DXDXDX  hXuX9X9X9X9X9X9X9X9X9X9X7X9X9X9X7X7X7X9X9X9X6X6X7XpXO cXuX9X9X9X9X9X9X9X6X6X6X6X6X6X6X6X6X6X6X6X6X6X6XuXkXO uX9X9X9X6X6X6X9X9X9X9X9X9X9X9X9X9X9X9X9X9X6X6X6X7XxX2 U.+X-X-X-X-X-X-X-X-X-X-X-X-X-X-X-X-X-X-X-X*X*X&X+XL.K +X-XXXXX-X-X*X*X-X-X-X-X-X-X-X-X&X&X&X&X-X&X&X&X*X$XK U.#X-X-X*X*X-X-X-X-X-X-X-X-X-X-X-X-X-X-X-X-X*X-X#XT.K +X-X-X-X-X-X-X-X-X-X-X-X-X-X-X-X-X-X-X-X-X-X-X-X-X+XK Y.+X-X=X=X-X-X*X*X*X*X-X-X-X-X-X-X-X-X-X-X-X-X-X+XL.K #X-X*X*X-X-X-X-X-X-X-X-X-X-X-X-X-X-X-X-X-X-X-X*XXX~.@ sX8X6X6X6X6X6X6X6X6X6X6X6X6X6X6X6X6X6X6X6X6X6X6X8XcXO 8X6XuXuXuX9X9X9X9X9X9X9X9X9X9X9X9X9X9X9X9X9X9X9X9X8Xo rXgX9X9X7X7X7X7X7X9X9X9X9X9X9X7X9X9X9X9X9X9X9X9XqXtX. AXDXDXDXDXDXDXDXDXDXDXDXDXDXDXDXDXDXDXDXDXDXDXDXDXDX  DX",
"DXDXDX. hXuX9X9X9X9X9X9X9X9X9X9X7X7X9X9X7X7X7X9X9X9X6X6X7XpXO cXuX9X9X9X9X9X9X9X6X6X6X6X6X6X6X6X6X6X6X6X6X6X6XuXzXO uXuX9X9X6X6X6X9X9X9X9X9X9X9X9X9X9X9X9X9X9X6X6X6X7XxX2 U.+X-X-X-X-X-X-X-X-X-X-X-X-X-X-X-X-X-X-X-X*X*X&X+XL.K +X-XXXXX-X-X*X-X-X-X-X-X-X-X-X-X&X&X&X&X&X&X&X&X*X$XK U.#X-XXX*X-X-X-X-X-X-X-X-X-X-X-X-X-X-X-X-X-X*X-X#XT.K +X-X-X-X-X-X-X-X-X-X-X-X-X-X-X-X-X-X-X-X-X-X-X-X-X+XK Y.+X-X=X=X-X-X*X*X*X*X-X-X-X-X-X-X-X-X-X-X-X-X-X+XU.K #X-X*X*X-X-X-X-X-X-X-X-X-X-X-X-X-X-X-X-X-X-X-X*XXX~.@ sX8X6X6X6X6X6X6X6X6X6X6X6X6X6X6X6X6X6X6X6X6X6X6X8XcXO 8X6XuXuX8X9X9X9X9X9X9X9X9X9X9X9X9X9X9X9X9X9X9X9X9X8Xo rXgX9X7X7X7X7X7X7X9X9X9X9X9X9X9X9X9X9X9X9X9X9X9XqXtX. AXDXDXDXDXDXDXDXDXDXDXDXDXDXDXDXDXDXDXDXDXDXDXDXDXDX  DX",
"DXDXDX. hXuX9X9X9X9X9X9X9X9X9X9X9X9X9X9X9X9X9X9X9X9X6X6X7XpXO cXuX9X9X9X9X9X9X9X6X6X6X6X6X6X6X6X6X6X6X6X6X6X6XuXkXO uXuX9X9X6X6X6X9X9X9X9X9X9X9X9X9X9X9X9X9X9X6X6X6X7XxX2 U.+X-X-X-X-X-X-X-X-X-X-X-X-X-X-X-X-X-X-X-X*X*X&X+XL.K +XXXXXXX-X-X-X-X-X-X-X-X-X-X-X-X-X-X-X-X-X-X-X&X*X$XK T.#X-X-XXX-X*X*X*X*X*X-X-X-X-X-X-X-X-X-X-X*X*X-X#XT.K +X-X-X-X-X-X-X-X-X-X-X-X-X-X-X-X-X-X-X-X-X-X-X-X-X+XK Y.+X-X=X=X-X-X*X*X*X*X-X-X-X-X-X-X-X-X-X-X-X=X2X+XU.K #XXX*X*X-X-X-X-X-X-X-X-X-X-X-X-X-X-X-X-X-X-X-X*XXX~.@ sX8X6X6X6X6X6X6X6X9X9X9X9X7X7X7X7X6X6X6X6X6X6X6X8XcXO 8X6XuXuX8X9X9X9X9X9X9X9X9X9X9X9X9X9X9X9X9X9X9X9X9X8Xo rXgX9X7X7X7X9X7X7X7X7X7X7X9X9X9X9X9X9X9X9X9X9X9XqXtX. AXDXDXDXDXDXDXDXDXDXDXDXDXDXDXDXDXDXDXDXDXDXDXDXDXDX  DX",
"DXDXDX. hXuX9X9X9X9X9X9X9X9X9X9X9X9X9X9X9X9X9X9X9X9X6X6X7XpXO cXuX9X9X9X9X9X9X9X6X6X6X6X6X6X6X6X6X6X6X6X6X6X6XuXkXO uXuX9X9X6X6X6X9X9X9X9X9X9X9X9X9X9X9X9X9X9X6X6X6X7XxX2 U.+X-X-X-X-X-X-X-X-X-X-X-X-X-X-X-X-X-X-X-X*X*X&X+XL.K +X-XXXXX-X-X-X-X-X-X-X-X-X-X-X-X-X-X-X-X-X-X-X&X*X$XK L.#X-XXXXX-X-X*X*X*X*X-X-X-X-X-X-X-X-X-X-X*X*X-X#XT.K +X-X-X-X-X-X-X-X-X-X-X-X-X-X-X-X-X-X-X-X-X-X-X-X-X+XK Y.+X-X=X=X-X-X*X*X*X*X-X-X-X-X-X-X-X-X-X-X=X=X2X+XU.K #XXXXX-X-X-X-X-X-X-X-X-X-X-X-X-X-X-X-X-X-X-X-X*XXX~.@ sX8X6X6X6X6X6X6X6X9X9X9X9X7X7X7X7X6X6X6X6X6X6X6X8XcXO 8X7XuXuX8X9X9X9X9X9X9X9X9X9X9X9X9X9X9X9X9X9X9X9X9X8Xo rXgX9X7X7X7X9X7X7X9X7X7X7X9X9X9X9X9X9X9X9X9X9X9X8XtXo AXDXDXDXDXDXDXDXDXDXDXDXDXDXDXDXDXDXDXDXDXDXDXDXDXDX  DX",
"DXDXDX. hXuX9X9X9X9X9X9X9X9X9X9X9X9X7X9X9X9X9X9X9X9X6X6X7XpXO cXuX9X9X9X9X9X9X9X6X6X6X6X6X6X6X6X6X6X6X6X6X6X6XuXkXO uXqX9X9X6X6X6X9X9X9X9X9X9X9X9X9X9X9X9X9X9X6X6X6X9XxX3 U.+X-X-X-X-X-X-X-X-X-X-X-X-X-X-X-X-X-X-X-X*X*X&X+XL.K +XXXXXXX-X-X-X*X-X-X-X-X-X-X-X-X-X-X-X-X-X-X&X&X*X$XJ L.#X-X*X*X-X*X*X*X*X-X-X-X-X-X-X-X=X=X=X-X-X*X-X#XT.K +X-X-X-X-X-X-X-X-X-X-X-X-X-X-X-X-X-X-X-X-X-X-X-X-X+XL R.+X-X=X-X-X-X*X*X*X*X-X-X-X-X-X-X-X-X-X-X=X=X2X+XU.K #XXX-X-X-X-X-X-X-X-X-X-X-X-X=X=X-X-X-X-X-X-X-X-XXX~.@ sX8X6X6X6X6X6X6X6X9X9X9X9X9X9X7X7X6X6X6X6X6X6X6X8XkXO 8X7X9XuXqX9X9X9X9X9X9X9X9X9X9X9X9X9X9X9X9X9X9X9X9X8Xo rXgX9X7X7X9X9X9X9X9X9X7X7X9X9X9X9X9X9X6X9X9X9X9X8XtX. AXDXDXDXDXDXDXDXDXDXDXDXDXDXDXDXDXDXDXDXDXDXDXDXDXDX  DX",
"DXDXDX. hXuX9X9X9X9X9X9X9X9X9X9X9X9X7X7X9X9X9X9X9X9X6X6X7XpXO cXuX9X9X9X9X9X9X9X6X6X6X6X6X6X6X6X6X6X6X6X6X6X6XuXkXO uXqX9X9X6X6X6X9X9X9X9X9X9X9X9X9X9X9X9X9X9X6X6X6X9XxX3 U.+X-X-X-X-X-X-X-X-X-X-X-X-X-X-X-X-X-X-X-X*X*X&X+XL.K +XXXXXXX-X-X-X*X-X-X-X-X-X-X-X-X-X-X-X-X-X-X-X&X*X`.K L.#X-X*X*X-X-X*X*X-X-X-X-X-X-X-X-X=X=X=X-X-X*XXX#XT.K +X-X-X-X-X-X-X-X-X-X-X-X-X-X-X-X-X-X-X-X-X-X-X-X-X+XK R.+X&X=X*X-X-X*X*X*X*X-X-X-X-X-X-X-X-X-X-X=X=X-X+XU.K #X-X*X*X-X-X-X-X-X-X-X-X-X-X=X=X-X-X-X-X-X-X-X-XXX~.@ sX8X6X6X6X6X6X6X6X9X9X9X9X9X7X7X7X6X6X6X6X6X6X6X8XkXO 8X7X9X9XqX9X9X9X9X9X9X9X9X9X9X9X9X9X9X9X9X9X9X9X9X8Xo rXgX7X7X7X9X9X9X9X9X9X7X7X9X9X9X9X9X9X6X9X9X9X9X8XtX. AXDXDXDXDXDXDXDXDXDXDXDXDXDXDXDXDXDXDXDXDXDXDXDXDXDX  DX",
"DXDXDX. hXuX9X9X9X9X9X9X9X9X9X9X9X9X6X6X6X6X6X6X6X6X6X6X7XpXO kXuX9X9X9X9X9X9X9X6X6X6X6X6X6X6X6X6X6X6X6X6X6X6XuXkXO uX9X9X9X6X6X6X9X9X9X9X9X9X9X9X9X9X9X9X9X9X6X6X6X7XxX2 U.+X-X-X-X-X-X-X-X-X-X-X-X-X-X-X-X-X-X-X-X*X*X&X+XL.K +X-X-X-X*X*X*X*X-X-X-X-X-X-X-X-X-X-X-X-X-X-X=X=XoX$XJ T.#X-X-X-X-X-X-X-X-X-X-X-X-X-X-X-X-X-X-X-X-XXX-X`.T.K +X-XXXXXXXXX-X-X=X-X-X-X-X-X-X-X-X-X-X-X-X-X-X-X-X+XK Y.+X-X&X*X-X-X-X-X-X-X-X-X-X-X-X-X-X-X-X-X-X-X-X+XL.K +X-X*X*X-X-X-X-X-X-X-X-X-X-X-X-X-X-X-X-X-X-X*X-XXX~.@ sX8X6X6X6X9X9X9X9X9X9X9X9X7X7X9X9X9X9X6X6X6X6X6X8XkXO uX9X9X8X9X9X9X9X9X9X9X9X9X9X9X9X9X9X9X9X9X9X9X9X9X8Xo rXuX7X7X7X7X9X9X9X9X9X9X9X9X9X9X9X9X9X6X9X9X9X9X8XtX. AXDXDXDXDXDXDXDXDXDXDXDXDXDXDXDXDXDXDXDXDXDXDXDXDXDX  DX",
"DXDXDX. hXuX9X9X9X9X9X9X9X9X9X9X9X9X6X6X6X6X6X6X6X6X6X6X7XpXO kXuX9X9X9X9X9X9X9X6X6X6X6X6X6X6X6X6X6X6X6X6X6X6XuXkXO yX9X9X9X6X6X6X9X9X9X9X9X9X9X9X9X9X9X9X9X9X6X6X6X7XxX2 U.+X-X-X-X-X-X-X-X-X-X-X-X-X-X-X-X-X-X-X-X*X*X&X+XL.K +X-X-X-X*X*X*X*X-X-X-X-X-X-X-X-X-X-X-X-X-X-X=X-XoX`.J L.#X-X-X-X-X-X-X-X-X-X-X-X-X-X-X-X-X-X-X-X-X*X-X#XT.K +X-XXX-XXXXX-X-X=X=X-X-X-X-X-X-X-X-X-X-X-X-X-X-X-X#XK U.+X&X&X*X-X-X-X-X-X-X-X-X*X*X-X-X-X-X-X-X-X-X-X).L.K +X-X*X*X-X-X-X-X-X-X-X-X-X-X-X-X-X-X-X-X-X-X*X-XXX~.@ sX8X6X6X6X9X9X9X9X9X9X9X9X7X7X9X9X9X9X6X6X6X6X6XuXkXO uX9X9X8X9X9X9X9X9X9X9X9X9X9X9X9X9X9X9X9X9X9X9X9X9X8Xo rXgX7X7X7X7X9X9X9X9X9X9X9X9X9X9X9X9X9X9X9X9X9X9X8XrX. AXDXDXDXDXDXDXDXDXDXDXDXDXDXDXDXDXDXDXDXDXDXDXDXDXDX  DX",
"DXDXDX. hXuX9X9X9X9X9X9X9X9X9X9X9X9X6X6X6X6X6X6X6X6X6X6X7XpXO kXuX9X9X9X9X9X9X9X6X6X6X6X6X6X6X6X6X6X6X6X6X6X6XuXkXO yX9X9X9X6X6X6X9X9X9X9X9X9X9X9X9X9X9X9X9X9X6X6X6X7XxX2 U.+X-X-X-X-X-X-X-X-X-X-X=X-X-X-X-X-X-X-X-X*X*X&X+XL.K +XXX-X-X-X-X-X-X-X-X-X-X-X-X-X-X-X-X-X-X-X-X-X-XoX`.J L.#X-X-X-X-X-X-X-X-X-X-X-X-X-X-X-X-X-X-X-X-X*X*X#XT.K +X-X-X-X-X-X-X-X=X=X-X-X-X-X-X-X-X-X-X-X-X-X-X-X-X#XK Y.+X-X*X*X-X-X-X-X-X-X*X*X*X*X-X-X-X-X-X-X-X-X-X).L.K +X-X*X*X-X-X-X-X-X-X-X-X-X-X-X-X-X-X-X-X-X-X-X*XXX~.@ sX8X6X6X6X9X9X9X9X9X9X9X9X7X7X7X7X9X9X6X6X6X6X6XuXkXO uX9X9X9X9X6X9X9X9X9X9X9X9X9X9X9X9X9X9X9X9X9X9X9X9X8Xo rXgX9X7X7X9X9X9X9X9X9X9X9X9X9X9X9X9X9X9X9X9X9X9X8XrX. AXDXDXDXDXDXDXDXDXDXDXDXDXDXDXDXDXDXDXDXDXDXDXDXDXDX  DX",
"DXDXDX. hXuX9X9X9X9X9X9X9X9X9X9X9X9X6X6X6X6X6X6X6X6X6X6X7XpXO kXuX9X9X9X9X9X9X9X6X6X6X6X6X6X6X6X6X6X6X6X6X6X6XuXkXO yX9X9X9X6X6X6X9X9X9X9X9X9X9X9X9X9X9X9X9X9X6X6X6X7XxX2 U.+X-X-X-X-X-X-X-X-X-X=X=X-X-X-X-X-X-X-X-X*X*X&X+XL.K +X-X-X-X-X-X-X-X-X-X-X-X-X-X-X-X-X-X-X-X-X-X-X-XoX`.J L.#X-X-X-X-X-X-X-X-X-X-X-X-X-X-X-X-X-X-X-X-X*X*X#XT.K +X-X-X-X-X-X-X-X=X=X-X-X-X-X-X-X-X-X-X-X-X-X-X-X-X#XL Y.+X-X*X*X-X-X-X-X-X-X*X*X*X*X-X-X-X-X-X-X-X-X;X).L.K +X*X*X*X-X-X-X-X-X-X-X-X-X-X-X-X-X-X-X-X-X-X-X*XXX~.@ sX8X6X6X6X9X9X9X9X9X9X9X7X7X7X7X7X9X9X6X6X6X6X6XuXkXO uX9X9X9X9X6X9X9X9X9X9X9X9X9X9X9X9X9X9X9X9X9X9X9X9X8Xo rXgX9X7X7X7X9X9X9X9X9X9X9X9X9X9X9X9X9X9X9X9X9X9X8XrX. CXDXDXDXDXDXDXDXDXDXDXDXDXDXDXDXDXDXDXDXDXDXDXDXDXDX  DX",
"DXDXDX. hXuX9X9X9X9X9X9X9X9X9X9X9X9X6X6X6X6X6X6X6X6X6X6X7XyXO kXuX9X9X9X9X9X9X9X6X6X6X6X6X6X6X6X6X6X6X6X6X6X6XuXkXO yX9X9X7X6X6X6X9X9X9X7X7X7X7X9X9X9X9X7X7X7X6X6X6X7XxX2 U.+X-X-X-X-X-X-X-X-X-X=X=X=X-X-X-X-X-X-X*X*X*X*X#XL.K +XXXXX-X-X-X-X-X-X-X-X-X-X-X-X-X-X-X-X-X-X-X-X-XoX#XJ L.`.-X-X-X-X-X-X-X-X-X-X-X-X-X-X-X-X-X-X-X-X*X-X#XT.K +X-X-X-X-X-X=X=X-X-X-X-X-X-X-X-X-X-X-X-X-X-X-X-X-X#XL Y.+X-X*X-X-X-X-X-X-X-X*X-X-X-X-X-X-X-X-X-X-X-X;X).L.K +X-X*X*X-X-X-X-X-X-X-X-X-X-X-X-X-X-X-X-X-X-X-X*XXX~.@ sX8X6X6X6X9X9X9X9X7X7X9X9X9X9X9X9X7X7X6X6X6X6X6XuXkXO uX9X9X9X6X6X9X9X9X9X9X9X9X9X9X9X9X9X9X9X9X9X9X9X9X8Xo rXgX7X9X9X9X9X7X9X9X9X9X9X6X6X6X6X6X6X9X9X9X9X9X9XrXo AXDXDXDXDXDXDXDXDXDXDXDXDXDXDXDXDXDXDXDXDXDXDXDXDXDX  DX",
"DXDXDX. hXuX9X9X9X9X9X9X9X9X9X9X9X9X6X6X6X6X6X6X6X6X6X6X7XyXO kXuX9X9X9X9X9X9X9X6X6X6X6X6X6X6X6X6X6X6X6X6X6X6XuXzXO yX9X9X7X6X6X6X9X9X9X7X7X7X7X9X9X9X9X7X9X7X6X6X6X7XxX2 U.+X-X-X-X-X-X-X-X-X-X=X=X-X-X-X-X-X-X-X*X*X*X*X#XL.K +XXX-X-X-X-X-X-X-X-X-X-X-X-X-X-X-X-X-X-X-X-X-X-XXX#XJ L.`.-X-X-X-X-X-X-X-X-X-X-X-X-X-X-X-X-X-X-X-X*X-X#XT.K +X-XXXXX-X-X=X=X=X=X-X-X-X-X-X-X-X-X-X-X-X-X-X-X-X#XK U.+X-X&X-X-X-X-X-X-X*X-X-X-X-X-X-X-X-X-X-X-X-X-X).L.K +X-X*X*X-X-X-X-X-X-X-X-X-X-X-X-X-X-X-X-X-X-X-X*XXX~.@ sX8X6X6X6X9X9X9X9X7X7X9X9X9X9X7X7X7X7X6X6X6X6X6XuXkXO uX9X9X9X6X6X6X9X9X9X9X9X9X9X9X9X9X9X9X9X9X9X9X9X9X8Xo rXuX7X9X9X9X9X7X7X9X9X9X9X6X6X6X6X6X6X9X7X9X9X9X9XtXo AXDXDXDXDXDXDXDXDXDXDXDXDXDXDXDXDXDXDXDXDXDXDXDXDXDX  DX",
"DXDXDX  hXuX9X9X9X9X9X9X9X9X9X9X9X9X6X6X6X6X6X6X6X6X6X6X7XpXO kXuX9X9X9X9X9X9X9X6X6X6X6X6X6X6X6X6X6X6X6X6X6X6XuXzXO yX9X9X7X6X6X6X9X9X9X9X9X7X7X9X9X9X9X9X9X7X6X6X6X7XxX3 U.+X-X-X-X-X-X-X-X-X-X-X-X-X-X-X-X-X-X-X*X*X*X*X#XL.K +XXXXXXX-X-X-X-X-X-X-X-X-X-X-X-X-X-X-X-X-X-X-X-XXX#XJ L.`.-X-X-X-X-X-X-X-X-X-X-X-X-X-X-X-X-X-X-X*X*X*X`.T.K +X-XXXXXXXXX=X=X-X=X-X-X-X-X-X-X-X-X-X-X-X-X-X-X-X#XK U.+X-X&X*X-X-X-X-X*X*X-X-X-X-X-X-X-X-X-X-X-X-X-X).L.K +X-X*X*X-X-X-X-X-X-X-X-X-X-X-X-X-X-X-X-X-X-X-X*XXX~.@ tX8X6X6X6X9X9X9X9X7X7X9X9X9X9X7X7X7X7X6X6X6X6X6XuXkXO uX9X7X9X6X6X6X9X9X9X9X9X9X9X9X9X9X9X9X9X9X9X9X9X9X8Xo rXuX7X9X9X7X7X7X7X9X9X9X9X6X6X6X6X6X6X9X7X9X9X9X9XtXo AXDXDXDXDXDXDXDXDXDXDXDXDXDXDXDXDXDXDXDXDXDXDXDXDXDX  DX",
"DXDXAX  hX9X9X9X9X9X9X9X9X9X7X7X7X7X6X6X6X6X6X6X6X6X6X6X6XuXO kXuX7X7X7X9X9X9X6X6X6X6X6X6X6X6X6X6X6X6X6X6X6X6XuXzXO 8X9X7X7X9X6X6X7X7X7X7X7X7X7X7X7X7X7X7X7X7X7X6X6X9XxX2 K.+X-X-X-X-X-X-X-X-X-X-X-X-X-X-X-X-X-X-X*X*X*X&X+XK.K +XXXXXXX-X-X-X-X-X-X-X-X-X-X-X-X-X-X-X-X-X-X-X-XoX#XK T.`.-X-X-X-X-X-X-X-X-X-X-X-X-X-X-X-X-X-X-X*X*X*X`.T.K ).-X-XXXXXXX-X-X-X-X-X-X-X-X-X-X-X-X-X-X-X-X-X-X-X#XK Y.+X-X*X*X*X-X-X-X*X-X-X-X-X-X-X-X-X-X-X-X-X-X&X).L.K +X-X*X*X-X-X-X-X-X-X-X-X-X-X-X-X-X-X-X-X-X=X-X-XXX~.@ tX8X6X6X6X9X9X9X9X9X9X9X9X7X7X7X7X6X6X6X6X6X6X6X8XrXO uX9X9X9X6X6X6X6X6X6X6X6X6X6X6X6X6X6X6X6X6X9X9X9X9X8Xo rXuX7X9X9X7X7X7X7X9X9X9X9X9X9X9X9X9X6X9X9X9X9X9X8XtXo AXDXDXDXDXDXDXDXDXDXDXDXDXDXDXDXDXDXDXDXDXDXDXDXDXDX  DX",
"DXDXAX  hX9X9X9X9X9X9X9X9X9X6X6X6X6X6X6X6X6X6X6X6X6X6X6X6X8X- iX9X6X6X6X7X7X6X6X6X6X6X6X6X6X6X6X6X6X6X7X7X7X7X9XiXO 7X9X7X7X6X6X6X6X6X6X7X6X6X6X7X6X6X6X6X6X6X7X8X8X9XzX# I.).-X-X-X-X-X-X-X-X-X-X-X-X1X1X-X-X-X-X-X-X-X=X@XU.K #X>X>X>X1X1X1X1X1X1X1X1X1X1X1X1X-X-X-X-X-X-X-X-XoX+XL R.#X*X*X*X-X-X-X-X-X-X-X-X-X-X-X-X-X-X-X-X*X&XOX`.T.K ).*X-X-X-X-X*X*X*X*X-X-X-X-X-X-X-X-X-X-X-X-X-X-X-X#XK U.+X&X-X*X*X*X*X-X-X-X-X-X-X-X-X-X-X-X-X-X=X=X;X).K.J `.*X*X*X*X*X*X*X*X*X-X-X-X-X-X-X*X*X*X-X<X<X=X-X*X~.@ tXuX6X6X6X9X9X6X6X6X6X6X6X6X6X6X6X6X6X6X6X6X6X6X8XrXO uX9X9X9X9X9X6X6X6X6X6X6X6X6X6X6X6X6X6X6X6X6X9X9X9X8Xo rXuX7X7X9X9X9X9X9X9X7X9X9X9X9X7X7X9X9X9X9X9X8XqX8XtX. AXDXDXDXDXDXDXDXDXDXDXDXDXDXDXDXDXDXDXDXDXDXDXDXDXDX  DX",
"DXDXAX  hX9X9X9X9X9X9X9X9X9X6X6X6X7X6X6X6X6X6X6X6X6X6X6X6X8X- pX9X6X6X6X7X6X6X6X6X6X6X6X6X6X6X6X7X7X7X7X9X9X7XuXiXO 7X9X9X9X7X9X7X7X7X7X7X7X7X7X7X7X7X7X7X7X7X7X8X8X9XkX# I.+X-X-X-X-X-X-X-X-X-X-X-X-X-X-X-X-X-X-X-X1X1X=X@XU.K #X>X>X>X1X1X1X1X1X1X1X1X1X1X1X1X-X-X-X-X-X-X-X-XoX%XL R.#X*X*X*X-X-X-X-X-X-X-X-X-X-X-X-X-X-X-X-X*XXXXX`.T.K +X*X-X-X-X-X*X*X*X*X-X-X-X-X-X-X-X-X-X-X-X-X-X-X-X#XK K.`.;X-X-X*X*X-X-X-X-X-X-X-X-X-X&X-X-X-X-X=X-X-X`.K.J `.*X*X*XXX-X-X*X-X-X-X-X-X-X-X-X*X-X-X-X<X<X=X=X*X(.@ rXuX7X7X7X9X9X9X9X9X9X6X6X6X6X6X6X6X6X6X6X6X6X6X8XrXO uX9XuXuX8X9X6X6X6X6X6X6X6X6X6X6X6X6X6X6X6X6X9X9X9XyXo kXuX7X9X9X9X9X9X9X9X9X9X9X9X9X9X9X9X9X9X9X8X8XqX8XtXo AXDXDXDXDXDXDXDXDXDXDXDXDXDXDXDXDXDXDXDXDXDXDXDXDXDX  DX",
"DXDXCX. uX6X6X6X9X9X9X9X9X9X9X9X9X9X7X7X6X6X6X7X7X7X6X6X6XuXO iXuX9X9X9X7X7X7X7X9X9X9X9X7X7X7X7X9X9X9X9XuX9X9XpXkXO 8XqXuXuX8X8X9X9X9X9X9X9X9X9X9X9X9X9X9X9X9X9X9X9X8XxX2 L.@X<X-X&X&X&X;X*X*X*X*X*X*X*X*X*X*X*X-X-X>X1X<X+XL.K #XXXXXXX*X*X-X-X-X-X-X-X-X-X-X-X-X-X-X-X1X1X1X1XXX%XK R.#X-XXXXX-X-X-X-X-X-X-X-X-X-X-X-X-X-X-X*X*X*XXX#XT.K +X-X-X-X-X-X-X-X-X-X-X-X-X-X-X-X-X-X-X-X-X-X-X-X-X#XJ P.#X1X>X>XXX*X-X-X-X-X-X-X-X-X-X-X-X-X-X-X-X-X2X#XK.J `.*XXXXXXXXX-X-X-X-X-X-X-X-X-X-X-X-X-X-X=X;X=X=X-X(.@ sXyX9X9X9X9X9X9X9X9X9X9X8X9X9X9X9X9X9X9X9X9X9X9XfXkXO fXuXuXpXyX8X9X9X9X9X9X9X9X9X9X9X9X9X9X9X9X9X8X8X8XiXo kXgX9X9X9X8X8XuXuXuXuXuXuX9X9X9X9XuXuX7X9XuX9X9XyXrXo AXDXDXDXDXDXDXDXDXDXDXDXDXDXDXDXDXDXDXDXDXDXDXDXDXDX  DX",
"AXDXCX. uX6X6X6X9XuXuX9X9X9X9X9X9X9X7X7X7X7X7X7X9X9X7X6X6XuXO iXpX9X9X9X9X9X9X7X7X7X7X7X7X9X9X9X9X9X9X9X9XuXuXpXkXO 8XqXuXuX8X8X9X9X9X9XuXuXuX9X9X9X9X9XuXuXuX9X7X9X8XxX3 U.@X=X-X&X&X&X;X;X;X;X*X*X*X*X*X*X*X*X-X-X1X1X=X@XL.J ).*XXX-X-X-X-X-X;X;X;X&X&X&X-X-X-X-X-X-X-X-X1X1XXX%XK T.#X-X*X-X-X-X-X-X-X-X-X-X-X-X-X-X-X-X-X-X-XXXXX#XT.K +X1X-X-X-X-X-X-X-X-X-X-X-X-X-X-X-X-X-X-X-X-X-X-X-X#XJ K.#X1X>X>X>X-X-X-X-X-X-X-X-X-X-X-X-X-X-X-X-X-X2X#XK.J `.*XXX>X>XXX-X1X1X1X-X-X-X-X-X-X1X-X-X-X&X&X=X=X=X(.@ sXyX9X9X9X9X9X9X9X9X9X9X9X9X9X8X8X8X8X8X8X8X8X8XyXkXO fX9XuXuXuX8X9X9X7X7X9X9X9X9X9X9X9X9X9X9X9X9X9X9X9XyXo kXgX7X9X8X8X9XuXuX9X9XuXuX9X9X9X9XuX9X7X7X9X9XqXgXtXo AXDXDXDXDXDXDXDXDXDXDXDXDXDXDXDXDXDXDXDXDXDXDXDXDXDX  DX",
"DXAXAX. yX6X6X6X9X9X9X7X7X7X7X7X9X9X9X9X9X9X9X9X9X9X7X6X9XgXO mXgXqXqXqXqX9X9XqXqXqXqXqXqX9X9X9X9XuXuXgXgXuXuXjXnXO gX5XuXpXgXgXgXuXuXuXuXuXuXuXuXuXuXuXuXuXuXqX6XqXqXBX3 K.+X=X-X-X-X-X*X*X-X-X-X*X-X-X-X-X-X*X&X=X=X=X=X+XL.K +X-X-X-X-X-X=X=X-X-X=X=X=X=X=X=X-X-X-X-X-X-X-X-X=X@XK T.+X&X*X-X-X=X=X=X-X-X-X-X-X-X-X-X-X-X-X-X-X-X-X#XR.L %X1X-X-X-X-X-X-X-X-X&X&X&X&X&X&X&X&X&X&X&X&X&X&X&X+XL T.+X-X1X1X1X-X-X-X-X-X-X-X-X-X=X=X=X=X=X=X=X=X1X+XT.K +X-X1X1X-X-X-X-X-X-X-X-X-X-X-X-X-X-X-X-X&X&X-X-X*X(.@ cXgX9X9X9X9X7X7X7X7X7X7X7X9X9X9X9X9X9X9X9X9X9X9XuXnXO gX5X9XuX9X9X9X7X7X7X7X7X7X7X9X9X9X9X9X9X9X9X7X9X6X8XO rX9X5X5X5X5X5X5X5X5X5X5X5X5X5X5X5X6X5X4X5X6X0XqXqXtX. AXDXDXDXDXDXDXDXDXDXDXDXDXDXDXDXDXDXDXDXDXDXDXDXDXDXX AX",
"DXDXDX  rX8X8X8XyXyXyXyXyX8X8X8X8X8X8X8X8X8X8X8XuXuX8X8X8XiXo cXpXuXuXuXuXuXuXuXuX8X8XuXuXuXuXuXuXuXuXpXpXpXpXiXlXo iX0XpXpXyXyXuXuXuXpXuXuXuXuXuXuXuXpXuXuXuXuXwXwX8XvX2 I.(.+X%X%X%X%X#X#X#X#X#X#X#X#X#X+X+X+X).+X+X+X).].I.H '.+X+X+X+X+X+X+X+X+X@X+X+X+X@X+X+X+X+X+X+X+X+X+X+X].H P.'.+X#X#X+X+X+X+X+X+X+X+X+X+X+X+X+X+X+X+X+X+X#X'.W.H '.+X+X+X+X+X+X+X+X+X+X+X+X+X+X+X+X+X+X+X+X+X+X+X+X'.H I.'.%X%X#X%X+X+X+X+X+X+X+X+X+X+X@X+X+X+X+X+X+X$X'.I.H '.+X%X%X#X#X#X#X+X+X+X+X+X+X+X+X+X+X#X+X#X#X%X+X$XQ.@ vXjXgXgXuXuXuXuXuXpXuXuXuXuXpXpXpXpXpXpXpXpXpXpXjXbXo yX0XpXpXpXgXuXuXuXuXuXuXuXuXuXuXuXuXuXuXuXuXuXuX9XfXO bXpX7XuXuXuXuXuX9X9XuXuXuXuXuX9X9XuX9X9XqXqX8XwXeXtX. CXDXDXDXDXDXDXDXDXDXDXDXDXDXDXDXDXDXDXDXDXDXDXDXDXDXX DX",
"DXDXAX. bXsXcXcXbXbXcXcXcXcXbXbXcXcXcXcXcXcXcXcXzXzXzXcXcXvXo NXvXcXcXcXcXcXcXcXcXcXcXcXcXcXcXcXcXcXcXcXvXvXvXvXNXo bXcXvXvXvXbXcXcXcXcXcXcXcXcXcXcXcXcXcXcXcXcXcXsXhXBX@ Y I.Y.R.R.R.R.R.R.T.T.U.U.U.U.U.T.L.T.T.Y.L.L.L.I Y 7 I.T.T.U.U.U.U.U.Y.Y.Y.L.L.L.Y.Y.T.T.T.L.L.L.L.L.I.I 7 Y I.T.R.U.T.Y.Y.T.T.T.T.T.T.T.T.T.T.T.T.T.U.U.U.W.Y 7 !.I.L.Y.Y.Y.Y.Y.Y.Y.T.T.T.T.T.T.T.T.T.T.T.T.T.T.T.I.7 Y I.T.U.U.U.U.T.T.T.T.T.T.T.T.T.Y.Y.Y.Y.Y.Y.T.L.I Y 6 I.U.R.R.U.T.T.T.T.T.T.T.T.T.T.T.T.T.T.U.T.T.R.R.R.I @ vXzXzXzXzXzXrXrXkXkXkXkXkXkXkXkXkXkXkXkXkXkXkXkXlXNX. tXtXkXkXkXkXkXzXzXzXzXzXzXzXkXkXkXkXkXkXkXkXkXrXrXbX. NXcXrXnXnXnXnXnXhXnXnXnXnXnXnXhXhXhXhXhXhXnXcXdXtXNX  AXAXDXDXDXDXDXDXDXDXDXDXDXDXDXDXDXDXDXDXDXDXDXDXDXDXX DX",
"X       o o o o o o o o o o o o O O O O O O O O O O O O o o     o o o o O O O O O O O O O O O O O O O O O O O o .   @ @ # # # # # # # # @ @ @ @ # # # # @ @ @ @ @ @ $ $ 2 7 H K L L L L L L K K K K K K K K K K K K K J J H 6 3 H K K K K K K K K K K K K K K K K K K K K K K J J H 6 6 H K K L L L K K K L L L K K K L L K K K K K L H 6 6 H J K K K K K K K K K K K K K K K K K K K K K K K H 6 7 H H K K L L L L K K K L L L L K K K K K K K H G 7 3 H K L L K K K K K K K K K K K K K K K K K K L L L H 2 X @ @ @ @ @ @ @ @ @ @ @ @ @ @ @ @ @ @ @ @ @ # # @ #   . O o o o o o O O O o o o o o o o o o o o o o o o .   . O O O O O O O O O O O O O O O O O O O O O O O o o                                                   X X     ",
"DXAXAX  sXuXuXuXuXyXyXyXuXuXuXuXuXuXuXuXuXuXuXuXpXpXuXgXfXhXO vXiXuXuXuXuXuXuXuXuXuXuXuXuXuXuXuXuXuXuXuX8X8X8XiXbX@ W.(.(.'.'.'.(.(.(.(.(.(.(.(.(.(.(.(.'.'.'.(.(.(.(.R.H I.(.#X+X+X+X+X+X+X+X+X+X+X+X+X+X+X+X+X+X#X`.).+X'.I.H '.#X#X#X+X+X+X+X+X+X+X+X+X+X+X+X#X#X#X#X#X#X#X#X+X(.H I.'.#X#X#X#X#X#X#X#X#X#X#X+X+X+X+X+X#X#X#X+X+X+X(.I.H (.#X+X+X+X+X+X+X+X+X+X+X+X+X+X+X+X+X#X#X#X#X#X#X#X'.H W.'.+X#X`.#X#X#X+X+X+X+X+X+X+X+X+X+X+X+X+X+X+X#X(.I.H '.#X#X#X#X#X#X#X#X#X#X#X#X#X#X#X#X#X#X#X#X#X#X#X+X(.H I R.(.(.(.(.(.(.(.(.(.(.(.(.(.(.(.(.(.(.(.(.'.(.R.I # kX0XfXfXgXgXpXpXpXpXpXpXpXpXpXpXpXpXpXpXpXuXuXpXuXhXo kXpX9XuXuXuXuXuXuXuXuXuXuXuXuXuXuXuXuX8XuXpXpX8XfXkX. AXDXDXDXDXDXDXDXDXDXDXDXDXDXDXDXDXDXDXDXDXDXDXDXDXDX  DX",
"DXAXAX  iX7X7X7X9X9X9X9X9X9X9X9X9X9X9X9X6X6X9X9X9X9X9X9X8XpXO kXuX9X9X9X9X9X9X9X9X9X9X9X9X9X9X9X6X6X6X6X6X6X6X8XtX# '.1X1X-X1X1X-X-X-X-X-X-X-X-X-X-X-X-X-X-X-X-X-X-X*X#XK U..XXX-X=X=X=X=X=X=X=X-X-X-X-X-X=X-XXXXXXXXX*X-X$XK.K #X-X-X-X-X-X=X=X-X-X-X-X=X=X-X-X-X-X-X-X-X-X-X-X-X+XK L.+X*XXXXX*X*X-X-X-X-X-X-X-X-X-X-X-X-X-X-X-X-XXX#XT.K +X-X-X-X-X-X-X-X-X-X=X-X-X-X1X1X-X-X-X-X*X*X*X*X*X#XL U.+X-X*X*X*X-X-X-X-X-X-X-X-X-X-X-X-X-X-X-X=X=X-X+XT.K #X*X*X*XXX-X-X-X-X-X-X-X-X-X-X-X-X-X-X-X-X-XXX-XoX+XL T.#X*X*X*X-X-X-X-X-X-X-X-X-X-X-X-X-X-X-X-X1X1X>X#XQ.3 kX4XwXqX6X9X9X9X9X9X9X9X9X9X9X9X9X9X9X9X9X9X9X9X9XuXO kXuX7X7X7X7X7X9X9X9X9X9X9X9X9X9X9X7X7X9X7X9X9X7X8XrX. AXDXDXDXDXDXDXDXDXDXDXDXDXDXDXDXDXDXDXDXDXDXDXDXDXDX  DX",
"DXAXAX. iX7X7X7X9X9X9X9X9X9X9X9X9X9X9X9X6X6X6X9X9X9X9X9X8XpXO kXuX9X9X9X9X9X9X9X9X9X9X9X9X9X9X9X6X6X6X6X6X6X6X8XtX# '.1X1X-X1X1X-X-X=X=X-X=X-X-X-X-X-X-X-X-X-X-X-X-X*X#XK U..XXX-X=X=X=X=X=X=X=X-X-X-X-X-X-X-XXXXXXX-X*X-X$XK.K #X-X-X-X-X-X-X-X-X-X-X-X-X-X-X-X-X-X-X-X-X-X-X-X-X+XK L.+X*X-X-X*X*X*X-X-X-X-X-X-X-X-X-X-X-X-X-X-X-XXX#XT.K +X1X-X-X-X-X-X-X=X=X=X=X-X-X1X1X-X-X-X-X*X*X*X*X*X#XL U.+X-X*X*X*X*X-X-X-X-X-X-X-X-X-X-X-X-X-X-X-X-X-X+XT.K #X*X*X*XXX-X-X-X-X-X-X-X-X-X-X-X-X-X-X-X-X-XXX-X=X+XL T.#X*X*X*X-X-X-X-X-X-X-X-X-X-X-X-X-X-X-X-X1X1X1X#XQ.3 kX4XwXqX6X9X9X9X9X9X9X9X9X9X9X9X9X9X9X9X9X9X9X9X9XuXO rXuX7X7X7X7X7X7X7X9X9X7X9X7X7X9X7X7X7X9X9X9X9X7X8XrX. AXDXDXDXDXDXDXDXDXDXDXDXDXDXDXDXDXDXDXDXDXDXDXDXDXDX  DX",
"DXAXAX. pX7X7X7X9X9X9X9X9X9X9X9X9X9X9X9X6X6X6X9X9X9X9X9X8XpXO kXuX9X9X9X9X9X9X9X9X9X9X9X9X9X9X9X6X6X6X6X6X6X6X8XtX# '.>X1X-X1X1X-X-X=X=X=X=X-X-X-X-X=X=X=X-X-X-X-X-X*X#XK U..XXX-X=X=X=X=X=X=X=X-X-X-X-X-X-X-XXXXXXX-X*X-X$XK.K #X-X-X-X-X-X-X-X-X-X-X-X-X-X-X-X-X-X-X-X-X-X-X-X=X%XK L.+X*X-X-X*X*X-X-X-X-X-X-X-X-X-X-X-X-X-X-X-X-XXX+XT.K +X-X-X-X-X-X-X-X=X=X-X-X-X-X1X1X-X-X-X-X*X*X*X*X*X#XL T.+X-X*X*X*X*X-X-X-X-X-X-X-X-X-X-X-X-X-X-X-X-X-X+XT.K #X*X*X*XXX-X-X-X-X-X-X-X-X-X-X-X-X-X-X-X-X-XXX-X=X+XL T.#X*X*X*X-X-X-X-X-X-X-X-X-X-X-X-X-X-X-X-X1X1X1X#XQ.3 kX4XwX9X6X9X9X9X9X9X9X9X9X9X9X9X9X9X9X9X9X9X9X9X9XuXO kXuX7X7X7X7X7X7X9X9X9X7X7X7X7X9X7X7X7X9X9X9X9X7X8XrX. AXDXDXDXDXDXDXDXDXDXDXDXDXDXDXDXDXDXDXDXDXDXDXDXDXDX  DX",
"DXAXAX. pX7X7X7X7X9X9X9X9X9X9X9X9X9X9X9X9X9X6X9X9X9X9X9X9XpXO kXpX7X7X7X7X7X9X9X9X9X9X9X9X7X9X9X6X6X6X6X6X6X6X8XtX# '.>X1X-X1X1X-X-X-X-X-X-X-X-X-X-X-X-X-X-X-X-X-X-X*X#XK U..XXXXX-X-X-X-X-X-X-X-X-X-X-X-X-X-X-XXXXX-X*X-X$XK.K #X-X-X-X-X-X-X-X-X-X-X-X-X-X-X-X-X-X-X-X-X-X-X-X-X%XK L.).-X*X-X-X-X-X-X-X-X-X-X-X-X-X-X-X-X-X-X-X-XXX#XT.K +X-X-X-X-X-X-X-X=X=X-X-X-X-X1X1X-X-X-X-X-X-X*X*X*X#XL U.#X-X*X*X*X-X-X-X-X-X-X-X-X-X-X=X-X-X-X-X-X-X-X+XT.K #XXXXXXX-X-X-X-X-X-X-X-X-X-X-X-X-X-X-X-X-X-XXX-X=X+XL T.#X*X*X*X-X-X-X-X;X;X;X;X-X-X-X-X-X-X-X-X1X1X1X#XQ.3 cX6XqX9X9X9X9X9X9X9X9X9X9X9X9X9X9X9X9X9X9X9X9X9X9XuXO kXuX7X7X7X7X9X7X7X7X7X9X9X7X7X7X7X7X7X7X7X9X9X7X8XrX. AXDXDXDXDXDXDXDXDXDXDXDXDXDXDXDXDXDXDXDXDXDXDXDXDXDX  DX",
"DXAXAX. pX7X7X7X7X9X9X9X9X9X9X9X9X9X9X9X9X9X9X9X9X9X9X9X9XpXO kXpX9X7X7X7X7X9X9X9X9X9X7X7X7X9X9X6X6X6X6X6X6X6X8XtX@ '.-X-X-X1X-X-X-X-X-X-X-X-X-X-X-X-X-X-X-X-X-X-X-X*X#XK U..XXXXX-X-X-X-X-X-X-X-X-X-X-X-X-X=X-XXXXX-X*X-X$XK.K #X-X-X-X-X-X-X-X-X-X-X-X-X-X-X-X-X-X-X-X-X-X-X-XXX%XK L.).*X*X*XXX-X-X-X-X-X*X*X-X-X-X-X-X-X-X-X-X-X*X#XK.K ).-X-X-X=X-X-X-X=X=X-X-X-X-X-X-X-X-X-X-X*X-X*X*X*X#XL U.#X-X*X*X*XXX-X-X-X-X-X-X-X-X-X-X-X-X-X-X-X-X-X+XT.K #XXXXXXX-X-X-X-X-X-X-X-X-X-X-X-X-X-X-X-X-X-XXX-X=X+XL T.#X*X*X*X-X-X-X-X;X;X;X;X-X-X-X-X-X-X-X-X1X1X1X#XQ.3 kX4XqX9X9X9X9X9X9X9X9X9X9X9X9X9X9X9X9X9X9X9X9X9X9XuXO kXuX7X7X7X7X9X7X7X9X7X9X9X7X7X7X7X7X9X9X9XuX9X7X8XrX. AXDXDXDXDXDXDXDXDXDXDXDXDXDXDXDXDXDXDXDXDXDXDXDXDXDX  DX",
"DXAXAX. pX7X7X7X7X9X9X9X9X9X9X9X9X9X9X9X9X9X9X9X9X9X9X9X9XpXO kXpX9X9X9X7X9X9X9X9X9X9X9X7X6X6X6X6X6X6X6X6X6X6X8XtX@ '.1X-X-X-X-X-X-X-X-X-X-X-X-X-X-X-X-X-X-X-X-X-X-X*X#XK U.^.XX-X-X-X-X-X-X-X-X=X=X-X-X-X-X=X-XXXXX-X*X-X$XK.K #X-X-X-X-X-X-X-X=X=X-X-X-X-X-X-X-X-X-X-X-X-X-X-XXX%XK K.`.*X*X*XXX-X-X-X*X*X*X*X-X-X-X-X-X-X-X-X-X-X*X#XK.K ).-X=X=X-X-X-X-X-X-X-X-X-X-X-X-X-X-X*X*X-X-X-X-X-X#XL U.#X-X*X*X*XXX-X-X-X-X-X-X-X-X-X=X=X-X-X-X-X-X-X+XT.K #X-XXXXX-X-X-X-X-X-X-X-X-X-X-X-X-X-X-X-X-X-XXX-XoX+XL T.#X*X*X*X-X-X-X-X;X;X;X;X-X-X-X-X-X-X-X-X-X-X-X#XQ.3 kX4XwX9X9X9X9X9X9X9X9X9X9X9X9X9X9X9X9X9X9X9X9X9X9XuXO kXuX7X7X7X9X9X9X9X9X9X9X9X9X9X7X9X7X9X9X9X9X9X9X8XrX. CXDXDXDXDXDXDXDXDXDXDXDXDXDXDXDXDXDXDXDXDXDXDXDXDXDX  DX",
"DXAXAX. pX7X7X7X7X9X9X9X9X9X9X9X9X9X9X9X9X9X9X9X9X9X6X9X9XgXO kXuX9X9X9X9X9X9X9X9X9X9X9X6X6X6X6X6X6X6X6X6X6X6X8XtX@ (.-X-X-X-X-X-X-X-X-X-X-X-X-X-X-X-X-X-X-X-X-X-X-X*X#XK U.^.XX-X-X-X-X-X-X-X=X=X=X-X-X-X-X=X=XXXXX*X*X-X$XK.K +X-X-X-X-X-X-X-X=X=X-X-X-X-X-X-X-X-X-X-X-X-X-X-X=X%XK U.`.*X*X*X-X-X-X-X*X*X*X*X-X-X-X-X-X-X-X-X-X-X*X#XK.K ).=X=X=X=X=X-X-X-X-X-X-X-X-X-X-X-X-X*X*X-X-X-X-X-X#XL U.%X-X*X*X-X-X-X-X-X-X-X-X-X-X=X=X=X-X-X-X-X-X-X+XT.K #X-X-X*X-X-X-X-X-X-X-X-X-X-X-X-X-X-X-X-X*X*X*X-XoX+XK T.#X*X*X*X-X-X-X-X*X*X;X&X-X-X-X-X-X-X-X-X-X-X-X#XQ.3 kX4XwX9X9X9X9X9X9X9X9X9X9X9X9X9X9X9X9X9X9X9X9X9X9XuXO kXuX7X7X7X9X9X9X9X9X9X9X9X9X9X9X9X7X9X9X9X9X9X9X8XrX. CXDXDXDXDXDXDXDXDXDXDXDXDXDXDXDXDXDXDXDXDXDXDXDXDXDX  DX",
"DXAXAX. pX7X7X7X9X9X9X9X9X9X9X9X9X9X9X9X9X9X9X9X9X9X6X6X9XgXO kXuX9X9X9X7X7X9X9X9X9X6X6X9X9X9X9X9X9X9X9X9X9X9X8XtX@ (.-X-X-X-X-X-X-X-X-X-X-X-X-X-X-X-X-X-X-X-X-X-X-X*X+XK U..X-X-X-X-X-X-X-X=X=X=X-X-X-X-X-X=X=XXXXX-X*X-X$XK.K +X=X=X=X-X-X-X-X-X-X-X-X-X-X-X=X-X-X-X-X-X-X-X-X=X%XK U.#X*X*X*X*X-X-X-X-X-X-X-X-X-X-X-X-X-X-X-X-X*X*X#XL.K ).-X-X-X-X-X-X-X-X-X-X-X-X-X-X-X-X-X-X-X-X-X-X-X-X#XL R.%X-X-X-X-X-X-X-X-X-X-X-X-X-X-X-X-X-X-X-X-X-X-X+XT.K +X-X-X*X-X-X-X-X-X-X-X-X-X-X-X-X-X-X-X-X-X*X-X-X=X@XL Y.+X-X-X-X-X-X-X-X-X-X-X-X-X-X-X-X-X-X-X-X-X-X-X#XT.3 kX6X6X6X6X6X9X7X9X9X9X9X9X9X9X9X9X6X6X6X9X9X9X9X9XuXO rXuX6X6X6X6X6X6X6X6X6X6X6X6X6X6X6X6X6X9X8X9X9X9X8XrX. AXDXDXDXDXDXDXDXDXDXDXDXDXDXDXDXDXDXDXDXDXDXDXDXDXDX  DX",
"DXAXAX. pX7X7X7X9X9X9X9X9X9X9X9X9X9X9X9X9X9X9X9X9X6X6X6X9XgXO kXuX9X9X9X7X7X9X9X9X9X6X6X9X9X9X9X9X9X9X9X9X9X9X8XtX@ (.*X*X*X-X-X-X-X-X-X-X-X-X-X-X-X-X-X-X-X-X-X-X-X*X#XK U.^.*X-X=X-X-X-X-X=X=X=X-X-X-X-X-X=X=XXXXX-X*X-X$XL.K +X=X=X-X-X-X-X=X-X-X-X-X-X-X=X=X-X-X-X-X-X-X-X-X=X%XK U.#X*X-X-X*X-X-X-X-X-X-X-X-X-X-X-X-X-X-X-X-X*X*X#XL.J ).-X-X-X-X-X-X-X-X-X-X-X-X-X-X-X-X-X-X-X-X-X-X-X-X+XL R.%X-X-X-X-X-X-X-X-X-X-X-X-X-X-X-X-X-X-X-X-X-X-X+XT.K +X-X-X*X-X-X-X-X-X-X-X-X-X-X-X-X-X-X-X-X-X*X*X*X=X@XL Y.+X-X-X-X-X-X-X-X-X-X-X-X-X-X-X-X-X-X-X-X-X-X-X#XR.3 kX6X6X6X6X6X7X7X9X9X9X9X9X9X9X9X9X6X6X6X9X9X9X9X9XuXO rX9X6X6X6X6X6X6X6X6X6X6X6X6X6X6X6X6X6X9X8X9X9X9X8XrX. CXDXDXDXDXDXDXDXDXDXDXDXDXDXDXDXDXDXDXDXDXDXDXDXDXDX  DX",
"DXAXAX. pX7X7X7X9X9X9X9X9X9X9X9X9X9X9X9X9X9X9X9X6X6X6X6X9XgXO kXuX9X9X9X7X7X9X9X6X6X6X6X6X6X6X6X9X9X9X9X9X9X9X8XtX@ (.*X*X*X;X;X-X-X-X-X-X-X-X-X-X-X-X-X-X-X-X-X-X-X*X#XK U.^.-X-X=X-X-X-X-X-X=X-X-X-X-X-X-X-XXXXXXX-X*X-X$XL.K +X-X-X-X-X-X=X=X-X-X-X-X-X-X=X=X-X-X-X-X-X-X-X-X=X%XK U.#X*X*X-X-X-X-X-X-X-X-X-X-X-X-X-X-X-X-X-X-X*X*X`.L.J ).-X-X-X=X=X-X-X-X-X-X-X-X-X-X-X-X-X-X-X-X-X-X-X-X+XL R.%X-X-X-X-X-X-X-X-X-X-X-X-X-X-X-X-X-X-X-X-X-X-X+XT.K #X-X-X*X-X-X-X-X-X-X-X-X-X-X-X-X-X-X-X-X-X*X*X*X=X@XK T.+X-X-X-X-X-X-X-X-X-X-X-X-X-X-X-X-X-X-X-X-X-X-X#XR.3 kX6X6X6X6X6X7X7X7X9X9X9X6X6X9X9X9X9X6X9X9X9X9X9X9XuXO rXuX6X6X6X6X6X6X6X6X6X6X6X6X6X6X6X6X6X9X8XuX9X9XyXrX. CXDXDXDXDXDXDXDXDXDXDXDXDXDXDXDXDXDXDXDXDXDXDXDXDXDX  DX",
"DXAXAX. pX7X7X7X9X9X9X9X9X9X9X9X9X9X9X9X6X6X9X9X6X6X6X6X9XgXO kXuX9X9X9X7X7X9X9X6X6X6X6X6X6X6X6X9X9X9X9X9X9X9X8XtX@ (.*X*X*X*X;X-X-X-X-X-X-X-X-X-X-X-X-X-X-X-X-X-X-X*X#XK U.^.*X-X-X=X-X-X-X-X=X-X-X-X-X-X-X-XXXXXXXXX*X-X$XL.K +X-X-X-X-X-X=X=X-X-X-X-X-X-X-X=X-X-X-X-X-X-X-X-X=X%XK U.#X*X-X-X-X-X-X-X-X-X-X-X-X-X-X-X-X-X-X-X-X*X*X`.L.J ).-X-X=X=X=X-X-X-X-X-X-X-X-X-X-X-X-X-X-X-X-X-X-X-X+XL R.%X-X-X-X-X-X-X-X-X-X-X-X-X-X-X-X-X-X-X-X-X-X-X+XT.K #X-X-X*X-X-X-X-X-X-X-X-X-X-X-X-X-X-X-X-X-X-X-X*X=X@XK T.+X-X-X-X-X-X-X-X-X-X-X-X-X-X-X-X-X-X-X-X-X-X-X#XT.3 kX6X6X6X6X6X7X7X7X7X9X9X9X6X9X9X9X9X6X6X9X9X9X9X9XuXO rXuX7X6X6X6X6X6X6X6X6X6X6X6X6X6X6X6X6X9X8XuXuX9XyXrX. CXDXDXDXDXDXDXDXDXDXDXDXDXDXDXDXDXDXDXDXDXDXDXDXDXDX  DX",
"DXAXAX. pX7X7X7X7X9X9X9X9X9X9X9X9X9X9X9X6X6X6X9X9X6X6X6X9XpXO zXuX9X9X9X7X7X9X9X6X6X6X6X6X6X6X6X9X9X9X9X9X9X9X8XtX@ (.*X*X&X;X;X-X-X-X-X-X-X-X-X-X-X-X-X-X-X-X-X-X-X*X+XK U.^.-XXX-X-X-X-X-X-X-X-X-X-X-X-X-X-XXXXX-X-X-X-X$XL.K +X-X-X-X-X-X-X=X-X-X-X-X-X-X-X-X-X-X-X-X-X-X-X-X=X%XK U.#X*XXXXX-X-X-X-X-X-X-X-X-X-X-X-X-X-X-X-X-X*X*X`.L.J ).-X-X-X-X=X-X-X-X-X-X-X-X-X-X-X-X-X-X-X-X-X-X-X-X+XL R.%X-X-X-X-X-X-X-X-X=X-X-X-X-X-X-X-X-X-X-X-X-X-X+XU.L #X-X-X-X-X-X-X-X-X-X-X-X-X-X-X-X-X-X-X-X-X-X-X-X&X+XK T.+X-X-X-X-X-X-X-X-X-X-X-X-X-X-X-X-X-X-X-X-X-X-X#XT.3 kX6X6X9X9X6X6X6X6X6X9X9X9X9X9X9X9X9X9X9X9X9X9X9X9XgXO rXuX7X6X6X6X6X6X6X6X6X7X7X9X9X9X9X9X9X9X8X9X9X9X8XrX. AXDXDXDXDXDXDXDXDXDXDXDXDXDXDXDXDXDXDXDXDXDXDXDXDXDX  DX",
"DXAXAX. pX7X7X7X7X9X9X9X9X9X9X9X9X9X9X9X6X6X6X6X9X9X6X6X9XpXO zXuX9X9X9X7X7X9X9X6X6X6X6X6X6X6X6X9X9X9X9X9X9X9X8XtX@ (.*X*X&X;X;X-X-X-X-X-X-X-X-X-X-X-X-X-X-X-X-X-X-X*X+XK U.^.-XXX-X-X-X-X-X-X-X=X=X-X-X-X-X=XoXXX-X-X-X-X$XL.K +X-X-X-X-X-X=X=X-X-X-X-X-X-X-X-X-X-X-X-X-X-X-X-X=X%XK U.#X*XXXXX-X-X-X-X-X-X-X-X-X-X-X-X-X-X-X-X-X*X*X`.L.J ).=X-X-X=X=X-X-X-X-X-X-X-X-X-X-X-X-X-X-X-X-X-X-X-X+XL R.+X-X-X-X-X-X-X-X-X-X-X-X-X-X-X-X-X-X-X-X-X-X-X+XU.K #X1X-X-X-X-X-X-X-X-X-X-X-X-X-X-X-X-X-X-X-X-X-X-X&X+XK T.+X-X-X-X-X-X-X-X-X-X-X-X-X-X-X-X-X-X-X-X-X-X-X#XR.3 kX6X6X9X7X7X7X6X6X6X9X9X9X9X9X9X9X9X9X9X9X9X9X9X9XgXo rXuX7X6X6X6X6X6X6X6X6X7X7X9X9X9X9X9X9X9X9X9X9X9X8XrX. AXDXDXDXDXDXDXDXDXDXDXDXDXDXDXDXDXDXDXDXDXDXDXDXDXDX  DX",
"DXAXAX. pX7X7X7X7X9X9X9X9X9X9X9X9X9X9X9X6X6X9X9X9X9X6X6X9XpXO kXuX9X7X7X7X7X9X9X6X6X6X6X6X6X6X6X9X9X9X9X9X9X9X8XtX@ (.*X*X;X;X;X-X-X-X-X-X-X-X-X-X-X-X-X-X-X-X-X-X-X*X+XK U.^.-X-X-X=X=X=X=X-X-X=X=X-X-X-X-X=XoXXX-X-X=X-X$XL.J +X-X-X-X-X-X-X-X-X-X-X-X-X-X-X-X-X-X-X-X-X-X-X-X=X%XK U.#X*X*X-X-X-X-X-X-X-X-X-X-X-X-X-X-X-X-X-X-X*X*X`.L.J ).-X-X-X-X-X-X-X-X-X-X-X-X-X*X*X-X*X-X-X-X-X-X-X-X+XL Y.+X-X-X-X-X-X-X-X-X-X-X-X-X-X-X-X-X-X-X-X-X-X-X+XU.L #X1X-X-X-X-X-X-X-X-X-X-X-X-X-X-X-X-X-X-X-X-X-X-X&X+XK T.+X-X-X-X-X-X-X-X-X-X-X-X-X-X-X-X-X-X-X-X-X-X-X#XQ.3 kX6X6X9X7X7X7X6X6X6X6X6X9X9X9X9X9X9X9X9X9X9X9X9X9XgXo rX9X6X6X6X6X6X6X6X6X6X7X7X9X9X9X9X9X9X9X8X9X9X9X8XrX. AXDXDXDXDXDXDXDXDXDXDXDXDXDXDXDXDXDXDXDXDXDXDXDXDXDX  DX",
"DXAXAX. pX7X7X7X7X9X9X9X9X9X9X9X9X9X9X9X6X9X9X9X9X9X6X9X9XpXO kXuX9X9X7X7X7X9X9X6X6X6X6X6X6X6X6X9X9X9X9X9X9X9X8XtX@ (.*X*X;X;X;X-X-X-X-X-X-X-X-X-X-X-X-X-X-X-X-X-X-X*X+XK U.^.-X-X-X-X=X=X=X-X-X=X=X-X-X-X-X=X=X-X-X-X=X-X$XL.J +X-X-X-X-X-X-X-X-X-X-X-X-X-X-X-X-X-X-X-X-X-X-X-X=X%XK U.#X-X*X-X-X-X-X-X-X-X-X-X-X-X-X-X-X-X-X-X-X*X*X`.L.J ).-X-X-X-X-X-X-X-X-X-X-X-X-X*X*X*X*X-X-X-X-X-X-X-X+XL Y.+X-X-X-X-X-X-X-X-X-X-X-X-X-X-X-X-X-X-X-X-X-X-X+XU.L #X1X-X-X-X-X-X-X-X-X-X-X-X-X-X-X-X-X-X-X-X-X-X-X&X+XK T.+X-X-X-X-X-X-X-X-X-X-X-X-X-X-X-X-X-X-X-X-X-X-X#XQ.3 kX6X6X9X7X7X7X6X6X6X6X6X6X6X9X9X9X9X9X9X9X9X9X9X9XgXo rX9X6X6X6X6X6X6X6X6X6X7X7X9X9X9X9X9X9X9X8X9X9X9X8XrX. AXDXDXDXDXDXDXDXDXDXDXDXDXDXDXDXDXDXDXDXDXDXDXDXDXDX  DX",
"DXAXAX. pX7X7X7X7X9X9X9X9X9X9X9X9X9X9X9X9X9X9X9X9X9X6X9X9XpXO kXuX7X7X7X7X7X9X9X6X6X6X6X6X6X6X6X6X6X6X6X9X9X9X8XtX@ (.-X;X;X-X-X-X-X-X-X-X-X-X-X-X-X-X-X-X-X-X-X-X&X&X#XK T.).*X-X-X-X-X-X-X-X-X-X-X-X-X-X-X-X-X-X-X-X-X-X%XL.J +X-X-X-X-X-X-X-X-X-X-X-X-X-X-X-X-X-X-X-X-X-X-X-X=X%XK T.+X*X*X-X-X-X-X-X-X-X-X-X-X-X-X-X-X-X-X-X-X*X*X`.L.J ).-X-X-X-X=X=X-X-X-X-X-X-X-X-X-X-X-X-X-X-X-X-X-X*X#XL T.+X-X*X*X-X-X-X-X-X-X-X-X-X-X-X-X-X-X-X-X*X*X-X+XT.L #X1X-X*X-X-X-X-X-X-X-X-X-X-X-X-X-X-X-X-X-X-X-X-X=X+XK T.#X-X-X-X-X-X-X-X-X-X-X-X-X-X-X-X-X-X-X-X-X-X-X#XQ.3 kX6X6X9X9X7X9X6X6X6X9X9X9X9X9X9X9X9X9X9X9X9X9X9X9XgXo rX9X6X6X6X6X6X7X7X9X9X9X9X9X9X9X9X9X9X9X9XuXuX9X8XrX. AXDXDXDXDXDXDXDXDXDXDXDXDXDXDXDXDXDXDXDXDXDXDXDXDXDX  DX",
"DXAXAX. pX7X7X7X7X9X9X9X9X9X9X9X9X9X9X9X9X9X9X9X9X9X9X9X9XpXO kXpX7X7X7X7X7X9X9X6X6X6X6X6X6X6X6X6X6X6X6X9X9X9XuXtX@ (.-X-X;X-X-X-X-X-X-X-X-X-X-X-X-X-X-X-X-X-X-X-X&X&X#XK T.).*X-X-X-X-X-X-X-X-X-X-X-X-X-X-X-X-X-X-X-X-X-X%XL.J +X-X-X-X-X-X-X-X-X-X-X-X-X-X-X-X-X-X-X-X-X-X-X-X=X%XK T.+X-X*X-X-X-X-X-X-X-X-X-X-X-X-X-X-X-X-X-X-X*X*X`.L.J ).=X-X-X=X=X=X-X-X-X-X-X-X-X-X-X-X-X-X-X-X-X-X-X*X#XL T.+X-X*X*X*X-X-X-X-X-X-X-X-X-X-X-X-X-X-X-X*X*X-X+XT.L +X1X-X*X-X-X-X-X-X-X-X-X-X-X-X-X-X-X-X-X-X-X-X-X=X+XK T.#X-X-X-X-X-X-X-X-X-X-X-X-X-X-X-X-X-X-X-X-X-X-X#XQ.3 kX6X6X9X9X7X7X6X6X6X9X9X9X9X9X9X9X9X9X9X9X9X9X9X9XgXo rX9X6X6X6X6X6X7X7X9X9X9X9X9X9X9X9X9X9X9X9X9XuX9X8XrX. AXDXDXDXDXDXDXDXDXDXDXDXDXDXDXDXDXDXDXDXDXDXDXDXDXDX  DX",
"DXAXAX. pX7X7X7X7X9X9X9X9X9X9X9X9X9X9X9X6X9X6X6X9X9X6X6X9XpXO kXpX7X7X7X7X7X9X9X6X6X6X6X6X6X6X6X6X6X6X6X7X7X9XuXtX@ (.-X-X&X-X-X-X-X-X-X-X-X-X-X-X-X-X-X-X-X-X-X-X&X&X#XK T.#X*X-X-X-X-X-X-X-X-X-X-X-X-X-X-X-X-X-X-X-X-X-X%XL.J +X-X-X-X-X-X-X-X-X-X-X-X-X-X-X-X-X-X-X-X-X-X-X-X=X%XK T.+X-X*X-X-X-X-X-X-X-X-X-X-X-X-X-X-X-X-X-X-X*X*X`.L.J ).-X-X-X-X=X-X-X-X-X-X-X-X-X-X-X-X-X-X-X-X-X-X*X-X#XL T.+X-X*X*X*X-X-X=X-X-X-X-X-X-X-X-X-X-X-X-X-X-X-X+XT.L #X1X-X*X-X-X-X-X-X-X-X-X-X-X-X-X-X-X-X-X-X-X-X-X=X+XK T.#X-X-X-X-X-X-X-X-X-X-X-X-X-X-X-X-X-X-X-X-X-X-X#XQ.3 kX6X6X9X9X7X7X6X6X6X9X9X9X9X9X9X9X9X9X9X9X9X9X9X9XgXo rX8X6X6X6X6X6X7X7X9X9X9X9X9X9X9X9X9X9X9X9X9X9X9X8XrX. AXDXDXDXDXDXDXDXDXDXDXDXDXDXDXDXDXDXDXDXDXDXDXDXDXDX  DX",
"DXAXAX. pX7X7X7X7X9X9X9X9X9X9X9X9X9X9X9X6X6X6X6X9X9X6X9X9XpXO kXuX7X7X7X7X7X9X9X6X6X6X6X6X6X6X6X6X6X6X6X7X9X9X8XtX@ (.-X-X&X-X-X-X-X-X-X-X-X-X-X-X-X-X-X-X-X-X-X;X&X&X#XK T.#X*X-X-X-X-X-X-X-X-X-X-X-X-X-X-X-X-X-X-X-X-X1X%XL.J +X-X-X-X-X-X-X-X-X-X-X-X-X-X-X-X-X-X-X-X-X-X-X-X=X%XK T.+X-X-X-X-X-X-X-X-X-X-X-X-X-X-X-X-X-X-X-X-X*X*X`.L.J ).-X-X-X-X-X-X-X-X-X-X-X-X-X-X-X-X-X-X-X-X-X-X-X-X#XL T.+X-X*X*X*X-X-X=X-X-X-X-X-X-X-X-X-X-X-X-X-X-X-X+XT.L #X1X-X*X-X-X-X-X-X-X-X-X-X-X-X-X-X-X-X-X=X-X-X-X=X+XK U.#X-X-X-X-X-X-X-X-X-X-X-X-X-X-X-X-X-X-X-X-X-X-X#XQ.3 kX6X6X9X9X7X9X6X6X6X9X9X9X9X9X9X9X9X9X9X9X9X9X9X9XgXo rX8X6X6X6X6X6X7X7X9X9X9X9X9X9X9X9X9X9X9X9X9X9X9X8XrX. AXDXDXDXDXDXDXDXDXDXDXDXDXDXDXDXDXDXDXDXDXDXDXDXDXDX  DX",
"DXAXAX. pX7X7X7X7X9X9X9X9X9X9X9X9X9X9X9X9X9X6X6X9X9X9X9XuXpXO zXuX7X7X7X7X7X7X7X6X6X6X6X6X6X6X6X6X6X6X6X6X6X6X8XtX@ (.-X-X&X-X-X-X-X=X=X-X-X-X-X-X-X-X-X-X-X-X-X&X&X&X+XK U.).-X-X-X-X-X-X-X-X-X-X-X-X-X-X-X-X-X-X-X-X-X1X%XL.J +X-X-X-X-X-X-X-X-X-X;X;X*X*X*X*X-X-X-X-X-X-X-X-X=X@XK Y.+X-X-X-X-X-X-X-X-X-X-X-X-X-X-X-X-X-X-X-X-X*X*X`.L.J ).-X=X=X-X-X-X=X=X=X-X-X-X-X-X-X-X-X-X-X*X*X*X*XXX#XK T.+X*X*X&X*X*X-X=X=X-X-X-X-X-X-X-X-X-X-X-X-X-X-X+XT.K #X>XXXXX-X-X-X-X-X-X-X-X-X-X-X-X-X-X-X-X=X=X-X-X=X+XK U.#X-X-X-X-X-X-X-X-X-X-X-X-X-X-X-X-X-X-X-X-X-X-X#XQ.3 kX6X9X9X7X7X7X6X6X6X9X9X9X9X9X9X9X9X9X9X9X9X9X9X9XfXo rX8X6X6X6X6X6X9X9X9X9X7X7X9X9X9X9X9X9X9X7X9X9X9X8XrX. AXDXDXDXDXDXDXDXDXDXDXDXDXDXDXDXDXDXDXDXDXDXDXDXDXDX  DX",
"DXAXAX  iX7X7X7X7X9X9X9X9X9X9X9X9X9X9X9X9X9X9X9X9X9X9X9XuXpXO zXuX7X7X7X7X7X9X7X6X6X6X6X6X6X6X6X6X6X6X6X6X6X6X8XtX@ (.-X-X&X-X-X-X-X=X-X-X-X-X-X-X-X-X-X-X-X-X-X&X&X&X+XK U.).-X-X-X-X-X-X-X-X-X-X-X-X-X-X-X-X-X-X-X-X-X1X%XL.J +X-X-X-X-X-X-X-X-X-X;X;X*X*X*X*X-X-X-X-X-X-X-X-X=X@XK Y.+X-X-X-X-X-X-X-X-X-X-X-X-X-X-X-X-X-X-X-X-X*X*X`.L.J ).-X=X=X-X-X-X=X=X=X-X-X-X-X-X-X-X-X-X-X*X*X*X*XXX#XK T.+X*X*X&X*X*X-X=X-X-X-X-X-X-X-X-X-X-X-X-X-X-X-X+XT.L #X>XXXXX-X-X-X-X-X-X-X-X-X-X-X-X-X-X-X-X=X=X-X-X-X+XK U.#X-X-X-X-X-X-X-X-X-X-X-X-X-X-X-X-X-X-X-X-X-X-X#XR.3 kX6X9X9X7X7X7X6X6X6X9X9X9X9X9X9X9X9X9X9X9X9X9X9X9XfXo rX8X6X6X6X6X6X9X9X9X9X7X7X9X9X9X9X9X9X9X7X9X9X7X8XrX. AXDXDXDXDXDXDXDXDXDXDXDXDXDXDXDXDXDXDXDXDXDXDXDXDXDX  DX",
"DXAXAX  iX7X7X7X9X9X9X9X9X9X9X9X9X9X9X9X9X9X9X9X9X9X9X9XuXhXO kXuX7X7X7X7X7X7X7X6X6X6X6X6X6X6X6X6X6X6X6X7X7X7X8XtX@ (.-X-X&X-X-X-X-X-X-X-X-X-X-X-X-X-X-X*X*X-X-X;X&X&X+XK U.).-X-X-X-X-X-X=X=X=X-X-X-X-X-X-X-X-X-X-X-X-X1X%XL.J +X-X-X-X-X-X-X-X-X-X;X;X*X*X*X*X-X-X-X-X-X-X-X-X=X@XK Y.+X-X-X-X-X-X-X-X-X-X-X-X-X-X-X-X-X-X-X-X-X*X*X`.L.J ).-X=X=X-X-X-X-X-X-X-X-X-X-X-X-X-X-X-X-X-X-X*XXXXX#XK T.+X*X*X&X*X*X-X-X-X-X-X-X-X-X-X-X-X-X-X-X-X-X-X+XT.K #X1XXXXX-X-X-X-X-X-X-X-X-X-X-X-X-X-X-X-X=X=X-X-X-X+XL T.#X-X-X-X-X-X-X-X-X-X-X-X-X-X-X-X-X-X-X-X-X-X-X#XR.3 kX6X6X9X7X7X7X6X6X6X9X9X9X9X9X9X9X9X9X9X9X9X9X9X9XfXo rX8X6X6X6X6X6X7X9X9X9X9X9X9X9X9X9X9X9X7X9XuX9X7XuXrX. AXDXDXDXDXDXDXDXDXDXDXDXDXDXDXDXDXDXDXDXDXDXDXDXDXDX  DX",
"DXAXAX  iX7X7X7X9X9X9X9X6X6X6X6X9X9X9X9X9X9X9X9X9X9X9X9X8XhXO kXuX9X9X9X9X9X7X9X6X6X6X6X6X6X6X6X6X6X6X6X7X7X7X8XtX@ (.-X-X-X-X&X-X-X-X-X-X-X-X-X-X-X-X-X-X-X-X-X&X&X&X+XK T.).-X-X-X-X-X=X=X=X=X-X-X-X-X-X-X-X-X-X-X-X-X=X%XL.J +X-X-X-X-X-X-X-X-X-X-X-X-X-X-X-X-X-X-X-X-X-X-X-X=X@XK Y.+X-X-X-X-X-X-X-X-X-X-X-X-X-X-X-X-X-X-X-X-X-X-X+XL.K ).-X-X-X-X-X-X-X-X-X-X-X-X-X-X-X-X-X-X-X-X-X*X*XXX#XK Y.+X&X&X*X*X-X-X-X-X-X-X-X-X-X-X-X-X-X-X-X-X-X-X+XT.L +X-X-XXX-X-X-X-X-X-X-X-X-X-X-X-X-X-X-X-X-X-X-X-X*X+XK T.#X&X&X&X;X-X-X-X-X-X-X-X-X-X-X-X-X-X-X-X-X-X-X#XT.2 kX6X9X9X9X6X9X6X6X6X9X9X9X9X9X9X9X9X9X9X9X9X9X9X9XuXo kX8X6X6X6X6X6X7X7X9X9X9X7X7X7X9X9X7X9X9X7X9X7X9XuXkXo AXDXDXDXDXDXDXDXDXDXDXDXDXDXDXDXDXDXDXDXDXDXDXDXDXDX  DX",
"DXAXAX  iX7X7X7X6X6X6X6X6X6X6X6X6X9X9X6X6X6X6X9X9X9X6XqXqXpXO kXuX6X6X6X6X6X6X6X9X9X9X9X9X9X7X9X9X9X9X9X6X6X6XyXtX# (.-X1X1X*X*X&X-X-X-X-X-X-X-X-X=X=X=X=X=X=X=X*X*X;X#XK Y.).*X-X-X-X-X-X-X-X-X-X-X-X=X-X-X-X-X*X*X-X-X=X$XY.K #X-X-X-X-X-X-X-X-X-X-X-X-X-X-X-X=X=X=X=X=X=X-X&X&X$XK U.#X-X1X-X-X*X*X*X*X*X-X-X-X-X-X-X-X-X=X-X*X-X=X@XL.K ).-X-X-X-X-X-X-X-X-X-X-X-X-X-X-X-X-X-X-X-X-X-X-X-X+XK Y.+X&X&X&X=X=X=X=X=X=X=X-X-X-X-X-X-X-X-X-X-X-X-X+XT.K +X-X*X*X-X*X*X*X*X*X*X*X*X*X*X*X*X*X*X*X-X-X*X*X&X).K Y.).*X;X;X;X;X;X*X-X-X-X-X-X-X-X-X-X*X*X*X*X-X*X`.P.# rX6X9X8X6X6X9X9X9X9X9X9X9X9X9X9X9X9X9X9X9X9X9X9X9XpXO kX9X6X6X6X6X6X6X6X6X6X6X7X7X7X7X7X7X7X6X6X6X6X6XyXkXo HXDXDXDXDXDXDXDXDXDXDXDXDXDXDXDXDXDXDXDXDXDXDXDXDXDX  DX",
"DXAXAX  iX9X7X7X6X6X6X6X6X6X6X6X6X6X6X6X6X6X6X9X9X9X6XqX8XfXO kXyX6X6X6X6X6X6X6X9X9X9X9X9X9X9X9X9X9X9X9X6X6X6XyXbX# (.>X2X1X&X*X-X-X-X-X-X-X-X-X-X-X=X=X=X=X=X-X*X*X*X#XK Y.).*X-X-X-X-X-X-X-X-X-X-X-X-X-X-X-X-X*X*X-X-X=X$XY.K #X*X*X*X-X-X-X-X-X-X-X-X-X-X-X-X=X=X=X=X=X=X-X=X&X$XK U.#X-X>XXX*X*X*X*X*X*X*X*X-X-X-X-X-X-X=X-X*X-X=X@XL.K +X-X-X-X-X-X-X-X-X*X-X-X-X-X-X-X-X-X*X-X-X-X-X-X-X+XK L.+X&X&X&X=X=X-X-X-X-X-X-X-X-X-X-X-X-X-X-X-X-X-X+XT.K `.*X*X*X*X*X*X*X*X*X*X*X*X*X*X*X*X*X*X*X-X-X*X*X&X).K Y.`.*X*X*X*X*X*X*X-X-X-X-X-X-X-X-X-X-X*X*X*X*X*X`.I.# rX6X9X9X6X6X6X9X9X9X9X9X9X9X9X9X9X9X9X9X9X9X9X9X9XpXO kX9X6X6X7X7X7X7X7X7X7X7X7X7X7X9X9X7X7X7X6X4X4X6XyXlXo HXDXDXDXDXDXDXDXDXDXDXDXDXDXDXDXDXDXDXDXDXDXDXDXDXDX  DX",
"AXAXAX  fX9X7X6X6X6X6X6X6X6X6X6X6X6X9X9X9X9X9X9XqXqXqXqX8XfXO kX8X6X6X6XwX6X6X6X9X9X9X9X9X9X9X9X9X9X9X9X6X6X6XyXrX# '.>X1X1X<X<X1X1X-X-X-X-X-X-X-X-X-X-X-X-X1X-X*XXX-X#XL T.).*X-X1X-X-X-X-X-X-X-X-X-X-X-X-X1X-X-X-X-X-X&X$XT.K #X*X*X*X*X*X*X-X-X-X-X-X-X-X-X-X-X-X-X-X-X&X&X&X=X@XJ T.#X-XXXXXXX*X*X*X-X-XXXXX*X-X-X-X-X-X-X*XXX*X=X).L.J .X>X-X-X-X-X-X-X-X*X*X*X*X*X*X*X*X*XXXXX-X-X-X-X-X#XJ P.+X-X-X*X*X*X-X-X-X-X-X-X-X-X-X-X-X-X-X-X-X-X;X#XT.K `.*X*X*X*X*X*X*X*X*X*X*X*X*X*X*X*X*X*X*X-X-X-X-X*X`.K T.#X*X*X-X-X-X-X-X*X*X*X-X-X-X-X*X*X*X*X*X*X*X*X`.P.2 kX4X6X6X6X6X6X6X6XwXqXqXqXqXqX9X9X9X6XqXqXqX9X9XuXpXO kXuX7X7X9X9X9X9X9X9X9X9X9X9X9X9X9X9X9X7X9X6X6X9XyXkXo HXDXDXDXDXDXDXDXDXDXDXDXDXDXDXDXDXDXDXDXDXDXDXDXDXDX  DX",
"AXAXAX  cXiXpXpXyXyXyXyXyXyXyXyXpXyXhXfXhXhXpXhXhXhXhXhXhXcXO bXsXfXfXfXfXfXfXfXiXiXiXiXiXiXiXiXiXiXiXiXiXiXiXiXlX# {.OX%X%X%X%X#X#X#X#X#X#X#X#X#X#X+X+X+X+X+X#X#X#X#X'.H I.(.`.#X#X#X#X#X#X#X#X#X#X#X#X#X+X+X+X#X#X#X#X+X'.I.H (.#X#X#X#X#X#X#X#X#X#X#X#X#X#X#X+X+X+X+X+X+X+X+X+X].G I (.'.'.'.'.'.'.'.'.'.'.'.'.'.'.'.'.'.'.'.'.'.(.R.I G R.'.'.'.'.'.'.'.'.'.'.'.'.'.'.'.'.'.'.'.'.'.'.'.'.(.H I '.+X#X`.`.`.#X#X#X#X#X#X#X#X#X#X#X#X#X#X#X#X#X(.W.H (.#X#X#X#X#X#X#X#X#X#X#X#X#X#X#X#X#X#X#X#X#X#X`.).'.H I.'.#X#X#X#X#X#X#X#X#X#X#X#X#X#X#X#X#X#X#X#X#X#X'.I.2 lXfXdXyXyXyXiXfXfXfXhXhXhXhXhXhXhXhXhXhXhXhXhXpXiXzXo lXiXiXiXiXiXiXiXiXiXiXiXiXiXiXiXiXiXiXiXiXiXyXiXzXvX. AXDXDXDXDXDXDXDXDXDXDXDXDXDXDXDXDXDXDXDXDXDXDXDXDXDX  DX",
"    X     . . . . . . . . . . . . . . . . . . . . . . . . o . . . . . . . . . . . . . . o o o o o o o o o o o . . @ H L L K K K K K K K K K K K K K K K K K K K K K L H 6 6 G H K K K K K K K K K K K K K K K K K K K J K H 6 6 H K K K K K K K K K K K L L L L K K K K K K K K H 7 2 @ 2 3 3 3 3 3 3 3 3 3 3 3 3 3 3 3 3 3 3 3 3 3 3 3 # # 3 2 6 6 6 6 6 6 6 6 6 6 6 6 6 6 6 6 6 6 6 6 6 6 6 3 # 6 H K J H J J J J J J K K K K K K K K K K K K H G 6 3 H K K K J J J J J J J J J J J J J J J J K K H H K H 3 6 H K K K K K K K K K K K K K K K K K J J J J J H G 2   . .   . . . . . . . . . . . . . . . . . . . . . . .   o . . . . . . . . . . . . . . . . . . . . . . . .                                                   X       ",
"AXDXDX  AXCXAXAXAXAXAXAXAXAXAXAXDXDXDXDXDXAXAXAXDXDXAXAXDXDX  DXDXDXAXAXDXDXDXDXDXDXDXDXDXDXDXDXDXDXDXDXDXDXDXDXAX2 I.R.U.U.Q.W.U.L.L.L.L.K.L.L.L.L.L.L.L.L.T.T.T.R.R.W.6 Y I P.T.L.L.L.L.L.L.L.L.L.L.L.L.L.T.T.U.U.U.T.L.I Y 7 W.U.U.U.U.U.U.U.U.T.T.T.T.T.T.T.T.T.T.T.T.T.T.Y.E.I # DXDXDXDXDXDXDXDXDXDXDXDXDXDXDXDXDXDXDXDXDXDXDXDXDXDX  DXHXDXAXAXAXAXAXDXDXAXAXAXAXAXAXAXAXDXDXAXAXAXDXAXAX4 Y I.T.L.L.U.U.U.U.U.U.U.U.U.T.T.T.Y.Y.Y.R.Y.Y.L.I Y 7 I.T.R.R.T.L.L.L.L.L.L.L.L.T.L.L.L.L.L.T.U.T.L.P.T.I.7 U I.T.T.T.T.T.T.T.T.T.T.T.T.T.T.T.T.T.T.T.T.T.T.I.U 3 AXDXDXAXDXDXDXDXDXDXDXDXDXDXDXDXDXDXDXDXDXDXAXAXDXDXX DXDXDXDXDXDXDXDXDXDXDXDXAXAXAXAXAXAXAXAXCXCXAXCXDXHX  DXDXDXDXDXDXDXDXDXDXDXDXDXDXDXDXDXDXDXDXDXDXDXDXDXDX  DX",
"DXDXDX  DXDXDXDXDXDXDXDXDXDXDXDXDXDXDXDXDXDXDXDXDXDXDXDXDXDX  HXAXAXAXAXAXAXAXAXDXDXAXAXAXAXAXAXAXAXAXAXAXAXAXDXDX2 (.:X+X#X#X#X#X#X#X#X#X#X#X+X+X+X+X+X+X+X+X+X#X%X%X'.H I '.%X#X#X#X#X#X#X#X#X#X#X+X+X+X+X+X#X%X#X%X%X#X'.I.H (.`.`.`.#X#X#X#X#X#X#X#X#X#X#X#X#X+X+X+X+X+X+X+X).(.3 ZXAXAXDXDXDXDXDXDXDXDXDXDXDXDXDXDXDXDXDXAXCXAXDXDXDX  HXDXDXDXDXDXDXDXDXDXDXDXDXDXDXDXDXDXDXDXDXDXDXDXDXDX2 I (.+X).#X#X#X.X.X.X.X#X.X#X+X+X@X@X@X@X@X@X@X@X].I G (.+X#X#X+X+X+X+X+X+X+X+X+X+X+X+X+X+X+X+X+X+X@X+X).(.G I (.+X+X+X+X+X+X+X+X+X+X+X+X+X+X+X+X+X+X+X+X+X+X(.W.3 DXDXDXDXDXDXDXDXDXDXDXDXDXDXDXDXDXDXDXDXDXDXDXDXDXDX. DXJXAXDXDXDXDXDXDXDXDXDXDXDXDXDXDXDXAXAXAXAXDXHXDXDX  DXDXDXDXDXDXDXDXDXDXDXDXDXDXDXDXDXDXDXDXDXDXDXDXDXDX  DX",
"DXAXDX  DXDXDXDXDXDXDXDXDXDXDXDXDXDXDXDXDXDXDXDXDXDXDXDXDXAX  DXDXDXDXDXDXDXDXDXDXDXDXDXDXDXDXDXDXDXDXDXDXDXDXDXHX2 `.=XXXoXXXXXXXXXXXXXXXXX&X&X&X&X&X&X&X=X=X=XXXXXXX#XK T.%X,XoXXXXXXXXXXXXX*X*X*X&X&X&X=X=X=XXXXX>X,X1X%XT.J `.*X*X*X*X*X*X*X*X-X-X-X-X-X-X-X=X=X=X&X&X&X&X=X-X'.3 AXAXAXDXDXDXDXDXDXDXDXDXDXDXDXDXDXDXDXDXAXAXAXDXDXDX. DXDXDXDXDXDXDXDXDXDXDXDXDXDXDXDXDXDXDXDXDXDXDXDXDXDX2 I.$X-X-X*X-X>X>X>X>X>X>X1X-X-X-X=X=X=X=X=X=X=X1X+XI.H ).-X-X-X-X-X-X-X-X-X-X-X-X-X-X-X-X-X-X-X-X-X-X-XoX$XH L.+X-X-X-X-X-X-X-X=X=X=X=X=X-X=X=X=X=X=X=X=X=X=X+XK.6 DXDXDXDXDXDXDXDXDXDXDXDXDXDXDXDXDXDXDXDXDXDXDXDXDXDX  HXAXAXDXDXDXDXDXDXDXDXDXDXDXDXDXDXDXDXAXDXDXDXDXHXDX  DXDXDXDXDXDXDXDXDXDXDXDXDXDXDXDXDXDXDXDXDXDXDXDXHXDX  DX",
"DXAXDX  DXDXDXDXDXDXDXDXDXDXDXDXDXDXDXDXDXDXDXDXDXDXDXDXDXDX  DXDXDXDXDXDXDXDXDXDXDXDXDXDXDXDXDXDXDXDXDXDXDXDXDXDX2 _.<X1X-X-X-X-X-X-X-X-X-X-X-X-X-X-X-X-X-X-X-X-X-X-X#XK U.+X1X-X-X-X-X-X-X-X-X-X-X-X-X-X-X-X-X-X-X-X-X=X+XL.K #X-X-X-X-X-X-X-X-X-X-X-X-X-X-X-X-X-X-X-X=X=X=X=X=X'.3 HXDXDXDXDXDXDXDXDXDXDXDXDXDXDXDXDXDXDXDXDXDXDXDXDXDX  DXDXDXDXDXDXDXDXDXDXDXDXDXDXDXDXDXDXDXDXDXDXDXDXDXDX6 L.#X-X-X-XXX>X>X>X>X>X-X-X-X-X-X-X=X=X=X=X=X-X1X+XL.J `.-X-X-X-X-X-X-X-X-X-X-X-X-X-X-X-X-X-X-XXX*X-X-XoX#XJ L.+X-X-X-X-X-X-X-X-X-X-X-X-X-X-X-X-X-X-X-X-X-X-X+XL.6 AXDXDXDXAXAXDXDXDXDXDXDXDXDXDXDXDXDXDXDXDXDXDXDXDXDX  DXAXDXDXDXDXDXDXDXDXDXDXDXDXDXDXDXDXDXDXDXDXDXDXDXDX  DXDXDXDXDXDXDXDXDXDXDXDXDXDXDXDXDXDXDXDXDXDXDXDXDXDX  DX",
"DXAXDX  DXDXDXDXDXDXDXDXDXDXDXDXDXDXDXDXDXDXDXDXDXDXDXDXDXDX  DXDXDXDXDXDXDXDXDXDXDXDXDXDXDXDXDXDXDXDXDXDXDXDXDXDX2 _.1X1X-X-X-X-X-X-X-X-X-X-X-X-X-X-X-X-X-X-X-X-X-X*X#XK U.+X-X=X=X-X-X-X-X=X-X-X-X-X-X-X-X-X-X-X-X*X*X=X+XL.K +X-X-X-X-X-X-X-X-X-X-X-X-X-X-X-X-X-X-X-X-X-X=X=X-X'.2 HXDXDXDXDXDXDXDXDXDXDXDXDXDXDXDXDXDXDXDXDXDXDXDXDXDX  DXDXDXDXDXDXDXDXDXDXDXDXDXDXDXDXDXDXDXDXDXDXDXDXDXDX6 L.%X-X-X-X-X-X-X-X-X-X-X-X-X-X-X-X-X-X=X=X-X-X-X+XU.K #X*X*X-X*X-X-X-X-X-X-X-X-X-X-X-X-X-X-X-X*XXX-X-XoX#XK T.+X-X-X-X-X-X-X-X-X-X-X-X-X-X-X-X-X-X-X-X-X-X-X+XL.6 AXDXDXDXAXAXDXDXDXDXDXDXDXDXDXDXDXDXDXDXDXDXDXDXDXDX  DXAXDXDXDXDXDXDXDXDXDXDXDXDXDXDXDXDXDXDXDXDXDXDXDXDX  DXDXDXDXDXDXDXDXDXDXDXDXDXDXDXDXDXDXDXDXDXDXDXDXDXDX  DX",
"DXAXDX  DXDXDXDXDXDXDXDXDXDXDXDXDXDXDXDXDXDXDXDXDXDXDXDXDXDX  DXDXDXDXDXDXDXDXDXDXDXDXDXDXDXDXDXDXDXDXDXDXDXDXDXDX2 _.1X1X-X-X-X-X-X-X-X-X-X-X-X-X-X-X-X-X-X-X-X-X-X-X#XK T.+X-X=X=X-X-X-X-X-X-X-X-X-X-X-X-X-X-X-X-X-X*XoX+XL.K +X-X-X-X-X-X-X-X-X-X-X-X-X-X-X-X=X=X-X-X-X-X-X-X-X'.2 HXDXDXDXDXDXDXDXDXDXDXDXDXDXDXDXDXDXDXDXDXDXDXDXDXDX  DXDXDXDXDXDXDXDXDXDXDXDXDXDXDXDXDXDXDXDXDXDXDXDXDXDX6 L.#X-X-X*X-X-X-X-X-X-X-X-X-X-X-X-X-X-X-X-X-X-X-X+XU.K #X*X*X-X-X-X-X-X-X-X-X-X-X-X-X-X-X-X-X-X*XXX>X>XoX#XK T.+X-X-X-X-X-X-X-X-X-X-X-X-X-X-X-X-X-X-X-X-X-X-X+XL.6 AXDXDXDXAXAXDXDXDXDXDXDXDXDXDXDXDXDXDXDXDXDXDXDXDXDX  DXAXDXDXDXDXDXDXDXDXDXDXDXDXDXDXDXDXDXDXDXDXDXDXDXDX  DXDXDXDXDXDXDXDXDXDXDXDXDXDXDXDXDXDXDXDXDXDXDXDXDXDX  DX",
"DXAXDX  DXDXDXDXDXDXDXDXDXDXDXDXDXDXDXDXDXDXDXDXDXDXDXDXDXDX  DXDXDXDXDXDXDXDXDXDXDXDXDXDXDXDXDXDXDXDXDXDXDXDXDXDX2 _.1X1X-X-X-X-X-X-X-X-X-X-X-X-X-X-X-X-X-X-X-X-X-X-X#XK T.+X-X=X=X=X-X-X-X-X-X-X-X-X-X-X-X-X-X-X-X-X*XoX+XL.K +X-X-X-X-X-X-X-X-X-X-X-X-X-X-X-X=X-X-X-X-X-X-X-X-X'.3 HXDXDXDXDXDXDXDXDXDXDXDXDXDXDXDXDXDXDXDXDXDXDXDXDXDX  DXDXDXDXDXDXDXDXDXDXDXDXDXDXDXDXDXDXDXDXDXDXDXDXDXDX6 L.#X-X-X*X-X-X-X-X-X-X-X-X-X-X-X-X-X-X-X-X-X-X-X+XU.K #X*X*X-X-X-X-X-X-X-X-X-X-X-X-X-X-X-X-X-X*XXX>X>XoX#XK T.+X-X-X-X-X-X-X-X-X-X-X-X-X-X-X-X-X-X-X-X-X-X-X+XL.6 AXDXDXDXAXAXDXDXDXDXDXDXDXDXDXDXDXDXDXDXDXDXDXDXDXDX  DXAXDXDXDXDXDXDXDXDXDXDXDXDXDXDXDXDXDXDXDXDXDXDXDXDX  DXDXDXDXDXDXDXDXDXDXDXDXDXDXDXDXDXDXDXDXDXDXDXDXDXDX  DX",
"DXAXDX  DXDXDXDXDXDXDXDXDXDXDXDXDXDXDXDXDXDXDXDXDXDXDXDXDXDX  DXDXDXDXDXDXDXDXDXDXDXDXDXDXDXDXDXDXDXDXDXDXDXDXDXDX3 _.1X1X-X-X-X-X-X-X-X-X-X-X-X-X-X-X-X-X-X-X-X-X-X-X+XK T.+X1X-X-X-X-X-X-X-X-X-X-X-X-X-X-X-X-X-X-X*X-XoX+XL.K +X-X-X-X-X-X-X-X-X-X-X-X-X-X-X-X=X=X-X-X-X-X-X-X-X'.3 AXDXDXDXDXDXDXDXDXDXDXDXDXDXDXDXDXDXDXDXDXDXDXDXDXDX  DXDXDXDXDXDXDXDXDXDXDXDXDXDXDXDXDXDXDXDXDXDXDXDXDXDX6 L.%X-X-X-XXXXX-X-X-X-X-X-X-X-X=X-X-X-X-X-X-X=X-X+XU.K #X*X*X-X-X-X-X-X-X-X-X-X-X-X-X-X-X-X-X-X*X-X1X>XoX#XK T.+X-X-X-X-X-X-X-X-X-X-X-X-X-X-X-X-X-X-X-X-X-X-X+XL.6 AXDXDXDXDXDXDXDXDXDXDXDXDXDXDXDXDXDXDXDXDXDXDXDXDXDX  DXDXDXDXDXDXDXDXDXDXDXDXDXDXDXDXDXDXDXDXDXDXDXDXDXDX  DXDXDXDXDXDXDXDXDXDXDXDXDXDXDXDXDXDXDXDXDXDXDXDXDXDX  DX",
"DXAXDX  DXDXDXDXDXDXDXDXDXDXDXDXDXDXDXDXDXDXDXDXDXDXDXDXDXDX  DXDXDXDXDXDXDXDXDXDXDXDXDXDXDXDXDXDXDXDXDXDXDXDXDXDX3 _.>X1X-X-X-X-X-X-X-X-X-X-X-X-X-X-X-X-X-X-X-XXX-X-X+XK T.+X1X-X-X-X-X-X-X-X-X-X-X-X-X-X-X-X-X-X-X-X-XoX+XU.K +X-X-X-X-X-X-X-X-X-X-X-X-X-X-X-X=X=X-X-X-X-X-X-X-X'.3 AXDXDXDXDXDXDXDXDXDXDXDXDXDXDXDXDXDXDXDXDXDXDXDXDXDX  DXDXDXDXDXDXDXDXDXDXDXDXDXDXDXDXDXDXDXDXDXDXDXDXDXDX6 K.#X-X-X-X-X-X-X-X-X-X-X-X-X-X=X-X-X-X-X-X=X=X-X+XU.K #X*X*X-X-X-X-X-X-X-X-X-X-X-X-X-X-X-X-X-X*X*X1X1XoX#XK T.+X-X-X-X-X-X-X-X-X-X-X-X-X-X-X-X-X-X-X-X-X-X-X+XT.6 AXDXDXDXDXDXDXDXDXDXDXDXDXDXDXDXDXDXDXDXDXDXDXDXDXDX  DXDXDXDXDXDXDXDXDXDXDXDXDXDXDXDXDXDXDXDXDXDXDXDXDXDX  DXDXDXDXDXDXDXDXDXDXDXDXDXDXDXDXDXDXDXDXDXDXDXDXDXDX  DX",
"DXAXDX  DXDXDXDXDXDXDXDXDXDXDXDXDXDXDXDXDXDXDXDXDXDXDXDXDXDX  DXDXDXDXDXDXDXDXDXDXDXDXDXDXDXDXDXDXDXDXDXDXDXDXDXDX2 _.1X-X-X-X-X-X-X-X-X-X-X-X-X-X-X-X-X-X-X-X-X-X-X-X+XK T.+X-X-X-X=X=X-X-X-X-X-X-X-X-X-X-X-X-X-X-X-X-X=X+XU.K +X-X-X-X-X-X-X-X-X-X-X-X-X-X-X-X=X-X-X-X-X=X=X-X-X'.3 AXDXDXDXDXDXDXDXDXDXDXDXDXDXDXDXDXDXDXDXDXDXDXDXDXDX  DXDXDXDXDXDXDXDXDXDXDXDXDXDXDXDXDXDXDXDXDXDXDXDXDXDX6 K.%X-X-X-XXX-X-X-X-X-X-X-X-X-X=X=X-X-X-X-X=X=X-X+XU.K +X*X*X-X-X-X-X-X-X-X-X-X-X-X-X-X-X-X-X-X*X*X-X-XoX#XK Y.+X-X-X-X-X-X-X-X-X-X-X-X-X-X-X-X-X-X-X-X-X-X-X+XT.6 AXDXDXDXDXDXDXDXDXDXDXDXDXDXDXDXDXDXDXDXDXDXDXDXDXDX  DXDXDXDXDXDXDXDXDXDXDXDXDXDXDXDXDXDXDXDXDXDXDXDXDXDX  DXDXDXDXDXDXDXDXDXDXDXDXDXDXDXDXDXDXDXDXDXDXDXDXDXDX  DX",
"DXAXDX  DXDXDXDXDXDXDXDXDXDXDXDXDXDXDXDXDXDXDXDXDXDXDXDXDXDX  DXDXDXDXDXDXDXDXDXDXDXDXDXDXDXDXDXDXDXDXDXDXDXDXDXDX2 _.,X-X-X-X-X-X-X-X-X-X-X-X-X-X-X-X-X-X-X-X-X-X-X-X#XK T.+X-X-X-X-X=X=X=X-X-X-X-X-X-X-X-X-X-X-X-X-X-X=X+XY.K +X-X-X-X-X-X-X-X-X-X-X-X-X-X-X-X-X-X-X-X=X=X=X-X-X'.3 AXDXDXDXDXDXDXDXDXDXDXDXDXDXDXDXDXDXDXDXDXDXDXDXDXDX  DXDXDXDXDXDXDXDXDXDXDXDXDXDXDXDXDXDXDXDXDXDXDXDXDXDX6 L.%X-X-X-XXXXX-X-X-X-X-X-X-X-X=X=X-X-X-X-X-X-X-X+XU.K +X*X*X-X-X-X-X-X-X-X-X-X-X-X-X-X-X-X-X-X*X*X-X-XoX#XK Y.+X-X-X-X-X-X-X-X-X-X-X-X-X-X-X-X-X-X-X-X-X-X-X+XT.6 AXDXDXDXDXDXDXDXDXDXDXDXDXDXDXDXDXDXDXDXDXDXDXDXDXDX  DXDXDXDXDXDXDXDXDXDXDXDXDXDXDXDXDXDXDXDXDXDXDXDXDXDX  DXDXDXDXDXDXDXDXDXDXDXDXDXDXDXDXDXDXDXDXDXDXDXDXDXDX  DX",
"DXAXDX  DXDXDXDXDXDXDXDXDXDXDXDXDXDXDXDXDXDXDXDXDXDXDXDXDXDX  DXDXDXDXDXDXDXDXDXDXDXDXDXDXDXDXDXDXDXDXDXDXDXDXDXDX2 _.<X=X-X-X-X-X-X-X-X-X-X-X-X-X-X-X-X-X-X-X-XXXXX*X#XK T.+X1X-X-X-X-X=X=X=X-X-X-X-X-X-X-X-X-X-X-X-X-X=X+XU.K +X-X-X-X-X-X-X-X-X-X-X-X-X-X-X-X-X-X-X-X-X-X-X-X-X'.3 AXDXDXDXDXDXDXDXDXDXDXDXDXDXDXDXDXDXDXDXDXDXDXDXDXDX  DXDXDXDXDXDXDXDXDXDXDXDXDXDXDXDXDXDXDXDXDXDXDXDXDXDX6 L.#X-X-X*XXXXX-X-X-X-X-X-X-X-X=X-X-X-X-X-X-X=X-X+XY.K +X*X-X-X-X-X-X-X*X*X-X-X-X-X-X-X-X-X-X-X*X*X-X-XoX#XK Y.+X-X-X-X-X-X-X-X-X-X-X-X-X-X-X-X-X-X-X-X-X-X-X+XT.7 AXDXDXDXDXDXDXDXDXDXDXDXDXDXDXDXDXDXDXDXDXDXDXDXDXDX  DXDXDXDXDXDXDXDXDXDXDXDXDXDXDXDXDXDXDXDXDXDXDXDXDXDX  DXDXDXDXDXDXDXDXDXDXDXDXDXDXDXDXDXDXDXDXDXDXDXDXDXDX  DX",
"DXAXDX  DXDXDXDXDXDXDXDXDXDXDXDXDXDXDXDXDXDXDXDXDXDXDXDXDXDX  DXDXDXDXDXDXDXDXDXDXDXDXDXDXDXDXDXDXDXDXDXDXDXDXDXDX2 _.<X=X=X-X-X-X-X-X-X-X-X-X-X-X-X-X-X-X-X-X-XXXXX-X#XK U.+X1X-X-X-X-X=X=X=X-X-X-X-X-X-X-X-X-X-X-X-X-X=X+XU.K +X-X-X-X-X-X-X-X-X-X-X-X-X-X-X-X-X-X-X=X-X-X-X-X-X'.3 AXDXDXDXDXDXDXDXDXDXDXDXDXDXDXDXDXDXDXDXDXDXDXDXDXDX  DXDXDXDXDXDXDXDXDXDXDXDXDXDXDXDXDXDXDXDXDXDXDXDXDXDX6 L.#X-X-X*X-X-X-X-X-X-X-X-X-X-X-X-X-X-X-X-X=X=X-X+XY.K +X-X-X-X-X-X-X-X*X-X-X-X-X-X-X-X-X-X-X-X-X-X-X-XoX+XK Y.+X-X-X-X-X-X-X-X-X-X-X-X-X-X-X-X-X-X-X-X-X-X-X+XT.7 AXDXDXDXDXDXDXDXDXDXDXDXDXDXDXDXDXDXDXDXDXDXDXDXDXDX  DXDXDXDXDXDXDXDXDXDXDXDXDXDXDXDXDXDXDXDXDXDXDXDXDXDX  DXDXDXDXDXDXDXDXDXDXDXDXDXDXDXDXDXDXDXDXDXDXDXDXDXDX  DX",
"DXAXDX  DXDXDXDXDXDXDXDXDXDXDXDXDXDXDXDXDXDXDXDXDXDXDXDXDXDX  DXDXDXDXDXDXDXDXDXDXDXDXDXDXDXDXDXDXDXDXDXDXDXDXDXDX2 _.<X=X=X-X-X-X-X-X-X-X-X-X-X-X-X-X-X-X-X-X-X-X-X-X#XK U.+X-X=X=X-X-X-X=X-X-X-X-X-X-X-X-X-X-X-X-X-X-X=X+XU.K +X-X-X-X-X-X-X-X-X-X-X-X-X-X-X-X-X-X=X=X-X=X-X-X-X'.3 AXDXDXDXDXDXDXDXDXDXDXDXDXDXDXDXDXDXDXDXDXDXDXDXDXDX  DXDXDXDXDXDXDXDXDXDXDXDXDXDXDXDXDXDXDXDXDXDXDXDXDXDX6 L.%X-X-X-X-X-X-X-X-X-X-X-X-X-X-X-X-X-X-X-X-X-X-X+XY.K +X-X*X-X-X-X*X*X*X*X-X-X-X-X-X-X-X-X-X-X-X-X-X-XoX+XK Y.+X-X-X-X-X-X-X-X-X-X-X-X-X-X-X-X-X-X-X-X-X-X-X+XT.7 AXDXDXDXDXDXDXDXDXDXDXDXDXDXDXDXDXDXDXDXDXDXDXDXDXDX  DXAXDXDXDXDXDXDXDXDXDXDXDXDXDXDXDXDXDXDXDXDXDXDXDXDX  DXDXDXDXDXDXDXDXDXDXDXDXDXDXDXDXDXDXDXDXDXDXDXDXDXDX  DX",
"DXAXDX  DXDXDXDXDXDXDXDXDXDXDXDXDXDXDXDXDXDXDXDXDXDXDXDXDXDX  DXDXDXDXDXDXDXDXDXDXDXDXDXDXDXDXDXDXDXDXDXDXDXDXDXDX2 _.<X<X=X-X-X-X-X-X-X-X-X-X-X-X-X-X-X-X-X-X-X-X-X-X#XK T.+X-X=X=X=X=X-X-X-X-X-X-X-X-X-X-X-X-X-X-X-X-XoX+XU.K +X-X-X-X-X-X-X-X-X-X-X-X-X-X-X-X-X-X=X=X=X=X-X-X-X'.3 AXDXDXDXDXDXDXDXDXDXDXDXDXDXDXDXDXDXDXDXDXDXDXDXDXDX  DXDXDXDXDXDXDXDXDXDXDXDXDXDXDXDXDXDXDXDXDXDXDXDXDXAX6 L.#X-X-X-X-X-X-X-X-X-X-X-X-X-X-X-X-X-X-X-X-X-X-X+XY.K +X-X*X-X-X-X*X*X*X*X-X-X-X-X-X-X-X-X-X-X-X-X-X1XoX+XK Y.+X-X-X-X-X-X-X-X-X-X-X-X-X-X-X-X-X-X-X-X-X-X-X+XT.7 AXDXDXDXDXDXDXDXDXDXDXDXDXDXDXDXDXDXDXDXDXDXDXDXDXDX  DXAXDXDXDXDXDXDXDXDXDXDXDXDXDXDXDXDXDXDXDXDXDXDXDXDX  DXDXDXDXDXDXDXDXDXDXDXDXDXDXDXDXDXDXDXDXDXDXDXDXDXDX  DX",
"DXAXDX  DXDXDXDXDXDXDXDXDXDXDXDXDXDXDXDXDXDXDXDXDXDXDXDXDXDX  DXDXDXDXDXDXDXDXDXDXDXDXDXDXDXDXDXDXDXDXDXDXDXDXDXDX3 _.<X<X=X-X-X-X-X-X-X-X-X-X-X-X-X-X-X-X-X-X-X-X-X-X#XK U.+X-X=X=X-X-X-X-X-X-X-X-X-X-X-X-X-X-X-X-X-X-XXX+XY.K +X-X-X-X-X-X-X-X-X-X-X-X-X-X-X-X-X-X-X-X-X-X-X-X-X'.3 AXDXDXDXDXDXDXDXDXDXDXDXDXDXDXDXDXDXDXDXDXDXDXDXDXDX  DXDXDXDXDXDXDXDXDXDXDXDXDXDXDXDXDXDXDXDXDXDXDXDXDXAX6 L.%X=X-X-X-X-X-X-X-X-X-X-X-X-X-X=X-X-X-X-X-X-X-X+XY.K +X-X-X-X-X-X-X-X-X-X-X-X-X-X-X-X-X-X-X-X-X-X1X1XoX+XK Y.+X-X-X-X-X-X-X-X-X-X-X-X-X-X-X-X-X-X-X-X-X-X-X+XT.7 AXDXDXDXDXDXDXDXDXDXDXDXDXDXDXDXDXDXDXDXDXDXDXDXDXDX  DXAXDXDXDXDXDXDXDXDXDXDXDXDXDXDXDXDXDXDXDXDXDXDXDXDX  DXDXDXDXDXDXDXDXDXDXDXDXDXDXDXDXDXDXDXDXDXDXDXDXDXDX  DX",
"DXAXDX  DXDXDXDXDXDXDXDXDXDXDXDXDXDXDXDXDXDXDXDXDXDXDXDXDXDX  DXDXDXDXDXDXDXDXDXDXDXDXDXDXDXDXDXDXDXDXDXDXDXDXDXDX3 _.<X<X=X-X-X-X-X-X-X-X-X-X-X-X-X-X-X-X-X-X-X-X-X-X#XK U.+X-X-X-X-X-X=X=X-X-X-X-X-X-X-X-X-X-X-X-X-X-XXX@XY.K +X-X-X-X-X-X-X-X-X-X-X-X-X-X-X-X-X-X-X-X-X-X-X-X-X'.3 AXDXDXDXDXDXDXDXDXDXDXDXDXDXDXDXDXDXDXDXDXDXDXDXDXDX  DXDXDXDXDXDXDXDXDXDXDXDXDXDXDXDXDXDXDXDXDXDXDXDXDXAX6 L.%X=X-X-X-X-X-X-X-X-X-X-X-X-X=X=X-X-X-X-X-X=X-X+XY.K +X-X*X-X-X-X-X-X-X-X-X-X-X-X-X-X-X-X-X-X-X-X1X1XoX+XK Y.+X-X-X-X-X-X-X-X-X-X-X-X-X-X-X-X-X-X-X-X-X-X-X+XT.7 ZXDXDXDXDXDXDXDXDXDXDXDXDXDXDXDXDXDXDXDXDXDXDXDXDXDX  DXAXDXDXDXDXDXDXDXDXDXDXDXDXDXDXDXDXDXDXDXDXDXDXDXDX  DXDXDXDXDXDXDXDXDXDXDXDXDXDXDXDXDXDXDXDXDXDXDXDXDXDX  DX",
"DXAXDX  DXDXDXDXDXDXDXDXDXDXDXDXDXDXDXDXDXDXDXDXDXDXDXDXDXDX  DXDXDXDXDXDXDXDXDXDXDXDXDXDXDXDXDXDXDXDXDXDXDXDXDXDX2 _.<X=X=X-X-X-X-X-X-X-X-X-X-X-X-X-X-X-X-X-X-X-XXX*X#XK T.+X-X-X-X-X-X=X-X-X-X-X-X-X-X-X-X-X-X-X-X-X-X=X@XY.K +X-X-X-X-X-X-X-X-X-X-X-X-X-X-X-X-X-X-X-X-X-X-X-X-X'.3 AXDXDXDXDXDXDXDXDXDXDXDXDXDXDXDXDXDXDXDXDXDXDXDXDXDX  DXDXDXDXDXDXDXDXDXDXDXDXDXDXDXDXDXDXDXDXDXDXDXDXDXAX6 L.+X=X-X-X-X-X-X-X-X-X-X-X-X-X=X-X-X-X-X=X=X=X-X+XY.K +X-X*X-X-X-X-X-X-X-X-X-X-X-X-X-X-X-X-X-X-X-X-X-XoX#XK Y.+X-X-X-X-X-X-X-X-X-X-X-X-X-X-X-X-X-X-X-X-X-X-X+XT.7 ZXDXDXDXDXDXDXDXDXDXDXDXDXDXDXDXDXDXDXDXDXDXDXDXDXDX  DXAXDXDXDXDXDXDXDXDXDXDXDXDXDXDXDXDXDXDXDXDXDXDXDXDX  DXDXDXDXDXDXDXDXDXDXDXDXDXDXDXDXDXDXDXDXDXDXDXDXDXDX  DX",
"DXAXDX  DXDXDXDXDXDXDXDXDXDXDXDXDXDXDXDXDXDXDXDXDXDXDXDXDXDX  DXDXDXDXDXDXDXDXDXDXDXDXDXDXDXDXDXDXDXDXDXDXDXDXDXDX2 _.<X=X=X-X-X-X-X-X-X-X-X-X-X-X-X-X-X-X-X-X-X-X-X-X#XK T.+X-X-X-X-X-X=X=X-X-X-X-X-X-X-X-X-X-X-X-X-X-X=X@XY.K +X-X-X-X-X-X-X-X-X-X-X-X-X-X-X-X-X-X-X-X-X-X-X-X-X'.3 AXDXDXDXDXDXDXDXDXDXDXDXDXDXDXDXDXDXDXDXDXDXDXDXDXDX  DXDXDXDXDXDXDXDXDXDXDXDXDXDXDXDXDXDXDXDXDXDXDXDXDXAX6 L.+X=X-X-X-X-X-X-X-X-X-X-X-X-X=X-X-X-X-X=X=X=X-X+XY.K +X-X*X-X-X-X-X-X-X-X-X-X-X-X-X-X-X-X-X-X-X-X-X-XoX#XK Y.+X-X-X-X-X-X-X-X-X-X-X-X-X-X-X-X-X-X-X-X-X-X-X+XT.7 ZXDXDXDXDXDXDXDXDXDXDXDXDXDXDXDXDXDXDXDXDXDXDXDXDXDX  DXAXDXDXDXDXDXDXDXDXDXDXDXDXDXDXDXDXDXDXDXDXDXDXDXDX  DXDXDXDXDXDXDXDXDXDXDXDXDXDXDXDXDXDXDXDXDXDXDXDXDXDX  DX",
"DXAXDX  DXDXDXDXDXDXDXDXDXDXDXDXDXDXDXDXDXDXDXDXDXDXDXDXDXDX  DXDXDXDXDXDXDXDXDXDXDXDXDXDXDXDXDXDXDXDXDXDXDXDXDXDX2 _.<X=X=X-X-X-X-X-X-X-X-X-X-X-X-X-X-X-X-X-X-X-X-X-X#XK T.+X-X&X&X&X&X-X-X&X-X-X-X-X-X-X-X-X-X-X-X-X-X=X@XR.L +X-X-X-X-X-X-X-X-X-X-X-X-X-X-X-X-X-X-X-X-X-X-X-X-X'.3 AXDXDXDXDXDXDXDXDXDXDXDXDXDXDXDXDXDXDXDXDXDXDXDXDXDX  DXDXDXDXDXDXDXDXDXDXDXDXDXDXDXDXDXDXDXDXDXDXDXDXDXAX6 L.@X=X-X-X-X-X-X-X-X-X-X-X-X-X-X-X-X-X-X-X-X-X-X+XU.K #X*X*X-X-X-X-X-X-X-X-X-X-X-X-X-X-X-X-X-X*X-X1X1XXX#XK T.+X-X-X-X-X-X-X-X-X-X-X-X-X-X-X-X-X-X-X-X-X-X-X#XT.6 ZXDXDXDXDXDXDXDXDXDXDXDXDXDXDXDXDXDXDXDXDXDXDXDXAXAX  DXAXDXDXDXDXDXDXDXDXDXDXDXDXDXDXDXDXDXDXDXDXDXDXDXDX  DXDXDXDXDXDXDXDXDXDXDXDXDXDXDXDXDXDXDXDXDXDXDXDXDXDX  DX",
"DXAXDX  DXDXDXDXDXDXDXDXDXDXDXDXDXDXDXDXDXDXDXDXDXDXDXDXDXDX  DXDXDXDXDXDXDXDXDXDXDXDXDXDXDXDXDXDXDXDXDXDXDXDXDXDX2 _.<X=X=X-X-X-X-X-X-X-X-X-X-X-X-X-X-X-X-X-X-X-X-X-X#XK T.+X-X&X&X&X&X-X-X&X-X-X-X-X-X-X-X-X-X-X-X-X-X=X#XY.K +X-X-X-X-X-X-X-X-X-X-X-X-X-X-X-X-X-X-X-X-X-X-X-X-X'.3 AXDXDXDXDXDXDXDXDXDXDXDXDXDXDXDXDXDXDXDXDXDXDXDXDXDX  DXDXDXDXDXDXDXDXDXDXDXDXDXDXDXDXDXDXDXDXDXDXDXDXDXAX6 L.@X=X-X-X-X-X-X-X-X-X-X-X-X-X-X-X-X-X=X-X=X-X-X+XU.K #X*X-X-X-X-X-X-X-X-X-X-X-X-X-X-X-X-X-X-X*X*X>X-XXX#XK T.#X-X-X-X-X-X-X-X-X-X-X-X-X-X-X-X-X-X-X-X-X-X-X#XT.6 ZXDXDXDXDXDXDXDXDXDXDXDXDXDXDXDXDXDXDXDXDXDXDXDXAXAX  DXAXDXDXDXDXDXDXDXDXDXDXDXDXDXDXDXDXDXDXDXDXDXDXDXDX  DXDXDXDXDXDXDXDXDXDXDXDXDXDXDXDXDXDXDXDXDXDXDXDXDXDX  DX",
"DXAXDX  DXDXDXDXDXDXDXDXDXDXDXDXDXDXDXDXDXDXDXDXDXDXDXDXDXDX  DXDXDXDXDXDXDXDXDXDXDXDXDXDXDXDXDXDXDXDXDXDXDXDXDXDX2 _.<X=X=X-X-X-X-X-X-X-X-X-X-X-X-X-X-X-X-X-X-X-X-X-X#XK T.+X-X-X&X&X&X-X&X-X-X-X-X-X-X-X-X-X-X-X-X-X-X=X@XR.K +X-X-X-X-X-X-X-X-X-X-X-X-X-X-X-X-X-X-X-X-X-X-X-X-X'.3 AXDXDXDXDXDXDXDXDXDXDXDXDXDXDXDXDXDXDXDXDXDXDXDXDXDX  DXDXDXDXDXDXDXDXDXDXDXDXDXDXDXDXDXDXDXDXDXDXDXDXDXAX6 L.@X=X-X-X-X-X-X-X-X-X-X-X-X-X-X-X-X-X=X-X-X-X-X+XU.K #X*X*X-X-X-X-X-X-X-X-X-X-X-X-X-X-X-X-X-X*X*X-X-X-X%XK T.#X-X-X-X-X-X-X-X-X-X-X-X-X-X-X-X-X-X-X-X-X-X-X#XT.6 ZXDXDXDXDXDXDXDXDXDXDXDXDXDXDXDXDXDXDXDXDXDXDXDXAXAX  DXAXDXDXDXDXDXDXDXDXDXDXDXDXDXDXDXDXDXDXDXDXDXDXDXDX  DXDXDXDXDXDXDXDXDXDXDXDXDXDXDXDXDXDXDXDXDXDXDXDXDXDX  DX",
"DXAXDX  DXDXDXDXDXDXDXDXDXDXDXDXDXDXDXDXDXDXDXDXDXDXDXDXDXDX  DXDXDXDXDXDXDXDXDXDXDXDXDXDXDXDXDXDXDXDXDXDXDXDXDXDX2 _.<X<X=X-X-X-X-X-X-X-X-X-X-X-X-X-X-X-X-X-X-X-X-X-X#XK T.+X-X-X&X&X&X&X&X-X-X-X-X-X-X-X-X-X-X-X-X-X-X=X@XR.K +X-X-X-X-X-X-X-X-X-X-X-X-X-X-X-X-X-X-X-X-X-X-X-X-X'.3 HXDXDXDXDXDXDXDXDXDXDXDXDXDXDXDXDXDXDXDXDXDXDXDXDXDX  DXDXDXDXDXDXDXDXDXDXDXDXDXDXDXDXDXDXDXDXDXDXDXDXDXAX6 L.@X=X-X-X-X-X-X-X-X-X-X-X-X-X-X-X=X=X=X-X-X-X-X#XU.K #X*X*X-X-X-X-X-X-X-X-X-X-X-X-X-X-X-X-X-X*X*X-X-X-X%XK T.#X-X-X-X-X-X-X-X-X-X-X-X-X-X-X-X-X-X-X-X-X-X-X#XL.6 ZXDXDXDXDXDXDXDXDXDXDXDXDXDXDXDXDXDXDXDXDXDXDXDXAXAX  DXAXDXDXDXDXDXDXDXDXDXDXDXDXDXDXDXDXDXDXDXDXDXDXDXDX  DXDXDXDXDXDXDXDXDXDXDXDXDXDXDXDXDXDXDXDXDXDXDXDXDXDX  DX",
"DXAXDX  DXDXDXDXDXDXDXDXDXDXDXDXDXDXDXDXDXDXDXDXDXDXDXDXDXDX  DXDXDXDXDXDXDXDXDXDXDXDXDXDXDXDXDXDXDXDXDXDXDXDXDXDX3 _.<X<X=X=X-X-X-X-X-X-X-X-X-X-X-X-X-X-X-X-X-X-X-X-X#XK T.+X-X-X&X&X&X-X-X-X-X-X-X-X-X-X-X-X-X-X-X-X-X=X@XR.L +X-X-X-X-X-X-X-X-X-X-X-X-X-X-X-X-X-X-X-X*X*X*X-X-X'.2 HXDXDXDXDXDXDXDXDXDXDXDXDXDXDXDXDXDXDXDXDXDXDXDXDXDX  DXDXDXDXDXDXDXDXDXDXDXDXDXDXDXDXDXDXDXDXDXDXDXDXDXAX6 L.@X=X-X-X-X-X-X-X-X-X-X-X-X-X-X=X=X=X-X-X-X-X-X#XU.K #X*X*XXX-X-X-X-X-X-X-X-X-X-X-X-X*X*X-X-X*X-X-X-X-X%XK T.#X-X-X-X-X-X-X-X-X-X-X-X-X-X-X-X-X-X-X-X*X-X*X#XL.6 ZXDXDXDXAXAXDXDXDXDXDXDXDXDXDXDXDXDXDXDXDXDXDXDXAXAX  DXAXDXDXDXDXDXDXDXDXDXDXDXDXDXDXDXDXDXDXDXDXDXDXDXDX  DXDXDXDXDXDXDXDXDXDXDXDXDXDXDXDXDXDXDXDXDXDXDXDXDXDX  DX",
"DXAXDX  DXDXDXDXDXDXDXDXDXDXDXDXDXDXDXDXDXDXDXDXDXDXDXDXDXDX  DXDXDXDXDXDXDXDXDXDXDXDXDXDXDXDXDXDXDXDXDXDXDXDXDXDX3 _.<X<X=X-X-X-X-X-X-X-X-X-X-X-X-X-X-X-X-X-X-X-X-X*X#XK T.+X-X-X&X&X&X-X-X-X-X-X-X-X-X-X-X-X-X-X-X-X-X=X@XR.L +X-X-X-X-X-X-X-X-X-X-X-X-X-X-X-X-X-X-X-X*X*X*X*X-X'.2 HXDXDXDXDXDXDXDXDXDXDXDXDXDXDXDXDXDXDXDXDXDXDXDXDXDX  DXDXDXDXDXDXDXDXDXDXDXDXDXDXDXDXDXDXDXDXDXDXDXDXDXAX6 L.@X=X=X-X-X=X-X-X-X-X-X-X-X-X-X=X=X=X-X-X-X-X-X#XU.K #X*XXXXX-X-X-X-X-X-X-X-X-X-X-X-X*X-X-X-X*X*X-X-X-X%XK T.#X-X-X-X-X-X-X-X-X-X-X-X-X-X-X-X-X-X-X-X*X-X-X#XL.6 ZXDXDXDXAXAXDXDXDXDXDXDXDXDXDXDXDXDXDXDXDXDXDXDXAXAX  DXAXDXDXDXDXDXDXDXDXDXDXDXDXDXDXDXDXDXDXDXDXDXDXDXDX  DXDXDXDXDXDXDXDXDXDXDXDXDXDXDXDXDXDXDXDXDXDXDXDXDXDX  DX",
"DXAXDX  DXDXDXDXDXDXDXDXDXDXDXDXDXDXDXDXDXDXDXDXDXDXDXDXDXDX  DXDXDXDXDXDXDXDXDXDXDXDXDXDXDXDXDXDXDXDXDXDXDXDXDXDX2 _.<X=X=X-X-X-X-X-X-X-X-X-X-X-X-X-X-X-X-X-X-XXXXX-X#XK T.+X1X-X&X&X&X-X-X-X-X-X-X-X-X-X-X-X-X-X-X-X-X=X@XR.K +X-X-X-X-X-X-X-X-X-X-X-X-X-X-X-X*X*X-X-XXXXX*X*X-X'.3 HXDXDXDXDXDXDXDXDXDXDXDXDXDXDXDXDXDXDXDXDXDXDXDXDXDX  DXDXDXDXDXDXDXDXDXDXDXDXDXDXDXDXDXDXDXDXDXDXDXDXDXAX6 L.@X=X=X-X-X=X-X-X-X-X-X-X-X-X-X-X=X-X-X-X-X-X-X#XU.K #X*XXXXX-X-X-X-X-X-X-X-X-X-X-X-X-X-X-X-X*X-X-X-X-X%XK T.#X-X-X-X-X-X-X-X-X-X-X-X-X-X-X-X-X-X-X-X-X-X-X#XL.6 ZXDXDXDXAXAXDXDXDXDXDXDXDXDXDXDXDXDXDXDXDXDXDXDXAXAX  DXAXDXDXDXDXDXDXDXDXDXDXDXDXDXDXDXDXDXDXDXDXDXDXDXDX  DXDXDXDXDXDXDXDXDXDXDXDXDXDXDXDXDXDXDXDXDXDXDXDXDXDX  DX",
"DXAXDX  DXDXDXDXDXDXDXDXDXDXDXDXDXDXDXDXDXDXDXDXDXDXDXDXDXDX  AXAXAXDXDXDXDXDXDXDXDXDXDXDXDXDXDXDXDXDXDXDXDXDXDXDX# R.+X+X+X+X+X#X#X#X#X#X#X#X#X#X#X#X#X#X#X#X#X#X#X+X(.H I.'.%X+X+X+X+X+X+X+X#X#X#X#X#X#X#X#X#X+X+X).+X+X'.I.H '.#X#X#X#X#X#X#X#X#X#X#X#X#X#X#X#X#X#X#X#X#X#X#X`.R.2 HXAXDXDXDXDXDXDXDXDXDXDXDXDXDXDXDXDXDXDXDXDXDXDXDXDX  DXDXDXDXDXDXDXDXDXDXDXDXDXDXDXDXDXDXDXDXDXDXDXDXDXAX6 I.].+X+X+X+X+X+X`.`.`.#X#X#X+X+X+X+X+X+X+X+X+X#X(.I.H (.`.#X#X#X+X+X+X#X#X#X#X#X#X#X#X#X#X#X#X#X+X%X#X+X'.H I.'.#X#X#X#X#X#X#X#X#X#X#X#X#X#X#X#X#X#X#X#X#X#X(.I.3 ZXDXDXDXAXAXDXDXDXDXDXDXDXDXDXDXDXDXDXDXDXDXDXDXDXDX  DXAXDXDXDXDXDXDXDXDXDXDXDXDXDXDXDXDXDXDXDXDXDXDXDXDX  DXDXDXDXDXDXDXDXDXDXDXDXDXDXDXDXDXDXDXDXDXDXDXDXDXDX  DX",
"DXDXDX  DXDXDXDXDXDXDXDXDXDXDXDXDXDXDXDXDXDXDXDXDXDXDXDXDXDX. CXCXCXCXCXCXCXCXAXAXAXAXAXAXAXAXAXCXCXCXCXCXCXCXCXAX@ U I.K.U.R.U.T.T.T.Q.Q.Q.Q.Q.Q.Q.Q.Q.Q.Q.Q.Q.Q.W.I.I 7 U L.Q.U.K.K.K.K.K.K.K.U.U.U.U.U.U.R.T.T.L.L.L.T.I.U 7 I.U.U.U.U.U.U.U.U.U.U.U.U.U.U.U.U.U.U.U.U.U.U.K.K.U # ZXAXAXDXDXDXDXDXDXDXDXDXDXDXDXDXDXDXDXDXDXDXDXDXDXAX  DXDXDXDXDXDXDXDXDXDXDXDXDXDXDXDXDXDXDXDXDXDXDXDXDXAX2 U I !.Y.Y.T.T.T.K.K.K.K.K.K.L.L.L.L.L.K.L.L.P.I.I U 7 I.L.P.W.K.K.K.K.T.T.T.K.T.T.T.T.T.T.T.T.T.R.(.(.Q.W.G Y W.K.K.K.K.K.K.K.T.T.T.T.T.T.T.T.K.K.K.K.K.K.K.I.U 2 JXAXAXCXCXAXDXDXDXDXDXDXDXDXDXDXDXDXDXDXDXDXDXDXDXAX  HXDXDXDXDXDXDXDXDXDXDXDXDXDXDXDXDXDXDXDXDXDXDXDXHXHX  DXDXDXDXDXDXDXDXDXDXDXDXDXDXDXDXDXDXDXDXDXDXDXDXDXHX  HX",
"    X                                                       . o . . . . . . . . . . . . . . . . . . . . . . . . .   @ # 2 2 3 3 2 2 4 4 4 4 4 4 4 4 4 4 4 4 4 4 4 4 # @ @ # 2 8 2 2 2 2 2 2 2 2 2 2 2 2 2 4 4 3 2 2 # 2 8 2 $ @ 3 7 7 7 7 7 7 7 7 7 7 7 6 6 6 7 7 7 7 7 6 7 7 6 6 2 @                                                         X                                                 @ 2 2 6 6 7 7 7 6 6 6 6 6 6 6 6 6 6 6 6 6 6 6 3 8 2 # @ # # # @ @ # # # # # # # # # # 2 2 2 2 2 2 3 6 6 3 2 @ @ @ # # # # # # # # # # 2 2 2 2 # # # # # # # # # @ X . . . o o o o o o o o o o o o o o o o o o o o o .                                                                                                                   ",
"DXDXDX  DXDXDXDXDXDXDXDXDXDXDXDXDXDXDXDXDXDXDXDXDXDXDXDXDXDX. N a r r r r r r r s s s r r r r r r r r a a r r b M o M h Z Z Z Z f f f f f f f f f f f f f f f f f f b V . N Z d C C C C C f f f f f f f f f f f f C C C d Z Z   AXHXZXZXZXZXZXZXZXZXZXZXZXZXZXZXZXZXZXZXZXZXZXZXDXZX  ZXAXDXDXDXDXDXDXDXDXDXDXDXDXDXDXDXDXDXDXDXDXDXDXDXDX  DXDXDXDXDXDXDXDXDXDXDXDXDXDXDXDXDXDXDXDXDXDXDXDXDXDX  AXAXAXAXZXAXAXAXDXDXDXDXDXDXAXAXAXAXAXDXDXAXAXJXDXDX. N C f f a b a a d d d f d d d d d d d d d d d d d M . N V a a b d d a a d d d d d d d d C d a a a a a Z B O a c c j j j n n n n s s s n n n n c c c c c j k c M   VXAXDXDXDXDXDXDXDXDXDXDXDXDXDXDXDXDXDXDXDXDXDXDXDXDX  DXDXDXDXDXDXDXDXDXDXDXDXDXDXDXDXDXDXDXDXDXDXDXDXDXDXX DX",
"DXDXDX  DXDXDXDXDXDXDXDXDXDXDXDXDXDXDXDXDXDXDXDXDXDXDXDXDXAXo M u y y y y y y y y y y y t t t t t t t t t t t r v - j x x x x i y y y y y y y y y y y y y y y y y y y t - a z y y y y y y y y y y y y y y y y y i y y y t n C O CXDXDXDXDXDXDXDXDXDXDXDXDXDXDXDXDXDXDXDXDXDXDXDXDXDX  DXDXDXDXDXDXDXDXDXDXDXDXDXDXDXDXDXDXDXDXDXDXDXDXDXDXX DXDXDXDXDXDXDXDXDXDXDXDXDXDXDXDXDXDXDXDXDXDXDXDXDXDX  DXDXAXAXAXDXDXDXDXDXDXDXDXDXDXDXDXDXDXDXDXDXDXAXDXAX+ u y y y y y y y y y y y y y y y y y y y y y y y y r - a t y y y y y y y y y y y y y y y y y y y y y y t a - n x t t t t y y y y y y y y t t t t t t t t t l l k . CXCXZXDXDXDXDXDXDXDXDXDXDXDXDXDXDXDXDXDXDXDXDXHXHXDX  DXDXDXDXDXDXDXDXDXDXDXDXDXDXDXDXDXDXDXDXDXDXDXDXDXHX  HX",
"DXDXDX  DXDXDXDXDXDXDXDXDXDXDXDXDXDXDXDXDXDXDXDXDXDXDXDXDXCX. M u y y y y y y y y y y y i i i i y y y y t t t z v o k l y y i i y y y y y y y y y y y y y y y y i i y u O V k t t t t t t t t t y y y y y y y y i y y y t c V . CXDXDXDXDXDXDXAXAXAXAXAXAXAXAXAXAXAXAXAXAXAXAXAXAXAX  DXDXDXDXDXDXDXDXDXDXDXDXDXDXDXDXDXDXDXDXDXDXDXDXDXDX  DXDXDXDXDXDXDXDXDXDXDXDXDXDXDXDXDXDXDXDXDXDXDXDXDXDX  AXHXDXDXDXDXDXAXAXAXAXAXAXAXAXDXDXDXDXDXDXDXAXDXDXDX. j y i i i y y y y y y y i i i i i i i y R R R y y z O V u i i i i i i i i i i i i i i i i i y y y y i u v O j l l l l l t y y y t t t t l l l l l l l l y y i c . CXVXCXAXDXDXDXDXDXDXDXDXDXDXDXDXDXDXDXDXDXDXDXDXDXDX  DXDXDXDXDXDXDXDXDXDXDXDXDXDXDXDXDXDXDXDXDXDXDXDXDXDX  DX",
"DXDXDX  DXDXDXDXDXDXDXDXDXDXDXDXDXDXDXDXDXDXDXDXDXDXDXDXDXCX. V u y y y y y y y y y y y y y y y y y y y y t y z v O l x y E i i y y y y y y y y y t y y y y y y i i y u O V r t t t t t t t t t y y y y y y t t i i y y t j N . CXDXDXDXDXDXDXAXAXAXAXAXAXAXAXAXAXAXAXAXAXAXAXAXDXAX  DXDXDXDXDXDXDXDXDXDXDXDXDXDXDXDXDXDXDXDXDXDXDXDXDXDX  DXDXDXDXDXDXDXDXDXDXDXDXDXDXDXDXDXDXDXDXDXDXDXDXDXDX  DXHXDXDXDXAXAXDXAXAXAXAXAXAXAXDXDXDXDXDXDXDXDXDXDXDX. j t t t i y y y y y y y i i i i i i i y y y R R R z O V z i i i i i i i i i i i i i i i i i y y i i i u a O j l l l l l t y y y y t t t t t t t t l l t i i y s . CXVXVXAXDXDXDXDXDXDXDXDXDXDXDXDXDXDXDXDXDXDXDXDXDXDX  DXDXDXDXDXDXDXDXDXDXDXDXDXDXDXDXDXDXDXDXDXDXDXDXDXDX  DX",
"DXDXDX  DXDXDXDXDXDXDXDXDXDXDXDXDXDXDXDXDXDXDXDXDXDXDXDXDXCX. V u y y y y y y y y y y y y y y y y y y y y y y u d O z y E i t l t y y y y y y y y y y y y y y y i y y z O b u t t t t t y y t y i i i i i i i i t t y E y z v o CXDXDXDXDXDXDXDXDXDXDXDXDXDXDXDXDXDXDXDXDXDXDXDXDXAX  DXDXDXDXDXDXDXDXDXDXDXDXDXDXDXDXDXDXDXDXDXDXDXDXDXDX  DXDXDXDXDXDXDXDXDXDXDXDXDXDXDXDXDXDXDXDXDXDXDXDXDXDX  DXHXDXAXAXAXAXAXDXDXDXDXDXDXDXDXAXDXDXDXDXDXDXDXDXDX. c l l t y y y y y y y y y y y i i i y y i y y R R i O b l y y y y y y y y y y y i i i y y y y y y y y u a - u i y y l y y y y y y y y y i i y y y i i i t y y j . CXVXVXAXDXDXDXDXDXDXDXDXDXDXDXDXDXDXDXDXDXDXDXDXDXDX  DXDXDXDXDXDXDXDXDXDXDXDXDXDXDXDXDXDXDXDXDXDXDXDXDXDX  DX",
"DXDXDX  DXDXDXDXDXDXDXDXDXDXDXDXDXDXDXDXDXDXDXDXDXDXDXDXDXCX. V u y y y y y y y y y y y y y y y y y y y y y y u d O i R E i l l t y y y y y y y y y y y y y y y y y y t - b u y y y y y y y i i y y y y y y y i t t i E y i b o CXAXDXDXDXDXDXDXDXDXDXDXDXDXDXDXDXDXDXDXDXDXDXDXDXAX  DXDXDXDXDXDXDXDXDXDXDXDXDXDXDXDXDXDXDXDXDXDXDXDXDXDX  DXDXDXDXDXDXDXDXDXDXDXDXDXDXDXDXDXDXDXDXDXDXDXDXDXDX  DXZXDXAXAXAXAXAXDXDXDXDXDXDXDXDXAXAXAXAXAXAXDXDXDXDX. c l l y y y y y y y y y y y y y y y y y t t y E E i O b l y y y y y y y y y y y y y y y y y y y y y y u a - u y y y y y y y y y y y y y y y y y y i i y t y y z . AXCXVXAXDXDXDXDXDXDXDXDXDXDXDXDXDXDXDXDXDXDXDXDXDXDX  DXDXDXDXDXDXDXDXDXDXDXDXDXDXDXDXDXDXDXDXDXDXDXDXDXDX  DX",
"DXDXDX  DXDXDXDXDXDXDXDXDXDXDXDXDXDXDXDXDXDXDXDXDXDXDXDXDXCX. V u y y y y y y y y y y y y y y y y y y y y y y u d O u y y y y y y y y y y y y y y y y y y y y y y y y u O b u y t t t y y y t y y y y y y y y y t t y y y i v o AXDXDXDXDXDXDXDXDXDXDXDXDXDXDXDXDXDXDXDXDXDXDXDXDXDX  DXDXDXDXDXDXDXDXDXDXDXDXDXDXDXDXDXDXDXDXDXDXDXDXDXDX  DXDXDXDXDXDXDXDXDXDXDXDXDXDXDXDXDXDXDXDXDXDXDXDXDXDX  DXDXDXDXDXDXDXDXDXDXDXDXDXDXDXDXDXDXDXDXDXDXDXDXDXDXo c y y y y y y y y y y y y y y y y y y y y y y y y u O b u y y y y y y y y y y y y y y y y y y y y y y u v O u y y y y y y y y y y y y y y y y y y y y y y y y j . DXCXCXDXDXDXDXDXDXDXDXDXDXDXDXDXDXDXDXDXDXDXDXDXDXDX  DXDXDXDXDXDXDXDXDXDXDXDXDXDXDXDXDXDXDXDXDXDXDXDXDXDX  DX",
"DXDXDX  DXDXDXDXDXDXDXDXDXDXDXDXDXDXDXDXDXDXDXDXDXDXDXDXDXCX. V u y y y y y y y y t t t y y y y y y y y y y y u v O u y y y y y y y y y y y y y y y y y y y y y y y y u O C u y t t y y y y t t y y y y y y y y y t y y y i V . AXDXDXDXDXDXDXDXDXDXDXDXDXDXDXDXDXDXDXDXDXDXDXDXDXDX  DXDXDXDXDXDXDXDXDXDXDXDXDXDXDXDXDXDXDXDXDXDXDXDXDXDX  DXDXDXDXDXDXDXDXDXDXDXDXDXDXDXDXDXDXDXDXDXDXDXDXDXDX  DXDXDXDXDXDXDXDXDXDXDXDXDXDXDXDXDXDXDXDXDXDXDXDXDXDXo c y i i y y y y y y y y y y y y y y y y y y t y y z O b u y y y y y y y y y y y y y y y y y y y y y y u V O u E y y y y y y y y y y y y y y y y y y y y y y y j . DXAXHXDXDXDXDXDXDXDXDXDXDXDXDXDXDXDXDXDXDXDXDXDXDXDX  DXDXDXDXDXDXDXDXDXDXDXDXDXDXDXDXDXDXDXDXDXDXDXDXDXDX  DX",
"DXDXDX  DXDXDXDXDXDXDXDXDXDXDXDXDXDXDXDXDXDXDXDXDXDXDXDXDXCX. V u y y y y y y y y y y y y y y y y y y y y y y u v O u y y y y y y y y y y y y y y y y y y y y y y y y u O C u y y t y y y y y y y y y y y y y y y t y y y i v . AXDXDXDXDXDXDXDXDXDXDXDXDXDXDXDXDXDXDXDXDXDXDXDXDXDX  DXDXDXDXDXDXDXDXDXDXDXDXDXDXDXDXDXDXDXDXDXDXDXDXDXDX  DXDXDXDXDXDXDXDXDXDXDXDXDXDXDXDXDXDXDXDXDXDXDXDXDXDX  DXDXDXDXDXDXDXDXDXDXDXDXDXDXDXDXDXDXDXDXDXDXDXDXDXDX. c y i i y y y y y y y y y y y y y y y y y y t y y u O v u y y y y y y y y y y y y y y y y y y y y y y u V O u E y y y y y y y y y y y y y y y y y y y y y y y j . DXAXHXDXDXDXDXDXDXDXDXDXDXDXDXDXDXDXDXDXDXDXDXDXDXDX  DXDXDXDXDXDXDXDXDXDXDXDXDXDXDXDXDXDXDXDXDXDXDXDXDXDX  DX",
"DXDXDX  DXDXDXDXDXDXDXDXDXDXDXDXDXDXDXDXDXDXDXDXDXDXDXDXDXCX. V u y y y y y y y y y y y y y y y y y y y y y y u v O u y y y y y y y y y y y y y y y y y y y y y y y y u - C u y y y y y y y y y y y y y y y y y y t y y y i v . AXDXDXDXDXDXDXDXDXDXDXDXDXDXDXDXDXDXDXDXDXDXDXDXDXDX  DXDXDXDXDXDXDXDXDXDXDXDXDXDXDXDXDXDXDXDXDXDXDXDXDXDX  DXDXDXDXDXDXDXDXDXDXDXDXDXDXDXDXDXDXDXDXDXDXDXDXDXDX  DXDXDXDXDXDXDXDXDXDXDXDXDXDXDXDXDXDXDXDXDXDXDXDXDXDX. c y i i y y y y y y y y y y y y y y y y y y t y y u O v u y y y y y y y y y y y y y y y y y y y y y y u M O u E y y y y y y t t t y y y y y y y y y y y y y y j . DXAXHXDXDXDXDXDXDXDXDXDXDXDXDXDXDXDXDXDXDXDXDXDXDXDX  DXDXDXDXDXDXDXDXDXDXDXDXDXDXDXDXDXDXDXDXDXDXDXDXDXDX  DX",
"DXDXDX  DXDXDXDXDXDXDXDXDXDXDXDXDXDXDXDXDXDXDXDXDXDXDXDXDXCX. V u y y y y y y y y y y y y y y y y y y y y y y u v O u y y y y y y y y y y y y y y y y y y y y y y y y u - C u y y y y y y y y y y y y y y y y y y t y y y i v . AXDXDXDXDXDXDXDXDXDXDXDXDXDXDXDXDXDXDXDXDXDXDXDXDXDX  DXDXDXDXDXDXDXDXDXDXDXDXDXDXDXDXDXDXDXDXDXDXDXDXDXDX  DXDXDXDXDXDXDXDXDXDXDXDXDXDXDXDXDXDXDXDXDXDXDXDXDXDX  DXDXDXDXDXDXDXDXDXDXDXDXDXDXDXDXDXDXDXDXDXDXDXDXDXDX. c y y i y y y y y y y y y y y y y y y y y y t y y u O v u y y y y y y y y y y y y y y y y y y y y y y u M O u E y y y y y y y y y y y y y y y y y y y y y y y j . DXAXHXDXDXDXDXDXDXDXDXDXDXDXDXDXDXDXDXDXDXDXDXDXDXDX  DXDXDXDXDXDXDXDXDXDXDXDXDXDXDXDXDXDXDXDXDXDXDXDXDXDX  DX",
"DXDXDX  DXDXDXDXDXDXDXDXDXDXDXDXDXDXDXDXDXDXDXDXDXDXDXDXDXCX. V u y y y y y y y y y y y y y y y y y y y y y y u d O u y y y y y y y y y y y y y y y y y y y y y y y y u O C u y y y y y y y y y y y y y y y y y i t y y y i v . AXDXDXDXDXDXDXDXDXDXDXDXDXDXDXDXDXDXDXDXDXDXDXDXDXDX  DXDXDXDXDXDXDXDXDXDXDXDXDXDXDXDXDXDXDXDXDXDXDXDXDXDX  DXDXDXDXDXDXDXDXDXDXDXDXDXDXDXDXDXDXDXDXDXDXDXDXDXDX  DXDXDXDXDXDXDXDXDXDXDXDXDXDXDXDXDXDXDXDXDXDXDXDXDXDX. c y y i y y y y y y y y y y y y y y y y y y t t y u O v u y y y y y y y y y y y y y y y y y y y y y y u M O u E y y y y y y y y y y y y y y y y y y y y y y y j . DXAXHXDXDXDXDXDXDXDXDXDXDXDXDXDXDXDXDXDXDXDXDXDXDXDX  DXDXDXDXDXDXDXDXDXDXDXDXDXDXDXDXDXDXDXDXDXDXDXDXDXDX  DX",
"DXDXDX  DXDXDXDXDXDXDXDXDXDXDXDXDXDXDXDXDXDXDXDXDXDXDXDXDXCX. v u y y y y y y y y t t y y y y y y y y y y y y u M O u y y y y y y y y y y y y y y y y y y y y y y y y u O C u t t y t t y y y y y y y y y y y y i t y y y i v . CXDXDXDXDXDXDXDXDXDXDXDXDXDXDXDXDXDXDXDXDXDXDXDXDXDX  DXDXDXDXDXDXDXDXDXDXDXDXDXDXDXDXDXDXDXDXDXDXDXDXDXDX  DXDXDXDXDXDXDXDXDXDXDXDXDXDXDXDXDXDXDXDXDXDXDXDXDXDX  DXDXDXDXDXDXDXDXDXDXDXDXDXDXDXDXDXDXDXDXDXDXDXDXDXDXo c y y i y y y y y y y y y y y y y y y y y t t t y u O v t y y y y y y y y y y y y y y y y y y y y y y u M O u E y y y y y y y y y y y y y y y y y y y y y y y j . DXAXHXDXDXDXDXDXDXDXDXDXDXDXDXDXDXDXDXDXDXDXDXDXDXDX  DXDXDXDXDXDXDXDXDXDXDXDXDXDXDXDXDXDXDXDXDXDXDXDXDXDX  DX",
"DXDXDX  DXDXDXDXDXDXDXDXDXDXDXDXDXDXDXDXDXDXDXDXDXDXDXDXDXCX. v u y y y y y y y y y y y y y y y y y y y y y y u V O u y i y y y y y y y y y y y y y y y y y y y y y y u O V u t t t t t t y y y y y y y y y y y t t y y y u v . CXDXDXDXDXDXDXDXDXDXDXDXDXDXDXDXDXDXDXDXDXDXDXDXDXDX  DXDXDXDXDXDXDXDXDXDXDXDXDXDXDXDXDXDXDXDXDXDXDXDXDXDX  DXDXDXDXDXDXDXDXDXDXDXDXDXDXDXDXDXDXDXDXDXDXDXDXDXDX  DXDXDXDXDXDXDXDXDXDXDXDXDXDXDXDXDXDXDXDXDXDXDXDXDXAXo j y y i y y y y y y y y y y y y y y y y y t l t y u O b t y y y y y y y y y y y y y y y y y y y y y y u M O u E y y y y y y y y y y y y y y y y y y y y y y y j . DXAXAXDXDXDXDXDXDXDXDXDXDXDXDXDXDXDXDXDXDXDXDXDXDXDX  DXDXDXDXDXDXDXDXDXDXDXDXDXDXDXDXDXDXDXDXDXDXDXDXDXDX  DX",
"DXDXDX  DXDXDXDXDXDXDXDXDXDXDXDXDXDXDXDXDXDXDXDXDXDXDXDXDXCX. v u y y y y y y y y y y y y y y y y y y y y y y u V O u y i y y y y y y y y y y y y y y y y y y y y y y u O V u t y y y y y y y y y y y y y y y y t t l y y u v . CXDXDXDXDXDXDXDXDXDXDXDXDXDXDXDXDXDXDXDXDXDXDXDXDXDX  DXDXDXDXDXDXDXDXDXDXDXDXDXDXDXDXDXDXDXDXDXDXDXDXDXDX  DXDXDXDXDXDXDXDXDXDXDXDXDXDXDXDXDXDXDXDXDXDXDXDXDXDX  DXDXDXDXDXDXDXDXDXDXDXDXDXDXDXDXDXDXDXDXDXDXDXDXDXAX. j x y i y y y y y y y y y y y y y y y y y y l t y u O v u y y y y y y y y y y y y y y y y y y y y y y u M O u E y y y y y y y y y y y y y y y y y y y y y y y j . DXAXAXDXDXDXDXDXDXDXDXDXDXDXDXDXDXDXDXDXDXDXDXDXDXDX  DXDXDXDXDXDXDXDXDXDXDXDXDXDXDXDXDXDXDXDXDXDXDXDXDXDX  DX",
"DXDXDX  DXDXDXDXDXDXDXDXDXDXDXDXDXDXDXDXDXDXDXDXDXDXDXAXDXCX. v u y y y y y y y y y y y y y y y y y y y y y y u V O u y i y y y y y y y y y y y y y y y y y y y y y y z O V u t y y y y y y y y y y y y y y y y t t l y y u v . CXDXDXDXDXDXDXDXDXDXDXDXDXDXDXDXDXDXDXDXDXDXDXDXDXDX  DXDXDXDXDXDXDXDXDXDXDXDXDXDXDXDXDXDXDXDXDXDXDXDXDXDX  DXDXDXDXDXDXDXDXDXDXDXDXDXDXDXDXDXDXDXDXDXDXDXDXDXDX  DXDXDXDXDXDXDXDXDXDXDXDXDXDXDXDXDXDXDXDXDXDXDXDXDXAX. j x y i y y y y y y y y y y y y y y y y y y l y y u O v u y y y y y y y y y y y y y y y y y y y y y y u M O u E y y y y y y y y y y y y y y y y y y y y y y y j . DXAXAXDXDXDXDXDXDXDXDXDXDXDXDXDXDXDXDXDXDXDXDXDXDXDX  DXDXDXDXDXDXDXDXDXDXDXDXDXDXDXDXDXDXDXDXDXDXDXDXDXDX  DX",
"DXDXDX  DXDXDXDXDXDXDXDXDXDXDXDXDXDXDXDXDXDXDXDXDXDXAXAXDXCX. v u y y y y y y y y y y y y y y y y y y y y y y u M O z y i y y y y y y y y y y y y y y y y y y y y y y z O V z t y y y y y y y y y y y y y y y y t l t y y u v . CXDXDXDXDXDXDXDXDXDXDXDXDXDXDXDXDXDXDXDXDXDXDXDXDXDX  DXDXDXDXDXDXDXDXDXDXDXDXDXDXDXDXDXDXDXDXDXDXDXDXDXDX  DXDXDXDXDXDXDXDXDXDXDXDXDXDXDXDXDXDXDXDXDXDXDXDXDXDX  DXDXDXDXDXDXDXDXDXDXDXDXDXDXDXDXDXDXDXDXDXDXDXDXDXAX. j y y y y y y y y y y y y y y y y y y y y y t y y u O b t y y y y y y y y y y y y y y y y y y y y y y u M O u E y y y y y y y y y y y y y y y y y y y y y y y j . DXAXHXDXDXDXDXDXDXDXDXDXDXDXDXDXDXDXDXDXDXDXDXDXDXDX  DXDXDXDXDXDXDXDXDXDXDXDXDXDXDXDXDXDXDXDXDXDXDXDXDXDX  DX",
"DXDXDX  DXDXDXDXDXDXDXDXDXDXDXDXDXDXDXDXDXDXDXDXDXDXAXAXDXCX. v u y y y y y y y y y y y y y y y y y y y y y y u M o z y i y y y y y y y y y y y y y y y y y y y y y y z O V z t y y y y y y y y y y y y y y y y t t t y y u v . CXDXDXDXDXDXDXDXDXDXDXDXDXDXDXDXDXDXDXDXDXDXDXDXDXDX  DXDXDXDXDXDXDXDXDXDXDXDXDXDXDXDXDXDXDXDXDXDXDXDXDXDX  DXDXDXDXDXDXDXDXDXDXDXDXDXDXDXDXDXDXDXDXDXDXDXDXDXDX  DXDXDXDXDXDXDXDXDXDXDXDXDXDXDXDXDXDXDXDXDXDXDXDXDXAX. j y y y y y y y y y y y y y y y y y y y y y t y y u O v t y y y y y y y y y y y y y y y y y y y y y y u M O u E y y y y y y y y y y y y y y y y y y y y y y y j . DXAXHXDXDXDXDXDXDXDXDXDXDXDXDXDXDXDXDXDXDXDXDXDXDXDX  DXDXDXDXDXDXDXDXDXDXDXDXDXDXDXDXDXDXDXDXDXDXDXDXDXDX  DX",
"DXDXDX  DXDXDXDXDXDXDXDXDXDXDXDXDXDXDXDXDXDXDXDXDXDXAXAXDXCX. v u y y y y y y y y y y y y y y y y y y y y y y u M o z y y y y y y y y y y y y y y y y y y y y y y y y z O V z t y y y y y y y y y y y y y y y y t t t y y z v . CXDXDXDXDXDXDXDXDXDXDXDXDXDXDXDXDXDXDXDXDXDXDXDXDXDX  DXDXDXDXDXDXDXDXDXDXDXDXDXDXDXDXDXDXDXDXDXDXDXDXDXDX  DXDXDXDXDXDXDXDXDXDXDXDXDXDXDXDXDXDXDXDXDXDXDXDXDXDX  DXDXDXDXDXDXDXDXDXDXDXDXDXDXDXDXDXDXDXDXDXDXDXDXDXAX. j y y y y y y y y y y y y y y y y y y y y y l y y u O v u y y y y y y y y y y y y y y y y y y y y y y u M O u E y y y y y y y y y y y y y y y y y y y y y y y j . DXAXHXDXDXDXDXDXDXDXDXDXDXDXDXDXDXDXDXDXDXDXDXDXDXDX  DXDXDXDXDXDXDXDXDXDXDXDXDXDXDXDXDXDXDXDXDXDXDXDXDXDX  DX",
"DXDXDX  DXDXDXDXDXDXDXDXDXDXDXDXDXDXDXDXDXDXDXDXDXDXAXAXDXCX. v u y y y y y y y y y y y y y y y y y y y y y y u M o z y i y l y y y y y y y y y y y y y y y y y y y y z O V z t y y y y y y y y y y y y y y y y t t t y y u v . CXDXDXDXDXDXDXDXDXDXDXDXDXDXDXDXDXDXDXDXDXDXDXDXDXDX  DXDXDXDXDXDXDXDXDXDXDXDXDXDXDXDXDXDXDXDXDXDXDXDXDXDX  DXDXDXDXDXDXDXDXDXDXDXDXDXDXDXDXDXDXDXDXDXDXDXDXDXDX  DXDXDXDXDXDXDXDXDXDXDXDXDXDXDXDXDXDXDXDXDXDXDXDXDXAX. j y y y y y y y y y y y y y y y y y y y y y t y y u O v u y y y y y y y y y y y y y y y y y y y y y y u M O u E y y y y y y y y y y y y y y y y y y y y y y y j . DXAXHXDXDXDXDXDXDXDXDXDXDXDXDXDXDXDXDXDXDXDXDXDXDXDX  DXDXDXDXDXDXDXDXDXDXDXDXDXDXDXDXDXDXDXDXDXDXDXDXDXDX  DX",
"DXAXDX  DXDXDXDXDXDXDXDXDXDXDXDXDXDXDXDXDXDXDXDXDXDXAXAXDXCX. v u y y y y y y y y y y y y y y y y y y y y y y u M o z y y y l l y y y y y y y y y y y y y y y y y y y z O V z t y y y y y y y y y y y y y y y y t t t y y u v . CXDXDXDXDXDXDXDXDXDXDXDXDXDXDXDXDXDXDXDXDXDXDXDXDXDX  DXDXDXDXDXDXDXDXDXDXDXDXDXDXDXDXDXDXDXDXDXDXDXDXDXDX  DXDXDXDXDXDXDXDXDXDXDXDXDXDXDXDXDXDXDXDXDXDXDXDXDXDX  DXDXDXDXDXDXDXDXDXDXDXDXDXDXDXDXDXDXDXDXDXDXDXDXDXAX. j x y y y y y y y y y y y y y y y y y y y y t y y u O v u y y y y y y y y y y y y y y y y y y y y y y u M O u E y y y y y y y y y y y y y y y y y y y y y y y j . DXAXHXDXDXDXDXDXDXDXDXDXDXDXDXDXDXDXDXDXDXDXDXDXDXDX  DXDXDXDXDXDXDXDXDXDXDXDXDXDXDXDXDXDXDXDXDXDXDXDXDXDX  DX",
"DXAXDX  DXDXDXDXDXDXDXDXDXDXDXDXDXDXDXDXDXDXDXDXDXDXDXAXDXVXo v u y y y y y y y y y y y y y y y y y y y y y y u h o z y y y t t y y y y y y y y y y y y y y y y y y y z O V z t y y y y y y y y y y y y y y y y t t t y y u v . CXDXDXDXDXDXDXDXDXDXDXDXDXDXDXDXDXDXDXDXDXDXDXDXDXDX  DXDXDXDXDXDXDXDXDXDXDXDXDXDXDXDXDXDXDXDXDXDXDXDXDXDX  DXDXDXDXDXDXDXDXDXDXDXDXDXDXDXDXDXDXDXDXDXDXDXDXDXDX  DXDXDXDXDXDXDXDXDXDXDXDXDXDXDXDXDXDXDXDXDXDXDXDXDXDX. j y y y y y y y y y y y y y y y y y y y y y t t t u O v u y y y y y y y y y y y y y y y y y y y y y y u v O u y y y y y y y y y y y y y y y y y y y y y y y y c . DXAXZXDXDXDXDXDXDXDXDXDXDXDXDXDXDXDXDXDXDXDXDXDXDXDX  DXDXDXDXDXDXDXDXDXDXDXDXDXDXDXDXDXDXDXDXDXDXDXDXDXDX  DX",
"AXAXDX  DXAXAXDXDXDXDXDXDXDXDXDXDXDXDXDXDXDXDXDXAXAXDXDXDXVXo v u y y y y y y y y y y y y y y y y y y y y y y z h o z i y t t y i i i i y y y y i i y y y y y y i t t z O V j t y y y y i i i y y y y y y y y y y y i i i s v o CXDXDXDXDXDXDXDXDXDXDXDXDXDXDXDXDXDXDXDXDXDXDXDXDXDX  DXDXDXDXDXDXDXDXDXDXDXDXDXDXDXDXDXDXDXDXDXDXDXDXDXDX  DXDXDXDXDXDXDXDXDXDXDXDXDXDXDXDXDXDXDXDXDXDXDXDXDXDX  DXDXDXDXDXDXDXDXDXDXDXDXDXDXDXDXDXDXDXDXDXDXDXDXDXDX. c y i i y y y y y y y y y y y y y y y y y t t t t l O b u y y y y y y y y y y y y y y y y y y y y y y u b O t y y y t t y y y y y y y y y y y y y y y y y y t c . DXAXZXDXAXAXAXAXAXAXAXAXAXAXAXAXAXAXDXDXDXDXDXDXAXDX  DXDXDXDXDXDXDXDXDXDXDXDXDXDXDXDXDXDXDXDXDXDXDXDXDXDX  DX",
"AXCXDX  DXDXAXDXDXDXDXDXDXDXDXDXDXDXDXDXDXDXDXDXAXZXAXDXDXVXo v z t t y y y y y y y y y y y y y y y y y y y y z h o z i y t t i i i i i i y i y i y y y y y y y i t t u O V j t y y i i i y y y y t t t t t t y y y i i u n a o CXDXDXDXDXDXDXDXDXDXDXDXDXDXDXDXDXDXDXDXDXDXDXDXDXDX  DXDXDXDXDXDXDXDXDXDXDXDXDXDXDXDXDXDXDXDXDXDXDXDXDXDX  DXDXDXDXDXDXDXDXDXDXDXDXDXDXDXDXDXDXDXDXDXDXDXDXDXDX  DXDXDXDXDXDXDXDXDXDXDXDXDXDXDXDXDXDXDXDXDXDXDXDXDXDX. c y y y y y y y y y y y y y y y y y y y y t l t t u O b u y y y y y y y y y y y y y y y y y y y y y y u b - k x y y t t y y y y y y y y y y y y y y y y y y t c . DXAXAXAXAXAXAXAXAXAXAXAXAXAXAXAXAXAXDXDXDXDXDXDXDXDX  DXDXDXDXDXDXDXDXDXDXDXDXDXDXDXDXDXDXDXDXDXDXDXDXDXDX  DX",
"AXCXDX  DXDXDXDXDXAXAXAXDXDXDXDXDXDXAXDXDXDXAXAXZXZXAXDXDXCX. h z y y y y y y y y y y y y y y y y y y y y y y l h o z y y y y y y i i i y y y y y y y y y y y y i i y z O v z t y y y y y y y y y y y y y y t t y y y i i z a o CXDXDXDXDXDXDXDXDXDXDXDXDXDXDXDXDXDXDXDXDXDXDXDXDXDX  DXDXDXDXDXDXDXDXDXDXDXDXDXDXDXDXDXDXDXDXDXDXDXDXDXDX  DXDXDXDXDXDXDXDXDXDXDXDXDXDXDXDXDXDXDXDXDXDXDXDXDXDX  DXDXDXDXDXDXDXDXDXDXDXDXDXDXDXDXDXDXDXDXDXDXDXDXDXDXo z R R R y y y y y y y y y y y y y y y y y t l t t u O b u y y y y y y y y y y y y y y y y y y y y y y u v - r x y t t t y y y y y y y y y y y y y y y y y t t s . DXAXAXDXDXDXDXDXDXDXDXDXDXDXDXDXDXDXDXDXDXDXDXDXAXDX  DXDXDXDXDXDXDXDXDXDXDXDXDXDXDXDXDXDXDXDXDXDXDXDXDXDX  DX",
"AXCXAX  AXDXDXDXDXAXAXAXDXDXDXDXDXDXDXDXDXDXAXAXAXAXAXDXDXCX. h z y y y y y y y y y y y y y y y y y y y y y y z h O z y y y y y y y y y y y y y y y y y y y y y y i y u O v z t y y y y y y y y y y y y y y y y y y y y i u a o CXDXDXDXDXDXDXDXDXDXDXDXDXDXDXDXDXDXDXDXDXDXDXDXDXDX  DXDXDXDXDXDXDXDXDXDXDXDXDXDXDXDXDXDXDXDXDXDXDXDXDXDX  DXDXDXDXDXDXDXDXDXDXDXDXDXDXDXDXDXDXDXDXDXDXDXDXDXDX  DXDXDXDXDXDXDXDXDXDXDXDXDXDXDXDXDXDXDXDXDXDXDXDXDXDXo z R R R y y y y y y y y y y y y y y y y i i t t t u O v u y y y y y y y y y y y y y y y y y y y y y y u v - t x y y t t y y y y y y y y y y y y y y y y y y i s . DXAXAXDXDXDXDXDXDXAXDXDXDXDXDXDXDXDXDXDXDXDXDXDXAXDX  DXDXDXDXDXDXDXDXDXDXDXDXDXDXDXDXDXDXDXDXDXDXDXDXDXDX  DX",
"DXAXCX  CXCXCXCXAXAXAXAXAXAXAXAXAXAXAXAXAXAXAXDXDXDXAXAXDXDX  M n x O.O.O.R R R O.O.O.O.O.R R O.O.O.O.O.O.R O.z h - p y O.O.O.O.O.O.O.O.O.O.O.O.O.R O.O.O.O.O.O.O.O.O.z O a p x O.O.O.O.O.O.O.O.O.O.x O.x O.O.O.O.O.O.E p u a O CXDXDXDXDXDXDXDXDXDXDXDXDXDXDXDXDXDXDXDXDXDXDXDXDXDX  DXDXDXDXDXDXDXDXDXDXDXDXDXDXDXDXDXDXDXDXDXDXDXDXDXAX  DXDXDXDXDXDXDXDXDXDXDXDXDXDXDXDXDXDXDXDXDXDXDXDXDXDXX DXDXAXDXDXDXDXDXDXDXDXDXDXDXDXDXDXDXDXDXDXDXDXDXDXAX. n y y y y y y y y y y y y y y y y y y y i i y y i u ; a z y y y y y y y y y y y y y i y y y y y y y y u b - z y y y y y y y y y y y i y y y y y y y y y y y i c o DXDXDXDXDXDXDXDXDXDXDXDXDXDXDXDXDXDXDXDXDXDXDXDXDXDX  DXDXDXDXDXDXDXDXDXDXDXDXDXDXDXDXDXDXDXDXDXDXDXDXDXHXX AX",
"DXCXDXo CXCXCXCXDXDXDXDXDXDXDXDXDXDXDXDXDXDXDXDXAXCXDXDXDXVX. N r u u u u u u u u u u u u u u u u u u u u u u s M o c u u t u u u u u u u u u u u u t t t t t u u u u s o Z c t u u u u u u u u t t t t t t t t t u u u s b V . AXDXDXDXDXDXDXDXDXDXDXDXDXDXDXDXDXDXDXDXDXDXDXDXHXDX  DXDXDXDXDXDXDXDXDXDXDXDXDXDXDXDXDXDXDXDXDXDXDXDXDXDX  DXDXDXDXDXDXDXDXDXDXDXDXDXDXDXDXDXDXDXDXDXDXDXDXDXDX  HXDXDXDXDXDXDXDXDXDXDXDXDXDXDXAXAXAXAXDXDXDXDXAXDXDX  c t u u u u u u u u u t u u u u u u u u u u u u r n O M s u u u u u u u u u u u u u u u u u u u u u u s d O s u t t u u u r r u u u u u u u u u u u u u u u u a   DXDXDXAXAXAXAXAXAXAXAXAXAXAXAXCXCXCXAXAXAXAXAXCXAXAX  DXDXDXDXDXDXDXDXDXDXDXDXDXDXDXDXDXDXDXDXDXDXDXDXDXDX  DX",
"X     . . o o o o . o o o o . . o o o . o o o o o o o o . o o o O O O O O O O O O O O O O O O O O O O O O O O o .   o - O O O O O O O O O O O O O O - - O O O O O O O o . . . O O O O O O O O O O O O O O O O O O O O O O O o                                                   X                                                                                                                                                                       O - O O O O O O O O O O O O O O O O O O O O O O - o     o O O O O O O O O O O O O O O O O O O O O O O o .   . - - - O O O O O O O O O O O O O O O O O O O - - O .   . . . . . . . . . . . . . . . . . . . . . . o . o                                                   X       ",
"AXHXDX. N V Z V V V V V V V V V V V V V V V V v b b v Z Z Z o M V V V V V V V V V V V V V V V V V V V V d d d N B . N v v v v v v v v v v v v v v v v v v v v v V v v M   B N C v v v v v v v v v v v v v v v v v v v v d N B   DXDXDXDXDXDXDXDXDXDXDXDXDXDXDXDXDXDXDXDXDXDXDXDXDXDX  DXDXDXDXDXDXDXDXDXDXDXDXDXDXDXDXDXDXDXDXDXDXDXDXDXDX  DXDXDXDXDXDXDXDXDXDXDXDXDXDXDXDXDXDXDXDXDXDXDXDXDXDX  HXAXDXDXDXDXDXDXDXDXDXDXDXDXDXAXAXAXAXAXAXAXDXDXDXZX  V b V V v v v v v v v v v v v v v v v v v a v v a Z . B M v v v v v v v v v v v v v v v v v v v v v v M B . Z v v v v v v v v v v v v v v v v v v v v v V a s v . B N V v v v v v v v v v v v v v V V V V V V V Z M Z . AXDXDXDXDXDXDXDXDXDXDXDXDXDXDXDXDXDXDXDXDXDXDXDXDXDX  DX",
"DXDXDX. b z z z z z z z z z z z z z z z z z z z t x z z r r o V c u u u u u u u u u u u u u u u u u u u u u u c N . c z u u l l z u u u u u u u u u u u u u u u u u u c O Z c u u u u u u u u u u u u u u u u u u u u u u n M . AXDXDXDXDXDXDXDXDXDXDXDXDXDXDXDXDXDXDXDXDXDXDXDXDXDX  DXDXDXDXDXDXDXDXDXDXDXDXDXDXDXDXDXDXDXDXDXDXDXDXDXDX  DXDXDXDXDXDXDXDXDXDXDXDXDXDXDXDXDXDXDXDXDXDXDXDXDXDX  DXDXDXDXDXDXDXDXDXDXDXDXDXDXDXDXDXDXDXDXDXDXDXDXDXDX  b u u s u u u u u u u u u u u u u u u u u u u u u s o V c z l l z z z z z z z z u u u u u u u u u u u c N o c z j k t t u u u u u u u u u u u u u u u u u z t j O M c k z u t t u u u z z z z l z z z u t u u u z s M o AXDXDXDXDXDXDXDXDXDXDXDXDXDXDXDXDXDXDXDXDXDXDXDXDXDX  DX",
"DXDXAX. c y y x y y y y x x x x x x y y y y x x y y y y y t O v u y y y y y y y y y t y y y y y y y y y y y y u h o z y i y y y y y y y y y y y t t y y y y t y y y y u O C u y y y y y y y y y y y y y y y y y i y y y y i a . CXDXDXDXDXDXDXDXDXDXDXDXDXDXDXDXDXDXDXDXDXDXDXDXDXDX  DXDXDXDXDXDXDXDXDXDXDXDXDXDXDXDXDXDXDXDXDXDXDXDXDXDX  DXDXDXDXDXDXDXDXDXDXDXDXDXDXDXDXDXDXDXDXDXDXDXDXDXDX  DXDXDXDXDXDXDXDXDXDXDXDXDXDXDXDXDXDXDXDXDXDXDXDXDXDX. c y i i y y y y y y y y y y y y y y y y y y t y y u O v u y y y y y y y y y y y y y y y y y y y y y y u v O u l l l y y y y y y y y y y y y y y y y y y t t y l O v l l y y y y y y y y y y y y y y t y y y y i y u a o CXDXDXDXDXDXDXDXDXDXDXDXDXDXDXDXDXDXDXDXDXDXDXDXDXDX  DX",
"DXDXAX. c y y x y y y y y y x y x x x y y y y x y R y y y t O v u y y y y y y y y y y y y y y y y y y y y y y u h o z y i y y y y y y y y y y y t t y y y y t y y y y u O C u y y y y y y y y y y y t t y y y y i y y y y i a . CXDXDXDXDXDXDXDXDXDXDXDXDXDXDXDXDXDXDXDXDXDXDXDXDXDX  DXDXDXDXDXDXDXDXDXDXDXDXDXDXDXDXDXDXDXDXDXDXDXDXDXDX  DXDXDXDXDXDXDXDXDXDXDXDXDXDXDXDXDXDXDXDXDXDXDXDXDXDX  DXDXDXDXDXDXDXDXDXDXDXDXDXDXDXDXDXDXDXDXDXDXDXDXDXDX. c y i i y y y y y y y y y y y y y y y y t y t y y u O v u y y y y y y y y y y y y y y y y y y y y y y u v O u x l l y y y y y y y y y y y y y y y y y y t t y t O v l l y y y y y y y y y y y y t t t y y y y i y u a o CXDXDXDXDXDXDXDXDXDXDXDXDXDXDXDXDXDXDXDXDXDXDXDXDXDX  DX",
"DXDXAX. c y y x y y y y y y y y x x x y y y y x R R y y y t O v u y y y y y y y y y y y y y y y y y y y y y y u h o z y i y y y y y y y y y y y t t y y y y y y y y y u O C u y y y y y y y y y y y t y y t y t i y y y y i a . CXDXDXDXDXDXDXDXDXDXDXDXDXDXDXDXDXDXDXDXDXDXDXDXDXDX  DXDXDXDXDXDXDXDXDXDXDXDXDXDXDXDXDXDXDXDXDXDXDXDXDXDX  DXDXDXDXDXDXDXDXDXDXDXDXDXDXDXDXDXDXDXDXDXDXDXDXDXDX  DXDXDXDXDXDXDXDXDXDXDXDXDXDXDXDXDXDXDXDXDXDXDXDXDXDX. c y i i y y y y y y y y y y y y y y y y t t t y y u O v u y y y y y y y y y y y y y y y y y y y y y y u v O u i t l y y y y y y y y y y y y y y y y y y y y y t O a l l y y y y y y y y y y y y t t t y y y y i y u a o CXDXDXDXDXDXDXDXDXDXDXDXDXDXDXDXDXDXDXDXDXDXDXDXDXDX  DX",
"DXDXAX. c y y y y y y y y y y y y y y y y y y y R R y y y t O v u y y y y y y y y y y y y y y y y y y y y y y u h o z y i t t l y y y y y y y y t y y y y y y y y y y u O C u y y y y y y y y y y y t t t t t y i y y y y i d . AXDXDXDXDXDXDXDXDXDXDXDXDXDXDXDXDXDXDXDXDXDXDXDXDXDX  DXDXDXDXDXDXDXDXDXDXDXDXDXDXDXDXDXDXDXDXDXDXDXDXDXDX  DXDXDXDXDXDXDXDXDXDXDXDXDXDXDXDXDXDXDXDXDXDXDXDXDXDX  DXDXDXDXDXDXDXDXDXDXDXDXDXDXDXDXDXDXDXDXDXDXDXDXDXDX. c y i i y y y y y y y y y y y y y y y y i i t y y u O v u y y y y y y y y y y y y y y y y y y y y y y u v O u y t l y y y y y y y y y y y y y y y y y y y y y t O a l l y y y y y y y y y y y y y y y y y y i i y u a o CXDXDXDXDXDXDXDXDXDXDXDXDXDXDXDXDXDXDXDXDXDXDXDXDXDX  DX",
"DXDXAX. n y y y y y y y y y y y y y y y y y y y R R y y y t O v u y y y y y y y y y y y y y y y y y y y y y y u h o z y t t l l y y y y y y y y y y y y y y y y y y y u O C u y y y y y y y y y y y t t t t t y i y y y y i d . AXDXDXDXDXDXDXDXDXDXDXDXDXDXDXDXDXDXDXDXDXDXDXDXDXDX  DXDXDXDXDXDXDXDXDXDXDXDXDXDXDXDXDXDXDXDXDXDXDXDXDXDX  DXDXDXDXDXDXDXDXDXDXDXDXDXDXDXDXDXDXDXDXDXDXDXDXDXDX  DXDXDXDXDXDXDXDXDXDXDXDXDXDXDXDXDXDXDXDXDXDXDXDXDXDX. c y i i y y y y y y y y y y y y y y y y i i t y y u O v u y y y y y y y y y y y y y y y y y y y y y y u v O u y t l y y y y y y y y y y y y y y y y y y y y y t O a l l y y y y y y y y y y y y y y y y y y i i y u a o CXDXDXDXDXDXDXDXDXDXDXDXDXDXDXDXDXDXDXDXDXDXDXDXDXDX  DX",
"DXDXDX. c y x x y y y y x x x x y y x x y y y y R R y y y t O v u y y y y y y y y y t t y y y y y y y y y y y u h o z y y y l x y y y y y y y y y y y y y y y y y y y u - C u y y y y y y y y y y y t t y y y y i y y y y i d . AXDXDXDXDXDXDXDXDXDXDXDXDXDXDXDXDXDXDXDXDXDXDXDXDXDX  DXDXDXDXDXDXDXDXDXDXDXDXDXDXDXDXDXDXDXDXDXDXDXDXDXDX  DXDXDXDXDXDXDXDXDXDXDXDXDXDXDXDXDXDXDXDXDXDXDXDXDXDX  DXDXDXDXDXDXDXDXDXDXDXDXDXDXDXDXDXDXDXDXDXDXDXDXDXDX. c y i i y y y y y y y y y y y y y y y y i i t y y u O v t y y y y y y y y y y y y y y y y y y y y y y u v O u y t y y y y y y y y y y y y y y y y y y y y y y t O a z y y y y y y y y y y y y y y y y y y y i i y u a o CXDXDXDXDXDXDXDXDXDXDXDXDXDXDXDXDXDXDXDXDXDXDXDXDXDX  DX",
"DXDXDX. c y x x y y y x x x x x y y y x y y y y R R y y y t O v u y y y y y y y y y t t t t y y y y y y y y y u h o z y y y y y y y y y y y y y y y y y y y y y y y y u O C u y y y y y y y y y y y t t y y y y i y y y y i a . AXDXDXDXDXDXDXDXDXDXDXDXDXDXDXDXDXDXDXDXDXDXDXDXDXDX  DXDXDXDXDXDXDXDXDXDXDXDXDXDXDXDXDXDXDXDXDXDXDXDXDXDX  DXDXDXDXDXDXDXDXDXDXDXDXDXDXDXDXDXDXDXDXDXDXDXDXDXDX  DXDXDXDXDXDXDXDXDXDXDXDXDXDXDXDXDXDXDXDXDXDXDXDXDXDX. c y i i y y y y y y y y y y y y y y y y i i t y y u O v t y y y y y y y y y y y y y y y y y y y y y y u v O u y y y y y y y y y y y y y y y y y y y y y y y y u O a z y y y y y y y y y y y t t y y y y y y i i i u a o CXDXDXDXDXDXDXDXDXDXDXDXDXDXDXDXDXDXDXDXDXDXDXDXDXDX  DX",
"DXDXDX. s y y y y y y t y y y y y y y y y y y y y y y y y u O V u y y y y y y y y y y y y y t t y y y y y y y u h o z i i y y y y y y y y y y y y y y y y y y y y y y u O C u y y y y y y y y y y y y t t t y y y y y y y i d . CXDXDXDXDXDXDXDXDXDXDXDXDXDXDXDXDXDXDXDXDXDXDXDXDXDX  DXDXDXDXDXDXDXDXDXDXDXDXDXDXDXDXDXDXDXDXDXDXDXDXDXDX  DXDXDXDXDXDXDXDXDXDXDXDXDXDXDXDXDXDXDXDXDXDXDXDXDXDX  DXDXDXDXDXDXDXDXDXDXDXDXDXDXDXDXDXDXDXDXDXDXDXDXDXDX. c y i i y y y y y y y y y y y y y y y y i i t y y u O b u y y y y y y y y y y y y y y y y y y y y y y u v O u y y y y y y y y y y y y y y y y y y y y y y y y u O a z y y y y y y y y y y y y y y y y y y y i i y u a o CXDXDXDXDXDXDXDXDXDXDXDXDXDXDXDXDXDXDXDXDXDXDXDXDXDX  DX",
"DXDXDX. s y y y y y y y y y y y y y y y y y y y y y y y y u O V u y y y y y y y y y y y y y t t y y y y y y y u h o z i i y y y y y y y y y y y y y y y y y y y y y y u O C u y y y y y y y y y y y y t t t y y y y y y y i d . CXDXDXDXDXDXDXDXDXDXDXDXDXDXDXDXDXDXDXDXDXDXDXDXDXDX  DXDXDXDXDXDXDXDXDXDXDXDXDXDXDXDXDXDXDXDXDXDXDXDXDXDX  DXDXDXDXDXDXDXDXDXDXDXDXDXDXDXDXDXDXDXDXDXDXDXDXDXDX  DXDXDXDXDXDXDXDXDXDXDXDXDXDXDXDXDXDXDXDXDXDXDXDXDXDX. c y i i y y y y y y y y y y y y y y y y i i t y y u O b u y y y y y y y y y y y y y y y y y y y y y y u v O u y y y y y y y y y y y y y y y y y y y y y y y i u O a z y y y y y t t y y y y y y y y y y y y i i y u a o CXDXDXDXDXDXDXDXDXDXDXDXDXDXDXDXDXDXDXDXDXDXDXDXDXDX  DX",
"DXDXDX. s y y y y y y y y y y y y y y y y y y y y y y y y u O V u y y y y y y y t y y y y y y y y y y y y y y u h o z y i y y y y y y y y y y y y y y y y y y y y y y u O C u y y y y y y y y y y y y y t y y y i y y y y i a . CXDXDXDXDXDXDXDXDXDXDXDXDXDXDXDXDXDXDXDXDXDXDXDXDXDX  DXDXDXDXDXDXDXDXDXDXDXDXDXDXDXDXDXDXDXDXDXDXDXDXDXDX  DXDXDXDXDXDXDXDXDXDXDXDXDXDXDXDXDXDXDXDXDXDXDXDXDXDX  DXDXDXDXDXDXDXDXDXDXDXDXDXDXDXDXDXDXDXDXDXDXDXDXDXDX. c y i i y y y y y y y y y y y y y y y y i i t y y u O v t y y y y y y y y y y y y y y y y y y y y y y u v O u y y y y y y y y y y y y y y y y y y y y y y y i u O a z y y t y y y y t t y y y y y y y y y y i i y u a o CXDXDXDXDXDXDXDXDXDXDXDXDXDXDXDXDXDXDXDXDXDXDXDXDXDX  DX",
"DXDXDX. s y y y y y y y y y y y y y y y y y y y y y y y y u O V u y y y y y y y t y y y y y y y y y y y y y y u h O z y i y y y y y y y y y y y y y y y y y y y y y y u O C u y y y y y y y y y y y y y t y y y i t y y y i a o CXDXDXDXDXDXDXDXDXDXDXDXDXDXDXDXDXDXDXDXDXDXDXDXDXDX  DXDXDXDXDXDXDXDXDXDXDXDXDXDXDXDXDXDXDXDXDXDXDXDXDXDX  DXDXDXDXDXDXDXDXDXDXDXDXDXDXDXDXDXDXDXDXDXDXDXDXDXDX  DXDXDXDXDXDXDXDXDXDXDXDXDXDXDXDXDXDXDXDXDXDXDXDXDXDX. c y i i y y y y y y y y y y y y y y y y i i t y y u O v t y y y y y y y y y y y y y y y y y y y y y y u v O u y y y y y y y y y y y y y y y y y y y y y y y y u O a z y y y y y y y y y y y y y y y y y y y i i y u a o CXDXDXDXDXDXDXDXDXDXDXDXDXDXDXDXDXDXDXDXDXDXDXDXDXDX  DX",
"DXDXDX. s y y y y y y y y y y y y y y y y y y y y y y y y u O V u y y y y y y y t t y y y y y y y y y y y y y u h O u y i y y y y y y y y y y y y y y y y y y y y y y u O C u y y y y y y y y y y y y y y y y y i y y y y i a o CXDXDXDXDXDXDXDXDXDXDXDXDXDXDXDXDXDXDXDXDXDXDXDXDXDX  DXDXDXDXDXDXDXDXDXDXDXDXDXDXDXDXDXDXDXDXDXDXDXDXDXDX  DXDXDXDXDXDXDXDXDXDXDXDXDXDXDXDXDXDXDXDXDXDXDXDXDXDX  DXDXDXDXDXDXDXDXDXDXDXDXDXDXDXDXDXDXDXDXDXDXDXDXDXDX. c y i i y y y y y y y y y y y y y y y y i i t y y u O v u y y y y y y y y y y y y y y y y y y y y y y u v O u y y y y y y y y y y y y y y y y y y y y y y y y u O a z y y y y y y y y y y y y y y y y y y y i i y u a o CXDXDXDXDXDXDXDXDXDXDXDXDXDXDXDXDXDXDXDXDXDXDXDXDXDX  DX",
"DXDXDX. s y y y y y y y y y y y y y y y y y y y y y y y y t O V u y y y y y y y t t y y y y y t y y y y y y y u h O u y i y y y y y y y y y y y y y y y y y y y y y y u O C u y y y y y y y y y y y y y y y y y i y y y y u v . CXDXDXDXDXDXDXDXDXDXDXDXDXDXDXDXDXDXDXDXDXDXDXDXDXDX  DXDXDXDXDXDXDXDXDXDXDXDXDXDXDXDXDXDXDXDXDXDXDXDXDXDX  DXDXDXDXDXDXDXDXDXDXDXDXDXDXDXDXDXDXDXDXDXDXDXDXDXDX  DXDXDXDXDXDXDXDXDXDXDXDXDXDXDXDXDXDXDXDXDXDXDXDXDXDX. c y i i y y y y y y y y y y y y y y y y i i t y y u O v u y y y y y y y y y y y y y y y y y y y y y y u V O u y y y y y y y y y y y y y y y y y y y y y y y y u O a z y y y y y y y y y y y y y y y y y y y i t i u a o CXDXDXDXDXDXDXDXDXDXDXDXDXDXDXDXDXDXDXDXDXDXDXDXDXDX  DX",
"DXDXDX. s y y y y y y y y y y y y y y y y y y y y y y y y u O V u y y y y y y y t y y y y t t t y y y y y y y u M O u y i y y y y y y y y y y y y y y y y y y y y y y u O C u t y y y y y y y y y y y y y y y y i y y y y i v . CXDXDXDXDXDXDXDXDXDXDXDXDXDXDXDXDXDXDXDXDXDXDXDXDXDX  DXDXDXDXDXDXDXDXDXDXDXDXDXDXDXDXDXDXDXDXDXDXDXDXDXDX  DXDXDXDXDXDXDXDXDXDXDXDXDXDXDXDXDXDXDXDXDXDXDXDXDXDX  DXDXDXDXDXDXDXDXDXDXDXDXDXDXDXDXDXDXDXDXDXDXDXDXDXDX. c y i i y y y y y y y y y y y y y y y y i i t y y u O v u y y y y y y y y y y y y y y y y y y y y y y u M O u y y y y y y y y y y y y y y y y y y y y y y y i u O v z y y y y y t t y t y y y y y y y y y y i t i u v o CXDXDXDXDXDXDXDXDXDXDXDXDXDXDXDXDXDXDXDXDXDXDXDXDXDX  DX",
"DXDXDX. c y y y y y y y y y y y y y y y y y y y y y y y y u O V u y y y y y y y y y y y y y y y y y y y y y y u M O u y i y y y y y y y y y y y y y y y y y y y y y y u O V u t y y y y y y y y y y y y y y y y i t y y y i v . CXDXDXDXDXDXDXDXDXDXDXDXDXDXDXDXDXDXDXDXDXDXDXDXDXDX  DXDXDXDXDXDXDXDXDXDXDXDXDXDXDXDXDXDXDXDXDXDXDXDXDXDX  DXDXDXDXDXDXDXDXDXDXDXDXDXDXDXDXDXDXDXDXDXDXDXDXDXDX  DXDXDXDXDXDXDXDXDXDXDXDXDXDXDXDXDXDXDXDXDXDXDXDXDXDX. c y i i y y y y y y y y y y y y y y y y i i t y y u O v u y y y y y y y y y y y y y y y y y y y y y y u M O u y y y y y y y y y y y y y y y y y y y y y y y i u O v z y y y t t t t t t y y y y y y y y y y t t i u v o CXDXDXDXDXDXDXDXDXDXDXDXDXDXDXDXDXDXDXDXDXDXDXDXDXDX  DX",
"DXDXDX. c y y y y y y y y y y y y y y y y y y y y y y y y u O V u y y y y y y y y y y y y y y y y y y y y y y u M O u y i y y y y y y y y y y y y y y y y y y y y y y u O V u t y y y y y y y y y y y y y y y y i t y y y i v . CXDXDXDXDXDXDXDXDXDXDXDXDXDXDXDXDXDXDXDXDXDXDXDXDXDX  DXDXDXDXDXDXDXDXDXDXDXDXDXDXDXDXDXDXDXDXDXDXDXDXDXDX  DXDXDXDXDXDXDXDXDXDXDXDXDXDXDXDXDXDXDXDXDXDXDXDXDXDX  DXDXDXDXDXDXDXDXDXDXDXDXDXDXDXDXDXDXDXDXDXDXDXDXDXDX. c y i i y y y y y y y y y y y y y y y y i y t y y u O v u y y y y y y y y y y y y y y y y y y y y y y u h O u y y y y y y y y y y y y y y y y y y y y y y y y z O v z y y y y y y y y y y y y y y y y y y y i t i u h . CXDXDXDXDXDXDXDXDXDXDXDXDXDXDXDXDXDXDXDXDXDXDXDXDXDX  DX",
"DXDXDX. c y l t y y y y y y y y y y y y y y y y y y y y y u O V u y y y y y y y y y y y y y y y y y y y y y y u M O u y i y y y y y y y y y y y y y y y y y y y y y y z O V u y y y y y y y y y y y y y y y y y t t y y y u v . CXDXDXDXDXDXDXDXDXDXDXDXDXDXDXDXDXDXDXDXDXDXDXDXDXDX  DXDXDXDXDXDXDXDXDXDXDXDXDXDXDXDXDXDXDXDXDXDXDXDXDXDX  DXDXDXDXDXDXDXDXDXDXDXDXDXDXDXDXDXDXDXDXDXDXDXDXDXDX  DXDXDXDXDXDXDXDXDXDXDXDXDXDXDXDXDXDXDXDXDXDXDXDXDXDX. c y i i y y y y y y y y y y y y y y y y i i t y y u O v u y y y y y y y y y y y y y y y y y y y y y y z h O u y y y y y y y y y y y y y y y y y y y y y y y y z o v z y y y y y y y y y y y y y y y y y y y t t i z h . CXDXDXDXDXDXDXDXDXDXDXDXDXDXDXDXDXDXDXDXDXDXDXDXDXDX  DX",
"DXDXDX. c y y y y y y y y y y y y y y y y y y y y y y y y u O V u y y y y y y y y y y y y y y y y y y y y y y u M O u y i y y y y y y y y y y y y y y y y y y y y y y z O V z t y y y y y y y y y y y y y y y y t t t y y u v . CXDXDXDXDXDXDXDXDXDXDXDXDXDXDXDXDXDXDXDXDXDXDXDXDXDX  DXDXDXDXDXDXDXDXDXDXDXDXDXDXDXDXDXDXDXDXDXDXDXDXDXDX  DXDXDXDXDXDXDXDXDXDXDXDXDXDXDXDXDXDXDXDXDXDXDXDXDXDX  DXDXDXDXDXDXDXDXDXDXDXDXDXDXDXDXDXDXDXDXDXDXDXDXDXDX. c y i i y y y y y y y y y y y y y y y y y t t t y u O v u y y y y y y y y y y y y y y y y y y y y y y z h O u y y x y y y y y y y y y y y y y y y y y y y y t j o h l y y y y y y y y y y y y y y y y y y y t t i z h . CXDXDXDXDXDXDXDXDXDXDXDXDXDXDXDXDXDXDXDXDXDXDXDXDXDX  DX",
"DXDXDX. c y y y y y y y y y y y y y y y y y y y y y y y y u O V u y y y y y y y y y y y y y y y y y y y y y y u M O u y y y y y y y y y y y y y y y y y y y y y y y y z O V z t y y y y y y y y y y y y y y y y t t t y y u v . CXDXDXDXDXDXDXDXDXDXDXDXDXDXDXDXDXDXDXDXDXDXDXDXDXDX  DXDXDXDXDXDXDXDXDXDXDXDXDXDXDXDXDXDXDXDXDXDXDXDXDXDX  DXDXDXDXDXDXDXDXDXDXDXDXDXDXDXDXDXDXDXDXDXDXDXDXDXDX  DXDXDXDXDXDXDXDXDXDXDXDXDXDXDXDXDXDXDXDXDXDXDXDXDXDX. c y i i y y y y y y y y y y y y y y y y y t t t y u O v u y y y y y y y y y y y y y y y y y y y y y y z h O u y y x y y y y y y y y y y y y y y y y y y y y t j o h l y y y y y y y y y y y y y y y y y y y t t i j h . CXDXDXDXDXDXDXDXDXDXDXDXDXDXDXDXDXDXDXDXDXDXDXDXDXDX  DX",
"DXDXDX. c y y y y y y y y y y y y y y y y y y y y y y y y u O V u y y y y y y y y y y y y y y y y y y y y y y u d O u y y y y y y y y y y y y y y y y y y y y y y y y z O V z t y y y y y y y y y y y y y y y y t t t y y u v . CXDXDXDXDXDXDXDXDXDXDXDXDXDXDXDXDXDXDXDXDXDXDXDXDXDX  DXDXDXDXDXDXDXDXDXDXDXDXDXDXDXDXDXDXDXDXDXDXDXDXDXDX  DXDXDXDXDXDXDXDXDXDXDXDXDXDXDXDXDXDXDXDXDXDXDXDXDXDX  DXDXDXDXDXDXDXDXDXDXDXDXDXDXDXDXDXDXDXDXDXDXDXDXDXDX. c y i i y y y y y y y y y y y y y y y y y y t t y u O v u y y y y y y y y y y y y y y y y y y y y y y z M O u y y y y y y y y y y y y y y y y y y y y y y y t j o h l y y y y y y y y y y y y y y y y y y y t t i j h . CXDXDXDXDXDXDXDXDXDXDXDXDXDXDXDXDXDXDXDXDXDXDXDXDXDX  DX",
"DXDXDX. c y y t y y y y y y y y y y y y y y y y y y y y y u O V u y y y y y y y y y y y y y y y y y y y y y y u d O u y y y y y y y y y y y y y y y y y y y y y y y y z O V z t y y y y y y y y y y y y y y y y t t t y y u v . CXDXDXDXDXDXDXDXDXDXDXDXDXDXDXDXDXDXDXDXDXDXDXDXDXDX  DXDXDXDXDXDXDXDXDXDXDXDXDXDXDXDXDXDXDXDXDXDXDXDXDXDX  DXDXDXDXDXDXDXDXDXDXDXDXDXDXDXDXDXDXDXDXDXDXDXDXDXDX  DXDXDXDXDXDXDXDXDXDXDXDXDXDXDXDXDXDXDXDXDXDXDXDXDXDX. c y i i y y y y y y y y y y y y y y y y i i t y y u O v u y y y y y y y y y y y y y y y y y y y y y y z M O u y y y y y y y y y y y y y y y y y y y y y y y t j o h l y y y y y y y y y y y y y y y y y y y t t i j h . CXDXDXDXDXDXDXDXDXDXDXDXDXDXDXDXDXDXDXDXDXDXDXDXDXDX  DX",
"DXDXDX. c y y t y y y y y y y y y y y y y y y y y y y y y u O V u y y y y y y y y y y y y y y y y y y y y y y u d O u y y y y y y y y y y y y y y y y y y y y y t l y z O V z t y y y y y y y y y y y y y y y y t t t y y z v . CXDXDXDXDXDXDXDXDXDXDXDXDXDXDXDXDXDXDXDXDXDXDXDXDXDX  DXDXDXDXDXDXDXDXDXDXDXDXDXDXDXDXDXDXDXDXDXDXDXDXDXDX  DXDXDXDXDXDXDXDXDXDXDXDXDXDXDXDXDXDXDXDXDXDXDXDXDXDX  DXDXDXDXDXDXDXDXDXDXDXDXDXDXDXDXDXDXDXDXDXDXDXDXDXDX. c y i i y y y y y y y y y y y y y y y y i i t y y u O v u y y y y y y y y y y y y y y y y y y y y y y z h O u y y y y y y y y y y y y y y y y y y y y y y y t j o h l y y y y y y y y y y y y y y y y y y y t t i j h . CXDXDXDXDXDXDXDXDXDXDXDXDXDXDXDXDXDXDXDXDXDXDXDXDXDX  DX",
"DXAXDX. c y y y y y y y y y y y y y y y y y y y y y y y y u O V u y y y y y y y y y y y y y y y y y y y y y y u d O z i y y y y y y y y y y y y y y y y y y y y t l y t O v z t y y y y y y y y y y y y y y y y y y y y y z v . CXDXDXDXDXDXDXDXDXDXDXDXDXDXDXDXDXDXDXDXDXDXDXDXDXDX  DXDXDXDXDXDXDXDXDXDXDXDXDXDXDXDXDXDXDXDXDXDXDXDXDXDX  DXDXDXDXDXDXDXDXDXDXDXDXDXDXDXDXDXDXDXDXDXDXDXDXDXDX  DXDXDXDXDXDXDXDXDXDXDXDXDXDXDXDXDXDXDXDXDXDXDXDXDXDX. c y y y y y y y y y y y y y y y y y y y y y y t t z O b u y y y y y y y y y y y y y y y y y y y y y y u h O u x y y y y y y y y y y y y y y y y y y y y y y y z O b l y y y y y y y y y y y y y y y y y y y y t l j h o CXDXDXDXDXDXDXDXDXDXDXDXDXDXDXDXDXDXDXDXDXDXDXDXDXDX  DX",
"DXAXDXo s y y y t t t t t t t t t y y y y y y y y y y t t r - a l y y y y y t y y y y y y y y y y y y l l l l z d O n u y y R R y i i i y y y y y y y y y y y l j u y y - b z y y y y y y y y y y y y y i i i y y y y l l j v o AXDXDXDXDXDXDXDXDXDXDXDXDXDXDXDXDXDXDXDXDXDXDXDXDXDX  DXDXDXDXDXDXDXDXDXDXDXDXDXDXDXDXDXDXDXDXDXDXDXDXDXDX  DXDXDXDXDXDXDXDXDXDXDXDXDXDXDXDXDXDXDXDXDXDXDXDXDXDXX DXDXDXDXDXDXDXDXDXDXDXDXDXDXDXDXDXDXDXDXDXDXDXDXDXDXo n R x x y y y y y y y R y y y y y y y y R x x l l r - b u y y y y y y y y y y y y y y y y y y y y y y u v O c l x x O.R R R R R R R R R R R R R R R R x z z x x - b z t y i i i i i i i i i i i i i y R R R y y l z v o AXDXDXDXDXDXDXDXDXDXDXDXDXDXDXDXDXDXDXDXDXDXDXDXDXHX  HX",
"AXAXDX. a i u z j j j j j j j z z z z u u u u u i i t l j a O V c l l l l l l l l l l l l l l l l l l l l k j c d O b c u i i i u s s s s u u u u u u u u u u j b c u u O V c u u u u u u u u u u u u u u u u u i y l l j b M . AXDXDXDXDXDXDXDXDXDXDXDXDXDXDXDXDXDXDXDXDXDXDXDXDXDX  DXDXDXDXDXDXDXDXDXDXDXDXDXDXDXDXDXDXDXDXDXDXDXDXDXDX  DXDXDXDXDXDXDXDXDXDXDXDXDXDXDXDXDXDXDXDXDXDXDXDXDXDXX DXDXDXDXDXDXDXDXDXDXDXDXDXDXDXDXDXDXDXDXDXDXDXDXDXDX. r t t t t t t t t t u t t t t t t t t t y t t k k h o M r t t t t t t t t t t t t t t t t t t t t t r r M o h j k t t y t t t t t u u u t u u u u u t u b c t t O h j r r r r r r r r r r r r r r r u u y y y t r a h . AXDXDXDXDXDXDXDXDXDXDXDXDXDXDXDXDXDXDXDXDXDXDXDXDXAX  AX",
"DXAXAX  Z C V V V V V V V V V V V V V V C b b b b b b v V N o B Z V V V V V V V C C C C C C C C V V V V V V V Z B o Z Z C b b f C Z Z Z Z C C C C C C C C C C Z Z Z C C o B Z Z C C C C C C C C C C C C C C C C C b b v V N B . DXDXDXDXDXDXDXDXDXDXDXDXDXDXDXDXDXDXDXDXDXDXDXDXDXHXX DXDXDXDXDXDXDXDXDXDXDXDXDXDXDXDXDXDXDXDXDXDXDXDXDXAXX DXDXDXDXDXDXDXDXDXDXDXDXDXDXDXDXDXDXDXDXDXDXDXDXDXDXX DXDXDXDXDXDXDXDXDXDXDXDXDXDXDXDXDXDXDXDXDXDXDXDXDXDX  Z v V V V V V V V V V V V V V V V v b b b v b v M N . B N d a a v v v v V v a a v v v v a v v v v v V M B o N M v v b b C C V V V V V V V V V V V V V V N N v v o B N h V V V V V V V V V V V V V V V V a b b v V N B . DXDXDXDXDXDXDXDXDXDXDXDXDXDXDXDXDXDXDXDXDXDXDXDXDXDXX DX",
"+   X   . o . . . . . . o o o o o o o o o o o o o o o o .       . o o . o o o o o o o o o o o o o o o o o . . .     . . o o o o o o o o o o o o o o o o o o o o . . o o   . . . o o o o o o o o o o o o o o o o o o o o . .                                                     X                                                             X                                                                                                   X X   . o . . . o o o o o o o o o o o o o o o o o o . .       . . . . . . . . . . . . . . . . . . . . . . .         . . o o o o o o o o o o o o o o o o o o . . . o o     . . . . . . . . . . . . . . . . . o o o o . . .                                                     X       ",
"DXDXAX  DXAXDXDXAXAXCXCXCXCXCXCXCXCXCXCXCXCXCXCXCXCXCXCXCXAX  AXAXAXAXAXAXAXAXAXAXDXAXAXAXAXAXAXAXAXAXAXAXAXAXAXDX  AXAXCXCXCXCXCXAXAXAXAXAXAXAXCXCXCXCXCXCXCXAXDXDXAXAX  AXAXAXCXCXCXCXAXAXAXAXAXAXAXAXDXAXAXAXCXAXAXDXDXDXDX  DXDXDXDXDXDXDXDXDXDXDXDXDXDXDXDXDXDXDXDXDXDXDXDXDXDX  DXDXDXDXDXDXDXDXDXDXDXDXDXDXDXDXDXDXDXDXDXDXDXDXDXDX  DXDXDXDXDXDXDXDXDXDXDXDXDXDXDXDXDXDXDXDXDXDXDXDXDXDX  DXDXDXDXDXDXDXDXDXDXDXDXDXDXDXDXDXDXDXDXDXDXDXDXDXDX  AXAXAXDXAXAXAXAXAXAXAXAXAXAXAXAXAXAXCXCXCXCXCXCXDXAX  AXAXAXAXAXAXAXAXAXAXAXAXAXAXAXAXAXAXAXAXAXAXAXAXAXAX  AXAXCXCXCXCXCXCXCXAXAXAXAXAXAXAXAXAXAXAXAXAXAXCXCXCX  CXCXCXCXAXAXAXAXAXAXAXAXAXAXAXAXAXCXCXCXCXAXAXDXDXDX  DXDXDXDXDXDXDXDXDXDXDXDXDXDXDXDXDXDXDXDXDXDXDXDXDXDX  DX",
"DXDXDX  DXDXDXDXDXDXDXDXDXDXDXDXDXDXDXDXDXDXDXAXCXCXAXDXAXDX  DXDXDXDXDXDXDXDXDXDXDXDXDXDXDXDXDXDXDXDXDXDXAXAXAXAX  AXAXDXDXDXAXDXDXDXDXDXDXDXDXDXAXAXAXAXAXDXDXDXDXDXDX  AXDXDXDXAXAXAXDXDXDXDXDXDXDXDXDXDXDXDXDXDXDXDXDXAXDX  DXDXDXDXDXDXDXDXDXDXDXDXDXDXDXDXDXDXDXDXDXDXDXDXDXDX  DXDXDXDXDXDXDXDXDXDXDXDXDXDXDXDXDXDXDXDXDXDXDXDXDXDX  DXDXDXDXDXDXDXDXDXDXDXDXDXDXDXDXDXDXDXDXDXDXDXDXDXDX  DXDXDXDXDXDXDXDXDXDXDXDXDXDXDXDXDXDXDXDXDXDXDXDXAXDX  DXDXAXAXDXDXDXDXDXDXDXDXDXDXDXDXDXDXDXDXAXAXDXDXDXAX  AXDXDXDXDXDXDXDXDXDXDXDXDXDXDXDXDXDXDXDXDXDXDXDXDXAX  DXAXDXDXAXAXDXDXDXDXDXDXDXDXDXDXDXDXDXDXDXDXDXDXAXAX  AXDXDXDXDXDXDXDXDXDXDXDXDXDXDXDXDXDXDXDXDXDXDXDXDXDX  DXDXDXDXDXDXDXDXDXDXDXDXDXDXDXDXDXDXDXDXDXDXDXDXDXDX  DX",
"DXDXDX  DXDXDXDXDXDXDXDXDXDXDXDXDXDXDXDXDXDXDXDXAXAXDXDXDXDX  CXAXDXDXDXDXDXDXDXDXDXDXDXDXDXDXDXDXDXDXDXAXAXDXDXAX  AXAXDXDXDXDXDXDXDXDXDXDXDXAXAXAXAXAXAXAXAXAXDXDXDXDX  AXDXDXDXAXAXAXAXAXDXDXDXDXDXDXDXDXDXDXAXDXDXDXDXAXAX  DXDXDXDXDXDXDXDXDXDXDXDXDXDXDXDXDXDXDXDXDXDXDXDXDXDX  DXDXDXDXDXDXDXDXDXDXDXDXDXDXDXDXDXDXDXDXDXDXDXDXDXDX  DXDXDXDXDXDXDXDXDXDXDXDXDXDXDXDXDXDXDXDXDXDXDXDXDXDX  DXDXDXDXDXDXDXDXDXDXDXDXDXDXDXDXDXDXDXDXDXDXDXDXAXDX  DXDXDXDXDXDXDXDXDXDXDXDXDXDXDXDXDXDXDXDXCXCXDXDXDXAX  CXDXDXDXDXDXDXDXDXDXDXDXDXDXDXDXDXDXDXDXDXDXDXDXDXCX  DXDXDXDXCXCXDXDXDXDXDXDXDXDXDXDXDXDXDXDXDXDXAXAXAXAX  CXCXAXDXDXDXDXDXDXDXDXDXDXDXDXDXDXDXDXAXDXDXDXDXDXAX  AXDXDXDXDXDXDXDXDXDXDXDXDXDXDXDXDXDXDXDXDXDXDXDXDXDX  DX",
"DXDXDX  DXDXDXDXDXDXDXDXDXDXDXDXDXDXDXDXDXDXDXDXAXAXDXDXDXDX  CXAXDXDXDXDXDXDXDXDXDXDXDXDXDXDXDXDXDXDXDXAXAXDXDXAX  AXAXAXAXAXDXDXDXDXDXDXDXAXAXAXAXCXCXCXCXAXAXDXDXDXDX  AXDXDXDXAXAXCXAXAXAXAXAXAXAXDXDXDXDXDXAXDXDXDXDXAXAX  DXDXDXDXDXDXDXDXDXDXDXDXDXDXDXDXDXDXDXDXDXDXDXDXDXDX  DXDXDXDXDXDXDXDXDXDXDXDXDXDXDXDXDXDXDXDXDXDXDXDXDXDX  DXDXDXDXDXDXDXDXDXDXDXDXDXDXDXDXDXDXDXDXDXDXDXDXDXDX  DXDXDXDXDXDXDXDXDXDXDXDXDXDXDXDXDXDXDXDXDXDXDXAXAXDX  DXDXDXDXDXDXDXDXDXDXDXDXDXDXDXDXDXDXDXDXCXCXDXDXDXHX  CXAXDXDXDXDXDXDXDXDXDXDXDXDXDXDXDXDXDXDXDXDXDXDXAXCX  DXDXDXDXCXCXDXDXDXDXDXDXDXDXDXDXDXDXDXDXDXDXAXAXAXAX  CXCXAXDXDXDXDXDXDXDXDXDXDXDXDXDXDXDXDXAXDXDXAXDXDXAX  AXAXAXAXDXDXDXDXDXDXDXDXDXDXDXDXDXDXDXDXDXDXDXDXDXDX  DX"
};
