/* XPM */
static char *cb0077f572504f5ca4a0fd9cfd737864vmc6QmCwgru1m4Kq[] = {
/* columns rows colors chars-per-pixel */
"100 100 9 1 ",
"  c None",
". c black",
"X c #464646",
"o c #990030",
"O c #FF7E00",
"+ c #22B14C",
"@ c #FFC20E",
"# c #2F3699",
"$ c white",
/* pixels */
"                                       ..                                                           ",
"                                       .+.                                                          ",
"                                      .O++..                                                        ",
"                                      .O@@#..                                                       ",
"                                      .O@###..                                                      ",
"                                      .O@#####...                                                   ",
"                                     @.O@#######....   O                                            ",
"                               ..    @.O@#######@+++....                                            ",
"                              . .......@O#######@+++@  ....                                         ",
"                             ..@ooooo@O@O###O####@+++@ O@ .O                                        ",
"                             .o@@oooo@@oO###OO##@@OO++O @@+.O                                       ",
"                            ..o@+@ooo@OoO##OO O#@O OO+O@@@+..                                       ",
"                           ..oo@@@oo@@ooOO#OO O#@O OOO+@@@+O..                                      ",
"                           .ooo@@+@O@@ooOO#OO  OO@@O O+@@@+O+.                                      ",
"                         ..Oooo@@++@O@ooOO#OOOOO@ @O O+@o@+O+..                                     ",
"                        ..+OOoo@@++@O@ooOOOOO+++o @OOO+@o@+O++.                                     ",
"                       ..++OOoo@oooO@@ooOOOO@+++o @O O+@oo@O++.                                     ",
"                       .@+OO@Oo@oooO@@ooOOOO+o++@OOO@O@oooO@++..                                    ",
"                      .+O+OO@o@ooooO @oOOOOO+o++@OOO O@oo@O@@++.                                    ",
"                      .+O+OO@o@ooooooOO OO+O+o++@OOO.O@O@ O @++.                                    ",
"                      .+O@OO@o@OooooO @  O@O++@+@OOO. O@OO@ @++.                                    ",
"                      .+O@OO@ooOooOO @O@ OO O+@.O+OO@@O++O @+@+O.                                   ",
"                      .+OOO@oooO@O@O@@O@ OO@O+@O@+OO@@O++OO@+@+@..                                  ",
"                       .O O@ooooOO@O@@.O.OO@ O.O@+OO@@O+O++O+@+@O.                                  ",
"                       .OOO@ooooO@.O@.@O@O@@ OO@@+++@.O+O+.O@+@@@.                                  ",
"                       .OOO@ooo.@O Ooo@O@Ooo@ O @++@ .+O..++O+@@@..                                 ",
"                       .OOO@oo..@@OOXX.@OOXX@ooo@oo@ .+.++++@O+@@O.                                 ",
"                       .@O@@@@..@+O.X. .O...#@++@+@#o..+++++@O+@@ ..                                ",
"                       .@O+@..@.++O ...+O#####@+++@###oooo++@+O@ @O.                                ",
"                       ..O+@..@.+++....+@#####@++@########o++++OO@O.                                ",
"                       ..OO@.o @@+++..++@######@+@#########oo+++++O.                                ",
"                       ...+OO. .#@@@@@@@########@############oo+++O..                               ",
"                         .+O+o..######################X########oooO .                               ",
"                         .@O+o..#################################oo .                               ",
"                         .@++o######X...################....#####@oo .                              ",
"                         .@++o######X.$.################.$$.#######oo.                              ",
"                         .++o########.$.######X#########.$XX########o..                             ",
"                          .+o########.XX################.XXX########oo.                             ",
"                          .+o########.X##################XXX#########o.                             ",
"                          .+o##X#####################################o..                            ",
"                           .o##################X#####################o .                            ",
"                            .o##################X#####################o.                            ",
"                            .o####X#############@#####################o.                            ",
"                            .o####X#############@#####################o#.                           ",
"                            .o##################@###########X##O######o#.                           ",
"                            ..##################@##############O#@####o#.                           ",
"                            ..###############...........######O##X####o#.                           ",
"                            .o#########X####..##@#############O##@####o#.                           ",
"                            .o###O#@###@#######@@#############O#@#####o##.                          ",
"                            .o###O#@###@#######@@#######X###OO##@#####o##.                          ",
"                            .o####O@##O @@#####@@#########@#OO##@#####.##.   O                      ",
"                            .o####O @#O @@#####@@X########@O O##@#####.###.  O                      ",
"                          ...@#####O@##O@@O####@@########@O OO@#@####..###.  O                      ",
"                       ...ooo@#O###O@##O@ O####@@########O  OO@#@####.####..O                       ",
"                       .O@oooo@O@##O@OOO@@O####@@#####@#O@ O O##@#OO..#####.O                       ",
"                       .oO@ooo@ O###O O O@O####@@#####@O@ O@O@OOOO#########.                        ",
"                       .oO @oo@ O###O@oOO O###@o@@####@O@ OOOOo@##########O.                        ",
"                       .ooOo@oo@O###O@oOO O###@oo@####O @OOO @o@#########Oo.                        ",
"                       .ooOo@oo@@O##O@ooOO@@##@o@###OO@OO@Oo@oo@#########Oo.                        ",
"                       ..oOoo@oo@O##O@ooOO@@##@o@##OOOOOOOoo@@o@#@######Ooo.                        ",
"                        .oooo@oo@O##O@oo@O @##@o@#OoooOO@ooo@@o@#@######Ooo.                        ",
"                         .oooo@o@@###O@oOOO@@#@@ OoooOO@ooo@@#@ O@#####Oooo.     @@@                ",
"                          ..OOo@@O@##O@oOoO@@#@@OoooOO@@ooo@##O O#####Ooooo.    @                   ",
"                           .OOo@@@O@@O@O@oO@@#@@oooOO @@Oo@###O@O#####Ooooo   @@                    ",
"                            .Ooo@@Ooo@@O@oOO @@OooOO @@O @####O O####Oooooo@@@                      ",
"                            ..Ooo@OOoO@ @ooOO@@ @OO @ @O@@###Oo O####Oo@@@o                         ",
"                             .Ooo@@OoOO@@ooOOO@OOO @XOO@@###o o O###O@@oooo                         ",
"                             ..Ooo@OOOO@@ooO @OOO@@XXOO####@o o O#@@@ooo                            ",
"                              .OOo@@  O@@@O O@O @@ @O@O###@O  o @@ Ooo                              ",
"                              ..Ooo@O@O@@ @ O@@O  @O@O@#@@O  oooO O o                               ",
"                               ..Oo@@ O@@ O@@@O OOO @O@@  O@@#oO O..                                ",
"                                .OO @Ooo@ @@@@OOO   O @  @@###oOO..                                 ",
"                                 .OOO@ooo@   @@@ O  O @@@#####OO.                                   ",
"                                  . OO@ooo@@@@@o@O O @@O @###O@.                                    ",
"                                  O.OO@oooooO@ooo@@O@@@O@####O..                                    ",
"                                   ..O@@oOoO @ooooO@@@@@@###O .                                     ",
"                                    . O@@OO  @ooooO@O O####O ..                                     ",
"                                    .O O@  O @oooO###O#####O..                                      ",
"                                    . OOO@@ O@ooO###O#####O..                                       ",
"                                    ..O###@  @ooO###O####O .                                        ",
"                                     .OO###@@OoO###O#####O .                                        ",
"                                     .. O###OOO###O#####O .                                         ",
"                                       ..O####O##O######O .                                         ",
"                                        ..O###O#OO#####O .                                          ",
"                                         ..O###########..                                           ",
"                                          . OO########..                                            ",
"                                           .. O#######.                                             ",
"                                             ....####.                                              ",
"                                                .####.                                              ",
"                                                 ....                                               ",
"                                                  O                                                 ",
"                                                 O                                                  ",
"                                                                                                    ",
"                                                                                                    ",
"                                                                                                    ",
"                                                                                                    ",
"                                                                                                    ",
"                                                                                                    ",
"                                                                                                    ",
"                                                                                                    "
};
