/* XPM */
static char *_e4b009bbffc4346ed7962c365bd5795mC4QuDSpZzBrjAD2[] = {
/* columns rows colors chars-per-pixel */
"100 100 10 1 ",
"  c None",
". c black",
"X c #464646",
"o c #990030",
"O c #FF7E00",
"+ c #22B14C",
"@ c #FFC20E",
"# c #00B7EF",
"$ c #D3F9BC",
"% c white",
/* pixels */
"                                                                                                    ",
"                                                                                                    ",
"                                                                                                    ",
"                                                                                                    ",
"                                                                                                    ",
"                                                                                                    ",
"                                                                                                    ",
"                                                                                                    ",
"                                                                                                    ",
"                           OOOOO@@@@@@OOO$$+                                                        ",
"                                                              OOOOO@@@@@@OOO$$+                     ",
"                            OOOOO@@@@@@OOO$$+                                                       ",
"                                                                                                    ",
"                                                                       +                            ",
"                   ++++                                               ++                            ",
"                   +$$+                                               +$+                           ",
"                  +$$$$+                                              +$$+                          ",
"                  +$$$$$+                                            +$$$+                          ",
"                  +$$$$$$++                                          +$$$+                          ",
"                 +$$$$$$$$$+                                         +$$$$+                         ",
"                 +$$$$$$$$$+                                         +$$$$+                         ",
"                 +$$$$$$$$$$+              +++++++++                +$$$$$+                         ",
"                +$$$$$$$$$$$+           +++OOOOOOOOO++++            +$$$$$+                         ",
"                +$$$$$$$$$$$$+         + OOOOOOOOOOO@@@@@++         +$$$$$+                         ",
"                +$$$$...$$$$$+         +OOOOOOOOOOO@@@@O@OO++       +$$$$$+                         ",
"                +$$$$..$.$$$$+        +OOOOOOOOOOO@@@@@@OOO$$+     +$$$$$$$+                        ",
"                +$$$$....$$$$$+      +OOOOOOOOOOO@@@@@@@@@@@O+     +$$$$$...                        ",
"                +$$$$....$$$$$+     ++OOOOOOOOOOO@@@@@@@@@@$$O+    +$$$$$...                        ",
"                +$$$$$....$$$$$+    +OOOOOOOOOOOO@@@@@@@@@$$$OO+   +$$$$$...+                       ",
"                +$$$$$....$$$$$+    +OOOOOOOOOOO@@@@@@@$$$$$$OO+   +$$$$$...+                       ",
"                +$$$$$$......$$$+   +OOOOOOOOOOO@@@@@$$$$$$$$OO+   +$$$$.$..+                       ",
"                +$$$$$$...$$$$$$+   +OOOOOOOOO@@@@@$$$$$$$$$$OO+   +$$$$.$.$$+                      ",
"                +$$$$$$$..$$$$$$$+ +OOOOOOOOOO$@@@$$$$$$$$$$OOOO+ +$$$$$...$$+                      ",
"                +$$$$$$$..$$$$$$$+ +OOOOOOOOOO$$$$$$$$$$$$$$OOOO+ +$$$$$...$$+                      ",
"                +$$$$$$$..$$$$$$$+ +OOOOOOOOOO$$$$$$$$$$$$$$OOOOO++$$$$$$.$$$$+                     ",
"                +$$$$$$$$.$$$$$$$+ +OOOOOOOOO$$$$$$$$$$$$$$$OOOOO++$$$$$$.$$$$+                     ",
"                +$$$$$$$$.$$$$$$$+ +OOOOOOOO$$$$$$$$$$$$$$$$OOOOO++$$$$$$$$$$$$+                    ",
"                +$$$$$$$$$$$$$$$$$++OOOOOO$$$$$$$$$$$$$$$$$$OOOOO+$$$$$$$$$$$$$+                    ",
"                 +$$$$$$$$$$$$$$$$+OOOOOO$$$$$$$$$$$$$$$$$$$OOOOO+$$$$$$$$$$$$$+                    ",
"                 +$$$$$$$$$$$$$$$$+OOOO$$$$$$$$$$$$$$$$$$$$$OOOOOOOO$$$$$$$$$$$$+                   ",
"                 +$$$$$$$$$$$$$$$$$OO$$$$$$$$$$$$$$$$$$$$$$$$$$$$$$$$$$$$$$$$$$$+                   ",
"                 +$$$$$$$$$$$$$$$$$$$$$$$$$$$$$$$$$$$$$$$$$$$$$$$$$$$$$$$$$$$$$$$+                  ",
"                  +$$$$$$$$$$$$$$$$$$$$$$$$$$$$$$$$$$$$$$$$$$$$$$$$$$$$$$$$$$$$$$+                  ",
"                  ++$$$$$$$$$$$$$$$$$$$$$$$$$$$$$$$$$$$$$$$$$$$$$$$$$$$$$$$$$$$$$+                  ",
"                   ++$$$$$$$$$$$$$$$$$$$$$$$$$$$$$$$$$$$$$$$$$$$$$$$$$$$$$$$$$$$$$+                 ",
"                    ++$$$$$$$$$$$$$$$oooo$$$$$$$$$$$$$$$$$$$$$$$$ooooo$$$$$$$$$$$$+                 ",
"                     +$$$$$$$$$$$$$$$o%%%o#ooo$$$$$$$$$$$$$$$$$$oo##%o$$$$$$$$$$$$+                 ",
"                     +$$$$$$$$$$$$$$oo%%%%###oo$$$$$$$$$$$$$$$$oo%##%o$$$$$$$$$$$$$+                ",
"                     +$$$$$$$$$$$$$$o%%%%%###%oo$$$$$$$$$$$$$$$o%%##%o$$$$$$$$$$$$$+                ",
"                      +$$$$$$$$$$$$$o%%%%%###%%o$$$$$$$$$$$$$$$o%%##%%o$$$$$$$$$$$$$+               ",
"                      +$$$$$$$$$$$$$o%%%%%###%%o$$$$$$$$$$$$$$$$o%##%oo$$$$$$$$$$$$$+               ",
"                       +$$$$$$$$$$$$$oo%%%###%%o$$$$$$$$$$$$$$$$$oX#oo$$$$$$$$$$$$$$$+              ",
"                       +$$$$$$$$$$$$$$o%%%###%%o$$$$$$$$$$$$$$$$$$ooo$$$$$$..$$$$$$$$+              ",
"                        +$$$$$$$$$$$$$$oo%%# oo$$$$$$$$$$$$$$$$$$$$$$$$$$$.$$$$$$$$$$$+             ",
"                        +$$$$$$$$$$$$$$$$oooo$$$$$$$$$$$$$$$$$$$$$$$$$$$..$$$$$$$$$$++ +            ",
"                        +$$$$$$$$$$$$$$$$$$$$$$$$$$$$$$$$$$$$$$$$$$$$$$.$$$$$$$$.$$$+  +            ",
"                        +$$$$$$$$$$$$$$$$$$$$$$$$$$$$$$$$$$$$$$$$$$$$$..$$$$$...$$$$+  +            ",
"                         +$$$$$$$$$$$$$$$$$$$$$$$$$$$$$$$$$$$$$$$$$$$$$......$$$$$$$+  +            ",
"                         +$$$$$$$$........$$$$$$$$$..$$$$$$$$$$$$$$$$$$$$$$$$$$$$$$$+               ",
"                          +$$$$$$$$$$$$$$$....$$$$..$...$$....$$$$$$$$$$$$$$$$$$$$$$+               ",
"                          +$$$$$$$$$$$$$$$$$$$$$$$.$$$$....$$..$$$$$$$$$..$$$$$$$$$++               ",
"                           +$$$$$$$$$$$$$$$$..$$$$.$$$$$..$$$$.$$$$$$$$$$$...........               ",
"                            +$$$$$$$$.......$$$$$$$$$$$$$$$$$$$$$$$$$$$$$$$$$$$$$$+                 ",
"                             +$$$$$$$$$$$$$$$$$$$$$$$$$$$$$$$$$$$$$$$$$$$$$$$$$$$$+                 ",
"                             +$$$$$$$$$$$$$$$$$$$$$$$$$$$$$$$$$$$$$$$$$$$$$$$$$$$+                  ",
"                              +$$$$$$$$$$$$$$..$$$$$$$$$$$$$$$$$$$$$$$$$$$$$$$$$$+                  ",
"                               ++$$$$$$$$....$$$$$$$$$$$$$$$$$$$$$$$$$$$$$$$$$$$+                   ",
"                                 ++$$....$$$$$$$$$$$$$$$$$$$$$$$$$$$$$$$$$$$$$$$+                   ",
"                                   ++++$$$$$$$$$$$$$$$$$$$$$$$$$$$$$$$$$$$$$$$++                    ",
"                                       ++++$$$$$$$$$$$$$$$$$$$$$$$$$$$$$++++++                      ",
"                                           ++$$$$$$$$$$$$$$$$$$$$$$+++++                            ",
"                                             ++++++++++++++++++++++                                 ",
"                                                                                                    ",
"                                                                                                    ",
"                                                                                                    ",
"                                                                                                    ",
"                                                                                                    ",
"                                                                                                    ",
"                                                                                                    ",
"                                                                                                    ",
"                                                                                                    ",
"                                                                                                    ",
"                                                                                                    ",
"                                                                                                    ",
"                                                                                                    ",
"                                                                                                    ",
"                                                                                                    ",
"                                                                                                    ",
"                                                                                                    ",
"                                                                                                    ",
"                                                                                                    ",
"                                                                                                    ",
"                                                                                                    ",
"                                                                                                    ",
"                                                                                                    ",
"                                                                                                    ",
"                                                                                                    ",
"                                                                                                    ",
"                                                                                                    ",
"                                                                                                    "
};
