/* XPM */
static char *_5dd5f9d6bec4112f8f7b308525a6eb8Dhia3gV7w6LayyOQ[] = {
/* columns rows colors chars-per-pixel */
"100 100 15 1 ",
"  c None",
". c #040404",
"X c gray2",
"o c gray11",
"O c #3A2318",
"+ c gray24",
"@ c #464646",
"# c #990030",
"$ c #9C5A3C",
"% c #EB501C",
"& c #FF7E00",
"* c #EB801C",
"= c #FFC20E",
"- c #9D9D9D",
"; c #B4B4B4",
/* pixels */
"                                                                                                    ",
"                                                                                                    ",
"                                                                                       X            ",
"                             X                                    X                  X              ",
"                           X                                    X                   X  X X          ",
"                          X  X X                               X  X X                 XXX X         ",
"                            XXX X                      =         XXX X       &       XXXXXX         ",
"                           XXXXXX                               XXXXXX       &&       XXX           ",
"                            XXX          =   &                   XXX         &&    X   X            ",
"                         X   X             = &      X         X   X         &&       XXX            ",
"                           XXX               &    X      * =    XXX      && & %          XX         ",
"                               XX       &&=  %   X  X X  *=      &  XX    =                         ",
"                                        &&   %     XXX X  = %    &       =&&        =               ",
"                                      & &     *   XXXXXX  =              =%   &&    =               ",
"                               ==    & %%     &    XXX    =  %     &=   =%%  & &                    ",
"                              &%   =&&&%&   * & X   X     =        &=  = &=&=&&&                    ",
"                          % & %   & &    &  *     XXX           *  &=  =%&*&=&          ==          ",
"                      X    %&&% && &&       *&&       XX     *  *   =&==%&*&=& &%        ==         ",
"                    X       &&  * && % $$$$$*&$$$$$$$$$$$$$$$*$$*$$$=$=%   &=  &    X               ",
"               =   X  X X = &&= *&& $%$@@@@@*&@@@@@@@@@@@@@@@@@@*@@@=@=$$   =  &  X           =     ",
"               =    =XXX X =&&  *$&$%%@@@@=@*@@@@@@@@@@@@@=@@*@@*@@@=&=@@*$ = && X  X X        =    ",
"               =    XXXXXX =&%%$*$@@=@@@@@=@@@=;@@@@@@@@@==@@*@@*@@@=@&&**@$=$&%   XXX X            ",
"                =    XXX   =&%$@@@@@@@@@@@@@@@;;@@@@@@@@;;;;@@@@*@@@@%%&*&@@&@&&  XXXXXX     &      ",
"                = X   X  =$=&%@@@@@@@@@@@=;;;@@@@@@@@@@@@@@@@@@@@@@@@@@&*&&@&@@$&  XXX       &      ",
"              X  =  XXX  $@=@%@@@*@%@;@@@=@@@@@@@@@@@@@@@@@@@@@@@@;@@@@@*@&@@@&@&   X        &      ",
"            X          $Oo@@=@@@@*%@@@@@==@*@@@@########@@@@@@@@@@@@@@@@*@@@@@&@&$XXX       && =    ",
"           X  X X    $$@@@@@=@%@@@@@@@@@=@@@####XXXXXXXX#####@@@@@@@@@@@*@&@%@&@@@$   XX    &&=     ",
"             XXX X  =@@@@@@@@@%@@*@@=@@@@@##XXXXXXXXXXXXXXXXX###@@@@@@@@*;&@@@@@@@$         &=      ",
"            XXXXXX $==@@@@=@@@@@@*;@=@@@##XXXXXXXXXXXXXXXXXXXXXX##@@@@@@*@@&&@@&@@@$   &&   =       ",
"             XXX  $@@=@@@@@=@@=@@*@=@@@#XXXXXXXXXXXXXXXXXXXXXXXXXX#@@@@@@@@@&@&@@@@@$&&  &==        ",
"          X   X   $@@@==@@@=@@@@@*@@@##XXXXXXXXXXXXXXXXXXXXXXXXXXXX#@@@@@@@@@@@@@@@@@$ &&           ",
"            XXX  $@@@@@=@@@=@@@@@@@##XXXXXXXXXXXXXXXXXXXXXXXXXXXXXX#@@@@@@@@@@@@@@@@@@&==   X       ",
"                XO@@@@@@@@@;@@@@@@#XXXXXXXXXXXXXXXXXXXXXXXXXXXXXXXXX#@@@@@@@@@@@@@@@@&==  X         ",
"                 $@@@@@=@@@@@@@@@;;XXXXXXXXXXXXXXXXXXXXXXXXXXXXXXXXXX##@@@@@@@;@@@@@&&=$ X  X X     ",
"                $@@@@@@@@@@@@=@;;XXXXXXXXXXXXXXXXXXXXXXXXXXXXXXXXXXXXXX#@@@@@@@;@@@@&=@$   XXX X    ",
"                $@@@@@@@@@@@@=;#XXXXXXXXXXXXXXXXXXXXXXXXXXXXXXXXXXXXXXX#@@@@@@@@@@@@@@@$  XXXXXX    ",
"                $@@@@@@@@@@@;;#XXXXXXXXXXXXXXXXXXXXXXXXXXXXXXXXXXXXXXXXX#@@@@@@@@@@@@@@$   XXX      ",
"               $@@@@@@@@@@@;;@#XXXXXXXXXXXXXXXXXXXXXXXXXXXXXXXXXXXXXXXXXX#@@@@@@@@@&@@@@O   X       ",
"               $@@@@@@@@;@;@@#XXXXXXXXXXXXXXXXXXXXXXXXXXXXXXXXXXXXXXXXXXXX#@@@@@@@@&@@@@@$XXX       ",
"               $@@@@@@@@;;@@#XXXXXXXXXXXXXXXXXXXXXXXXXXXXXXXXXXXXXXXXXXXXXX#@@@@@@@@@@@@@$    XX    ",
"               $@@@@@@@@;@@#XXXXXXXXXXXXXXXXXXXXXXXXXXXXXXXXXXXXXXXXXXXXXXX#@@@@@@@@@@;@@$          ",
"              $@@@@@@@@;@@#XXXXXXXXXXXXXXXXXXXXXXXXXXXXXXXXXXXXXXXXXXXXXXXXX#@@@@@@@@@;@@$          ",
"              $@@@@@@;;@@#XXXXXXXXXXXXXXXXXXXXXXXXXXXXXXXXXXXXXXXXXXXXXXXXXXX#@@@@@@@@;@@@$         ",
"              $@@@@@@;@+@#XXXXXXXXXXXXXXXXXXXXXXXXXXXXXXXXXXXXXXXXXXXXXXXXXXX#@@@@@@@@@@@@$         ",
"             $@@@@@@@-@##XXXXXXXXXXXXXXXXXXXXXXXXXXXXXXXXXXXXXXXXXXXXXXXXXXXXX#@@@@@@@@@@@$         ",
"             $@@@@@@--#XXXXXXXXXXXXXXXXXXXXXXXXXXXXXXXXXXXXXXXXXXXXXXXXXXXXXXX#@@@@@@@@;@@@$        ",
"            $@@@@@@@;o#XXXXXXXXXXXXXXXXXXXXXXXXXXXXXXXXXXXXXXXXXXXXXXXXXXXXXXXX#@@@@@@;@@@@$        ",
"            $@@@@@@;o#XXXXXXXXXXXXXXXXXXXXXXXXXXXXXXXXXXXXXXXXXXXXXXXXXXXXXXXXX#@@@@@@;@@@@$        ",
"           $@@@@@@@;#XXXXXXXXXXXXXXXXXXXXXXXXXXXXXXXXXXXXXXXXXXXXXXXXXXXXXXXXXXX#@@@@@;@@@@$        ",
"           $@@@@@@;; XXXXXXXXXXXXXXXXXXXXXXXXXXXXXXXXXXXXXXXXXXXXXXXXXXXXXXXXXXX#@@@@@;@@@@@$       ",
"           $@@@@@@;  ;XXXXXXXXXXXXXXXXXXXXXXXXXXXXXXXXXXXXXXXXXXXXXXXXXXXXXXXXXX#@@@@@;@@@@@$       ",
"           $@@@@@@;X;XXXXXXXXXXXXXXXXXXXXXXXXXXXXXXXXXXXXXXXXXXXXXXXXXXXXXXXXXXXX#@@@@;@@@@@$       ",
"          $@@@@@@#;;;XXXXXXXXXXXXXXXXXXXXXXXXXXXXXXXXXXXXXXXXXXXXXXXXXXXXXXXXXXXX#@@@@@@@@@@$       ",
"          $@@@@@@#;;XXXXXXXXXXXXXXXXXXXXXXXXXXXXXXXXXXXXXXXXXXXXXXXXXXXXXXXXXXXXXX#@@@@@@@@@$       ",
"         $@;@@@@#;;;XXXXXXXXXXXXXXXXXXXXXXXXXXXXXXXXXXXXXXXXXXXXXXXXXXXXXXXXXXXXXX#@@@;@@@@@$       ",
"        $@@@@@@# ;;XXXXXXXXXXXXXXXXXXXXXXXXXXXXXXXXXXXXXXXXXXXXXXXXXXXXXXXXXXXXXXX#@@@;@@@@@$       ",
"        $@@@@@# ;;XXXXXXXXXXXXXXXXXXXXXXXXXXXXXXXXXXXXXXXXXXXXXXXXXXXXXXXXXXXXXXXXX#@@;@@@@@$       ",
"        $@@;@@# ;XXXXXXXXXXXXXXXXXXXXXXXXXXXXXXXXXXXXXXXXXXXXXXXXXXXXXXXXXXXXXXXXXX#@@;@@@@@$       ",
"        $@@;@@#;;XXXXXXXXXXXXXXXXXXXXXXXXXXXXXXXXXXXXXXXXXXXXXXXXXXXXXXXXXXXXXXXXXXX#@@@@@@@$       ",
"       $@@@@@# ;;XXXXXXXXXXXXXXXXXXXXXXXXXXXXXXXXXXXXXXXXXXXXXXXXXXXXXXXXXXXXXXXXXXX#@@@@@@@$       ",
"       $@@@@@#;;XXXXXXXXXXXXXXXXXXXXXXXXXXXXXXXXXXXXXXXXXXXXXXXXXXXXXXXXXXXXXXXXXXXX#@@@@@@@$       ",
"       $@@@@# ;;XXXXXXXXXXXXXXXXXXXXXXXXXXXXXXXXXXXXXXXXXXXXXXXXXXXXXXXXXXXXXXXXXXXXX#@@;@@@$       ",
"      $@@@@@# ;;XXXXXXXXXXXXXXXXXXXXXXXXXXXXXXXXXXXXXXXXXXXXXXXXXXXXXXXXXXXXXXXXXXXXX#@@;@@@$       ",
"     $@@@@@@#; ;XXXXXXXXXXXXXXXXXXXXXXXXXXXXXXXXXXXXXXXXXXXXXXXXXXXXXXXXXXXXXXXXXXXXX#@@;;@@$       ",
"     $@@@@@# ;;;XXXXXXXXXXXXXXXXXXXXXXXXXXXXXXXXXXXXXXXXXXXXXXXXXXXXXXXXXXXXXXXXXXXXX#@@@;@@$       ",
"    $@@@@@@# ;;XXXXXXXXXXXXXXXXXXXXXXXXXXXXXXXXXXXXXXXXXXXXXXXXXXXXXXXXXXXXXXXXXXXXXX#@@@@@@$       ",
"    $@@@@@@#; ;XXXXXXXXXXXXXXXXXXXXXXXXXXXXXXXXXXXXXXXXXXXXXXXXXXXXXXXXXXXXXXXXXXXXXX#@@@@@@$       ",
"    $@@@@@# ; ;XXXXXXXXXXXXXXXXXXXXXXXXXXXXXXXXXXXXXXXXXXXXXXXXXXXXXXXXXXXXXXXXXXXXXX#@@@@@@$       ",
"    $@@@@@# ;;XXXXXXXXXXXXXXXXXXXXXXXXXXXXXXXXXXXXXXXXXXXXXXXXXXXXXXXXXXXXXXXXXXXXXXX#@@@@@@$       ",
"    $@@@@@# ;;XXXXXXXXXXXXXXXXXXXXXXXXXXXXXXXXXXXXXXXXXXXXXXXXXXXXXXXXXXXXXXXXXXXXXXX#@@@@@@$       ",
"   $@@@@@#  ;XXXXXXXXXXXXXXXXXXXXXXXXXXXXXXXXXXXXXXXXXXXXXXXXXXXXXXXXXXXXXXXXXXXXXXXX#@@@@@@@$      ",
"   $@@@@@#  ;XXXXXXXXXXXXXXXXXXXXXXXXXXXXXXXXXXXXXXXXXXXXXXXXXXXXXXXXXXXXXXXXXXXXXXXX#@@@@@@@$      ",
"  $@@@@@@# ;;XXXXXXXXXXXXXXXXXXXXXXXXXXXXXXXXXXXXXXXXXXXXXXXXXXXXXXXXXXXXXXXXXXXXXXXX#@@;@@@@$      ",
"  $@@@@@@# ;XXXXXXXXXXXXXXXXXXXXXXXXXXXXXXXXXXXXXXXXXXXXXXXXXXXXXXXXXXXXXXXXXXXXXXXXX#@@;@@@@$      ",
"  $@@@@@@# ;XXXXXXXXXXXXXXXXXXXXXXXXXXXXXXXXXXXXXXXXXXXXXXXXXXXXXXXXXXXXXXXXXXXXXXXXX#@@;@@@@$      ",
"  $@@@@@@#;;XXXXXXXXXXXXXXXXXXXXXXXXXXXXXXXXXXXXXXXXXXXXXXXXXXXXXXXXXXXXXXXXXXXXXXXXX#@@;@@@@$      ",
"  $@@@@@# ;;XXXXXXXXXXXXXXXXXXXXXXXXXXXXXXXXXXXXXXXXXXXXXXXXXXXXXXXXXXXXXXXXXXXXXXXXX#@@;@@@@@$     ",
" $@@@@@@# ;XXXXXXXXXXXXXXXXXXXXXXXXXXXXXXXXXXXXXXXXXXXXXXXXXXXXXXXXXXXXXXXXXXXXXXXXXX#@@@@@@@@$     ",
" $@@@@@@#;;XXXXXXXXXXXXXXXXXXXXXXXXXXXXXXXXXXXXXXXXXXXXXXXXXXXXXXXXXXXXXXXXXXXXXXXXXX#@@@@@@@@$     ",
" $@@@@@#;;XXXXXXXXXXXXXXXXXXXXXXXXXXXXXXXXXXXXXXXXXXXXXXXXXXXXXXXXXXXXXXXXXXXXXXXXXXX#@@@@@@@@$     ",
" $@@@@@#;;XXXXXXXXXXXXXXXXXXXXXXXXXXXXXXXXXXXXXXXXXXXXXXXXXXXXXXXXXXXXXXXXXXXXXXXXXXX#@@@@@@@@$     ",
" $@@@@@#;;XXXXXXXXXXXXXXXXXXXXXXXXXXXXXXXXXXXXXXXXXXXXXXXXXXXXXXXXXXXXXXXXXXXXXXXXXXX#@@@@@@@@$     ",
" $@@@@@#;XXXXXXXXXXXXXXXXXXXXXXXXXXXXXXXXXXXXXXXXXXXXXXXXXXXXXXXXXXXXXXXXXXXXXXXXXXXX#@@@@@@@@$     ",
" $@@@@@#;XXXXXXXXXXXXXXXXXXXXXXXXXXXXXXXXXXXXXXXXXXXXXXXXXXXXXXXXXXXXXXXXXXXXXXXXXXXX#@@;@@@@@$     ",
"$@@@@@@#;XXXXXXXXXXXXXXXXXXXXXXXXXXXXXXXXXXXXXXXXXXXXXXXXXXXXXXXXXXXXXXXXXXXXXXXXXXXX#@@;@@@@@@$    ",
"$@@@@@#;XXXXXXXXXXXXXXXXXXXXXXXXXXXXXXXXXXXXXXXXXXXXXXXXXXXXXXXXXXXXXXXXXXXXXXXXXXXXX#@@;@@@@@@$    ",
"$@@@@@#;XXXXXXXXXXXXXXXXXXXXXXXXXXXXXXXXXXXXXXXXXXXXXXXXXXXXXXXXXXXXXXXXXXXXXXXXXXXXX#@@;@@@@@@$    ",
"$@@@@@#;XXXXXXXXXXXXXXXXXXXXXXXXXXXXXXXXXXXXXXXXXXXXXXXXXXXXXXXXXXXXXXXXXXXXXXXXXXXXX#@@;@@@@@@$    ",
"$@@@@# ;XXXXXXXXXXXXXXXXXXXXXXXXXXXXXXXXXXXXXXXXXXXXXXXXXXXXXXXXXXXXXXXXXXXXXXXXXXXXXX#@@@@@@@@$    ",
"$@@@@#;;XXXXXXXXXXXXXXXXXXXXXXXXXXXXXXXXXXXXXXXXXXXXXXXXXXXXXXXXXXXXXXXXXXXXXXXXXXXXXX#@@@@@@@@$    ",
"$@@@@#;;XXXXXXXXXXXXXXXXXXXXXXXXXXXXXXXXXXXXXXXXXXXXXXXXXXXXXXXXXXXXXXXXXXXXXXXXXXXXXX#@@@@;@@@$    ",
"$@@@@#;;XXXXXXXXXXXXXXXXXXXXXXXXXXXXXXXXXXXXXXXXXXXXXXXXXXXXXXXXXXXXXXXXXXXXXXXXXXXXXX#@@@@;@@@$    ",
"$@@@@#;XXXXXXXXXXXXXXXXXXXXXXXXXXXXXXXXXXXXXXXXXXXXXXXXXXXXXXXXXXXXXXXXXXXXXXXXXXXXXXX#@@@@;@@@$    ",
" $@@@#;XXXXXXXXXXXXXXXXXXXXXXXXXXXXXXXXXXXXXXXXXXXXXXXXXXXXXXXXXXXXXXXXXXXXXXXXXXXXXXX#@@@@@@@@$    ",
";$@@@;XXXXXXXXXXXXXXXXXXXXXXXXXXXXXXXXXXXXXXXXXXXXXXXXXXXXXXXXXXXXXXXXXXXXXXXXXXXXXXXX#@@@@@@@@$    ",
";$@@@;XXXXXXXXXXXXXXXXXXXXXXXXXXXXXXXXXXXXXXXXXXXXXXXXXXXXXXXXXXXXXXXXXXXXXXXXXXXXXXXX#@@@@@@@@$    ",
";$@@@;XXXXXXXXXXXXXXXXXXXXXXXXXXXXXXXXXXXXXXXXXXXXXXXXXXXXXXXXXXXXXXXXXXXXXXXXXXXXXXXX#@@@@@@@@$    ",
";;@@#;XXXXXXXXXXXXXXXXXXXXXXXXXXXXXXXXXXXXXXXXXXXXXXXXXXXXXXXXXXXXXXXXXXXXXXXXXXXXXXXX#@@@@@;;@$    ",
";;@;#;XXXXXXXXXXXXXXXXXXXXXXXXXXXXXXXXXXXXXXXXXXXXXXXXXXXXXXXXXXXXXXXXXXXXXXXXXXXXXXXX#@@@@@;@@$    ",
";;;;;XXXXXXXXXXXXXXXXXXXXXXXXXXXXXXXXXXXXXXXXXXXXXXXXXXXXXXXXXXXXXXXXXXXXXXXXXXXXXXXXX#@@@@@;@@$    "
};
