/* XPM */
static char *d65d443b7ab64705c0f7de04c7537b12MEsnWRao0NILOrnT[] = {
/* columns rows colors chars-per-pixel */
"64 64 56 1 ",
"  c #371B10",
". c #381C10",
"X c #3C1E12",
"o c #3F2014",
"O c #432214",
"+ c #442316",
"@ c #432416",
"# c #462517",
"$ c #482618",
"% c #4D2A1B",
"& c #4F2B1C",
"* c #522B1B",
"= c #502C1C",
"- c #542F1F",
"; c #55301F",
": c #5B321F",
"> c #573120",
", c #583221",
"< c #5C3321",
"1 c #5F3623",
"2 c #623623",
"3 c #613724",
"4 c #633825",
"5 c #653926",
"6 c #683B26",
"7 c #693C27",
"8 c #6C3C27",
"9 c #6B3D28",
"0 c #6D3E29",
"q c #703F2A",
"w c #70402A",
"e c #74422B",
"r c #77432C",
"t c #77442D",
"y c #7A462E",
"u c #7D472F",
"i c #7E482F",
"p c #7E4830",
"a c #834A30",
"s c #874B32",
"d c #844C32",
"f c #884E33",
"g c #884E34",
"h c #8C4F34",
"j c #8B5034",
"k c #8C5035",
"l c #935337",
"z c #935437",
"x c #945437",
"c c #935438",
"v c #955538",
"b c #9A5739",
"n c #9A583A",
"m c #9C593B",
"M c #9C5A3C",
"N c #B4B4B4",
/* pixels */
"d,,M,d,3,,,,,d,,,,,,d,,c3d,3mMM,d,,,,,Mq,p,,,d,,,,,,,,d,,,,,,,,,",
",,M,,,d,,,,,d,,M,d,3,,mMM,dmmMmMp3,,,,,Mwd,,d,,m,d,3,d,,M,d,3,,,",
",M,,,,,,3,,,,,MMM,d,,lmwmMa3mMc,,,,,,,,,,,3,,3MMM,d,,,,MMM,d,,,,",
"3,n,,,3,,,,,,MMMMMd,3,mMMd,d,cc36,a,,,,,3,,,3mMmMMd,,,MMMMMd,,,,",
"1,,c,61,d,,33,MMm,,d,d,,M,dpdMwM36,,v,gc3d,33dMMM,,,,3,MMM,,,,,,",
"1pu7,1d,,,,d,,3M,1,,,y,,,M,dMwmM,d,,,,mMMdddd,,M,d,3d,,,M,3,,,3,",
"t,,,,k5,M,d,3ddad,,3-,,,,,9d,mm,,,,,,lmw0Md3,dMMM,d,,,ddg,,,3,,,",
",,g,t,10MM,d,,p1,6d,,#,,,nd,,,,,,,,,3,zMM,,,,MMmMmv,d,,33,dd3,d,",
",ggg,tMcMMMd,d,,M,d,-,,,n13rddf,,,dd3p,mw3d,63MMM,d,,,,,,,,,d,,,",
"gggggu,,cw,,,,,MM,,6,,%&,t,,,33M,M,d,d6MMM,l33,N,f3,M,d,3,,d,,M,",
",ggg,,,,,,,,,,MM,,,d,..,t,,g,yww0Mmp1,wm,dqd,vdN,,,MMM,d,,,,,MMM",
",,g,1,,,,,,3,33,,,,,-,X.,,gggdtMcM,,,d,,--,@d,-M,xMMMMMd,,,,MMMM",
"tty,,,,,,3dpd31,,,,#d,,.,gggggtMMd3,v,,,,@,,,,MMM3dMMM,,,,,3,MMM",
",,0,tk,,3a,d31vygNd,,@@=1,ggg,MMM,d,,,,,@,d.,MMMmMd,M,6,,,d,,,M,",
",,,,0,35,d,1,y,,w5ddM,dr3#@g,nMmMMvd,,,,,w..+,MMM,ddg,,,,,,,ddg,",
",,,McMw,,,1w-a,:lg-w3M3r,tty33cMM,,,3,,,0..y..@M,3,36,vd,3,,,,3,",
",,3,MM,,,,,ac#M0cM1MbaMd,,,d3ytm,33d60,m-3...ddf,,,,d,,,,,3,,,,,",
",d,3,c,,,,kM:gd8w11s,k6@,3-,,v6g,,,,,05:,,3.,-,33ssd,,M,d,3,,,,,",
",,3d6v3,,ccMggg,811,t,11,,,,d,,M,vd3xd,M,,=#,,3,,,,,,MMm3dd,,3,,",
",,,d,d,95M,gggggt,t,,,,%d@3,3,MMM3d,d-cMwdx,,%%,d,,3MMMMmd,,,,,,",
",,d,,M,kp007ggg,,t,,g,8.Op@,dMMMMMd-,MwMMcn,,,d,,,,3,MMm,,M,d,3,",
",,,,MMM,dy,-pg,1,,,gggX8..@d3,MMM,,-6,Mc,M6,,d,,M,v,3,M,3MMM,d,,",
",,,MMM0Md,,tte=,,,ggggg8.6,d,,,M,d,:3,c,,1,,,,,MMM,dddg,MMMMMd,,",
",,63cMM,,,1,,1,rt:-ggg,%k,1,Mmdncd@d,.,1,,,,,,MmMMMd,,33fMMM,,,,",
",d,p,M,,1,,,,,=,t,,xg=1*xx63,w0m,dd,.XO1,tx,16,MMM,,1,f,,6M,3,,,",
",,dd6n1d1,t,=1,,,,tya6ckw:-,,,l,,,,.%..8,,,,d3,dM,0,6166ndg6,,,,",
",,,,Mq,d7,,=,,&,=,-<l:aa6n,,ddg,,,,3.Xw,,g,t,dddg12,6,x,,03,fd,,",
",,,MM,,,5,g,to#%,,1%w6MM,d,31,d,d-,r-.@-ggg,d,,M3fvdxx,,,d0,e,,,",
",,36,,,,,7gg%8-,,11,i&M%,-,,d,,,,,p#X=,gggggt,MMM6d,0,,,,,3n,6,,",
",d,px,,,gggggwo.,,t,%-.,$,,5,,M,d,3=MkO@ggg,,MMmMMd,sw,,,mmnn3,3",
",,,ndn,nhggg3,.,,t,,g,8%%,1,,MMM,d,MMt.%dg,133MMM,,,,0M,MgmMn,,,",
",,,,wq6m,,g,1,,,,,,ggg,r,0,,wMgcMd3,,,,8ww,d33,m,33,q7q6MmMMM,d,",
",,,3MMcc94y,y,+,,,gggggt,1,6,mMM,d,,,,,,,5,ttvdg,,,,,mksM3wMMM,d",
",,d6,MwM3,1,etMw,13ggg,,,,0,,,w,1-#d,,,,-,,,d,,M,vd32d6wvmMMMMMd",
",,x,ddn,1,,@,M%wt1q,g,1:#M,,,,1,,>,=@,*pv,3,,,MMM,dh036vd3,MMM3,",
",,,,xvv,dd,,,%..c;tty,:1w,,,,,,,d=,,,0kM@=,,,MMMMMN,03xnd,3dM,3,",
",,,3,,6,xx,d.....#,,1,ty-7,,,,,d@3,.M:M9wd,,3,MMM,,,,d,,3,ddgd,3",
",,33,d3,3,,-,...,,,,,,,,,.,,,gl,d,...M:M,,,d,,3M,u,,d,3M,d,mm,vd",
",,,d3,,,,,@,3,.3>dpx,,,,,,>,0MMMd.....:66,,,,ddv,,,,,3mMm,mvMMd,",
",,d33Mpd,6,3#@%,,,,04,,,,,,,l3,,-3...fg,,,,,,,d3,mdd,MmMMMdMc,,,",
",,,,vMM,d,,,p,-,@@,6,6q,,,,,dM,#,,,.666xkp6,,,,,MMM,ddMMM,dw35,,",
",,,ccMwMv,3p,,w,d,163c:,,n,vpgM,d@#O,xd,,,,,,3,MMMMmd,,MMM,j,,,,",
",,3,wMMM,d,,,MMM,d00lMww6d#@,mMMdd,-x=@Mwxd33,3,MMM,1dMMMMnd,ad,",
",d,,MM,mwd,,nM,Mw6h1,M3k5,,,wcMcMd,,,,MMMM33,v,,3M35136MMMdp,,,,",
",,,dd,,,,,33,,,,3,d,,,M,nx15,mMM3,,,,MMMM,,d,,,ddg,,g,,,M,a,,c,p",
",,d3,,,,,3d,p,,3,,,,,,,,00qp,,w,1,,,63MMcMd,,M,d36d0d3ddk,,,ccc,",
",,,,v,,,,,p,d,,,d,,,,,,,M0d,,,N6,1,xy,,wM63,MMM,v,,,,,,,3,dccccc",
",,,d,,,,kk,,c,pd0dM3,,,,,=,,,,,,vp-,,xnng,,MMMMMd,M,d,3,,52,ccc,",
",,,,,00w,d,ccc,p,Mw0,,,,.,@,,,,c6>-,#,,23xnpMMM,,MMM,d,,,pM,dc33",
",,,0cwcMw6cccccpwwwMc.,%%.#,,,,,,,@,,,,,,d,,,M,3MMMMMd,,1MMvpk,,",
",,506MM,63,ccc,3,MMM>,&..v,,,,,3,,,,.,#,-,,ddg,3,MMM665,MMMMMd,p",
",,pn,,,,p,,,c,d,,,M@3,,.,,3dk,,,,,,.%.,@,3,,,3ddd,M,3,136wMM,,,,",
",,03d,,,,,ppa,,,ddg,,@@O,,d,,,,,,,,,%.%#,,,,,,,,ddg,,,d,,,M,36,,",
",,,d,M,,,v,,3,pp,,3,dd,-,=@,M,p,,,,.%.3,,d,,1,,,,,5,dd3,ddg6,3,,",
",,d,,,M,x1,,,,,,,,,,,,,,,,,MMw,d@,@,.,,d,,,,,,,,3,,,,,,,,,00dn,,",
",,,,,,,,d,,,,65,,,,,3,,,,,MMMmM6,=@@ ,,,-w,6,3,3,,5333d,,33x,d,,",
",h,,,,nld,,66,,,,33,,,,,,3,mMM,,,,,%,,3,,wM,d,,,d,,,,,,,,,xd,M,x",
",,3x,nldd6ee,x16503,d,,3d,33Md3,3,.X+,,,MMMM,,,,,,M,,,M,d,d,MMMd",
",d,,,n,vx,d,,,3,,d6,1,,,,,dvg,,,,-,++.p,cnM,,,,,,M,,,,,w,d,MMMMM",
",,,dkg,w,v,,,,,,,,6,M,d,3,d,3Mdv@3,,y6>,,M,3,,,,ccM,,,MMMd6MMMMM",
",,,,,3Mmm,d,,,,,,,,wMm,d,,,,MMM,d,@rO,cds73,,,,3,MMm,McM,x3,MMM6",
",,,,,MMMwMmM,cc,,,MMmMMd,,,MMMMMd,,,-ccc,a,dd,p,,,w,,,M,3d,xxM,3",
",,,,3,MMM31w1MMM,McMmM,,,,3,MMM,,,,,cccccp,,,,,,ddg,pd7,,,,ddk,x",
",,,d,,,Mdxx,cM3,0MM,M,3,,d,,,M,3,,,3,ccc,,,,,,,,,,3,dd3,dd,,,3,d"
};
