/* XPM */
static char *f6c1e8599894403df4fb7540d95a2bb2eIx0bIUXmsG3x4XX[] = {
/* columns rows colors chars-per-pixel */
"64 64 8 1 ",
"  c None",
". c black",
"X c gray2",
"o c #546D8E",
"O c #00B7EF",
"+ c #709AD1",
"@ c #99D9EA",
"# c #ABDEEB",
/* pixels */
"                                                                ",
"                      .............                             ",
"                    ....................                        ",
"                  .........................                     ",
"                 .........o.......oo.oo.....                    ",
"                ......ooooooooooooooooo..o...                   ",
"               ......oooooo......oooooo.......                  ",
"              .o.o..oooo....@OOOO....ooo..o...                  ",
"              .o....oo..OOOOOOOOOOOOO..o...o...                 ",
"            ..o....oo.O@@@@OOOOO@OO+O@.....o...                 ",
"            ..o...oo..O@OOOOOOOOOOOOO@OO.O..o..                 ",
"           ..oo..ooo.OOOOOOOOOOO@OOOO@OOOO..o...                ",
"          ...oo..oo.O@@OO@OOOOOO@OOOOOOOOOO.oo..                ",
"          ..oo..oo.O+@OOO@OOOOOO@OOOOO@OOOO..oo..               ",
"         ...o..oo..++OOOOOOOOOO@OOOOOO@OOOOO..o...              ",
"         ..oo..o..O+OOOOO@OOOOO@OOO+OO@OOOOO..o...              ",
"         ..o.o...OOOO@OOO@+OOOO@OOO+OOO@+OOOO.o.o..             ",
"        ......o.OOOO@@OOO++OOOOOOOO+OOOO+OOOO..oo..             ",
"       ...o.o..OOOOOOOOOOOOOOOOOOOO+OOO@+OO@O..ooo..            ",
"       ..o..o..OOOOOOOOOOOOOOOOO@OO+OOOO+OOOOO.oo.o..           ",
"      ...o.o..OOOOOOOOOOOOOOOOOO@OOOOOOO+OOOOO..o.....          ",
"     ...oo.o..OOOOOO@OOOO@OOOOOOOOOOOO@O+OOOOOO.oooo..          ",
"    ...oo.oo.OOOOOOO@OOO+@OOOOOOOOOOOOOO+OOOOOO.oooo...         ",
"    ..ooo.o..OOOOOO@@OOO+OOOOOO@OO+OOOOOO+OOOOO..ooo....        ",
"   ....o..o.OOOOOOO+OOOO+OOOOOO#OOO+OO@OOOO@OOOO.ooooo..        ",
"   ...oo.oo.OOOOOO++OOOOOOOOOOO#OOO+O@@OOOO@OOOO..ooooo..       ",
"   ..ooo.o..OOOOOO+@OOOO@OOOOOO#OOO+O@OOOOO@OOOO...oooo...      ",
"   ..ooo.o.OOOOOOO@OOOOO@OOOOO#OOOO+O@OOOOO@@OOOO...oo.o..      ",
"   ..o.o.o.OOOOOO@OOOOOO@OOOOO#OOOOO@OOOOOOO@OOOOO.oo..o...     ",
"  ..oo.o...OOOOOO+OOOOOOOOOOOOOOOOOOOOOOOOO@OOOOOO..oo.oo..     ",
"  ..oo.o..OOOOOO++OOOOOOOOOOOO@OOOOO@OOOOOO@OOOOOOO.ooo.o..     ",
"  ..ooo...OOOOO@+OOOOOOOOOOOOO@OOOO@OOOOOO@@OOOOOOO.ooo.oo..    ",
"  ..ooo..OOOOOO@OOOOOOO+OOOOOOOOOO+@OOOOOO@OOOOOOOO..oo.oo..    ",
"  ...oo..OOOOO@OO@OOOOO+OOOOOOOOO+OOOOOOOOOOOOOOOOOO.oo.ooo.    ",
"  .o.oo.OOOOOOOO@OOOOO+@OOOO+OOOO+OOOOOOOOOOOOOO@OOO..o.ooo..   ",
"  .ooo..OOOOOOOO@OOOOO+OOOOO+O#OO+OOOOOOOO@OOOOO@OOO..oo.oo..   ",
"  .ooo..OOOOOOOOOOOOOO+OOOOO+O#OOOOOOOOOOO@OOOOOOOOO...o..oo..  ",
" ..o.o.OOOOOOOOOOOOOOOOOOOO+@O#OOOOOOOOOO@OOOOOOOOOOO...oo.o..  ",
" ..oo..OOOOOOOO@OOOOOOOOOOO+OOOOO+O@OOOOO@@OOOOOOOOOO...oo....  ",
" ..oo..OOOOOOOO@OOOOOOOOOOO+OOOO+OO@OOOOOOOOOOOOO@OOO..ooooo..  ",
" ..o..OOOOO@OOO@OOOOO@OOOOO@OO#O+OO@OOOOOOOOO+OOOO@OOO..oooo..  ",
" ..o..OOOOO@OOOOOOOO@OOOOO@OOOOOOOO@OOOOOOOOOO+OOO@OOO..oooo..  ",
" ..o..OOOOO@OOOOOOOO@OOOOO@OOOOOOOOOOOOOOOOOOO+OOO@OOO..ooooo.  ",
" .oo..OOOO@OOO@OOOOO@O+OOOOOOOOOOOOOOOOOOOO@OO+OOO@OOO..o.ooo.. ",
" .oo.OOOOO@OOO@OOOOO@O+##OOOOOOOOOOOOO+OOOO@OO+OOOOOOOO.ooooo.. ",
"...o.XOOOOOOOO@OOOOOOO+O##OOOOOOOOOOOO+OOOO@@OOOOOOOOOO....oo.. ",
".....XOOOOOOOO@OOOOOOOOOOO#OOOO#OOOO@O+OOOOO@OOOOOOOOOO..o.oo.. ",
".o...XOOOOOOOOOOOOO@OOOOOOOOOOO#OOOO@@+OOOOOOOOOOOOOOOO..o.oo.. ",
".oo..XOOOO@OOOOOOO+@OOOOOO@OOOO#OOOOO@+OOOOO@OOOOOOOOOO..oo.o.. ",
".oo.XOOOOO@OOOOOOO+OOOOOOO@OOOOOOOOOOO+OOOOO@OOOOOO@OOOO..o.oo. ",
"..o.XOOOOO@OOOOOOO+OOOOOOO@OOOOOOOOOOOOOOOOO@OO+OOO@OOOO..o.oo. ",
"....XOOOOOOOOOOOOOOOOOOOOO@OOOOOOOOOOOOOOOOOOOO+OOO@OOOO..oo.o. ",
".o..XOOOOOOOOOOOOOOOOOOOOOOOOOOOOOOOO@OOOOOOOOO+OOO@OOOO..oooo. ",
".o..XOOOOOOO@OOOOOOOOOOOOOOOOOOOOOOOO@OOOOOOOOO+OOO@OOOO..oooo. ",
".o..OOOOOOOO@OOOOOOOOOOOOO@OOO+OOOOOO@OOOOOOOOO+OOOOOOOOO..o... ",
".o..OOOOOOO@OOOO@OO+OOOOOOO@OO+OOOOOO@OOOOOOOO@OOOOOOOOOO.oo..  ",
".o..XOOOOOOOOOOO@OO+OOOOOOO@OOO+OOOOOOOOOOOOOO@OOOOOOOOOO.oo..  ",
"....XOOOOOOOOOOO@OO++OOOOOOOOOOOOOOOOOOOOOOOOO@OOOOO@OOOO.o.o.  ",
".o..OOOOOOOOOOOOOOOO+OOOOOOOOOOOOOOOOOOOOOOOOOO@OOOO@@OOO...o.  ",
".o..XOOOOOOOOOOOOOOO+OOOOOOOOOOOOOOOOOO@OOOOOOO@OOOOO@OOO..oo.  ",
".o..XOOOOOOOOOOOOOOO+OOOOOOOOOOOOOOOOOOOOOOOOOOOOOOOOOOOO..oo.  ",
"....XOOOOOOOOOOOOOOO+OOOOOOOOOOOOOOOOOOOOOOOOOOOO+OOOOOOO..oo.  ",
"....OOOOOOOOOOOOOOOO+OOOOOOOOOOOOOOOOOOOOOOOOOOOOOOOOOOOO..oo.  ",
"....OOOOOOOOOOOOOOOO+OOOOOOOOOOOOOOOOOOOOOOOOOOOOOOOOOOOO..oo.  "
};
