/* XPM */
static char *_67ac681b62f4bf8a21e3b5eb4ce9781qPLI2Z2tq4nQqG3Z[] = {
/* columns rows colors chars-per-pixel */
"64 64 48 1 ",
"  c #254F0B",
". c #27540B",
"X c #25510C",
"o c #26510C",
"O c #27540C",
"+ c #28570A",
"@ c #28550C",
"# c #295B0A",
"$ c #2A5D0B",
"% c #29580C",
"& c #2C5B0F",
"* c #2A5C0C",
"= c #2D5C0F",
"- c #34500E",
"; c #34550E",
": c #2C5B10",
"> c #2E5E10",
", c #2D630E",
"< c #2F650D",
"1 c #30660E",
"2 c #306B0A",
"3 c #306D0A",
"4 c #346F0F",
"5 c #3B6E0B",
"6 c #33720A",
"7 c #347209",
"8 c #357409",
"9 c #33700C",
"0 c #35720C",
"q c #37750D",
"w c #38770E",
"e c #36780A",
"r c #37780D",
"t c #2F6110",
"y c #306311",
"u c #326612",
"i c #336912",
"p c #346B12",
"a c #336D10",
"s c #346C12",
"d c #366E14",
"f c #377213",
"g c #377214",
"h c #387213",
"j c #397711",
"k c #387115",
"l c #3A7715",
"z c #3B7816",
/* pixels */
"  i  z iztui>>t%uoOzzz i    i      O          O           i     ",
"    zzzzlzz>>>>t%izzzzzp   i  z i %O i  O   O         O  i  z i ",
"   zzzzzlz>>>>>>up lzz       zzz i i  o    OO i  O  O      zzz i",
"  O zzz  ko>>>>zio  zOOi  O zzzzzii ozOi O  i      OO i  Ozzzzzi",
" i   z i>ti >>ko@oitsio    O zzz   olzu io i  z i O i   oO zzz  ",
"   iis   O&>>ts  %  i il iiO  z O  luzlziO   zzz%i i  l k O zOO ",
"     % ii   oo>=>i > %zlz i iis   O%lz> % o zzzzzi   llz%iiis   ",
"   O   o    O     >>>zuzzzi   O ik i >>>i%OOOzzzk O%zzuzziOOOiii",
"  OO u  O  OO i  >>>>>uzz          i>>>>>ti  iz O  @ uzz> %io   ",
"   ioo %  o i   o >>>  z O         oz>>>zi  klszzulO% l>>>i% z i",
"  i  u i O i  z%i %> sisO     O   %O l>zo     lzlliuiu>>>>>%lzz ",
"    ulz>i% o lzz t%t   O ii O     i %%uiO O  zzzzulk o%>>>ozzzzz",
"   lzz>>> % llzuzuuo u%i O OO i  Oo iki %%  O%zzuz >%& @>ot uzzo",
"  %Oz>>>>>%O uzzoo %zzl i   i   o O i Ozik ik OzzO>>> &>>>%% z O",
" i ioz>>> i % z>O& llzzli  i  zoi %  ozzz i  plll>>>>>>>>>>>>s% ",
"  itiz > @O ii>>> %>zuzo     zzf%is .lzzzzi  %sOsi>>>o >>>z>>> t",
"    zuutkOO i>>>>>>>>l%%  o zzgtj*>o%Ojzz    uk%l t>%o  >z>>>>>%",
"   zzzzli%t o >>>>>>>>%    O lz,s>d>f=$j#$#  k zuuut% %%%lz>>>  ",
"  O zzzo i %z i>@u>>>Oi>i%i@  ,sdu>%t,4s$.+   zugz>k%%t %Ou%> o ",
" i   zo@ % zlu%>   >zl>>> %Oik4f .ztsl88388o#$zzz>>>o% %iit%%   ",
"   iis %o zzzzzu &tuz>>>>>%i .s .*zj%f37q#$Oi  =>=>>>&OO iO ii%%",
"   O O%ii> ull   O llu>>> i  ff*llzlll<e$883 o i*>>>%  > % o    ",
"  OO uo >>>ou O i  %z O> o  g$*zz l=d2Oj808 o   * >io >>>z%i O  ",
"   i O%>>>>>u  O  iist%%O  zj8j$   z$s9j 8#8    %uyl >>>>>u i   ",
"  iO uoi>>> @ ii   i@oit %% ,j8     %8j o 8$8 # zzl t%>>>zlzi   ",
"  OOzuz>>> %z i O i  u i p  783j   ggz%    .$##zzzzui O>llz     ",
"   lzz>>>>>uzz i    ulz>i% u8#6j, zg==% o 8386$o*zz  t%=.z3O .  ",
"  p zlz>>>zuuzzi   zll>>> % 88$*$%z= p > 6a888#-.z O   u0t%     ",
" i  uzzO>Oozzz  O O z>>>>>% 8$88zgz==   o%1*8e684s     3%Oei0%. ",
"   zzzuuy   z %  i  uz>>>i 75eeO zzz     o=@eee87# ii  Ogeee 2O ",
"  O zzziu ttsOO i  tisz>zoi73ei   zo8   O>> e$e68      keeeee2% ",
" i   l O    O ki     uuuzli7#6eoii*6j$ >=>   e$80  O   i eeeikp ",
"   uis    O  i  z i % zll%%8#888 868%*%j>     $#      2 zzezll  ",
"  ooO% ii      zzz so %z i   7$$#88888,1O$   e-.z i O  %wqrlziz ",
"  O%   OO i  Ozzzzzp%iisi  z i jf8$$888$8e1 82888z i  k@ klz3wzz",
" O% i> %io   O zzz %  >O%ilzl iol %i oO7e$$#;788wzzi  u@k>z kzzz",
"  i >>>i% z k O zOOi >>> uzlzzkitoi  z k $#38$#zzz    o&i>sOszzz",
" i >>>>>%zzz iiisi  >>>>>%zlz  %Oo>iuzl iz iiO Oz @   &:O>s&iuz ",
"  ol>>>izzzzzi  i il >>>OO l OO  >>>zuzzzzz i ssii%%Oo> >>>&>usO",
" %zzz>zi zzz      uzz%> >ktso   >>>>>uzzzzzzi  i*%tso@O>>>>>> O ",
"O% uuui   z O    lzzuut>>> u ki@O>>>OzsOzzz   i%=lklO=u>>>>>t i ",
"ii  zoO%tis    %% zzz >>>>>uz t  i>isk   z O   tll>k>>%>>>>szz i",
"i izsi O  O ii%p k z%@ >>>zzzzi t%%l izklsO   ill>>>l>>>>>ukzzzi",
"  zzz ki   O OOkiiis%   > lzz     lzuuzz i ii O >>>>>>>>>=uttz  ",
" zzzzli  O    l  z k ptt%  z OO  zzzzzzzzi   i lz>>>ll>>>k &t O ",
"O zlzO  OO i iO zzl g   @ittO   O zlzzzz      %pzz>ulzk>zopis   ",
"  %j k  %i     zzzzlk O    %Oiki Oiz %z O  o ikk%uull%tts   OOii",
" iil i  i  z izlzzzi OO i  Oi    iisiss  o     llllz%% oO%ti    ",
"  kp zik %zzzgizzz % %i o  i  z i %= kiOiu % Oo  gglllk   %O i  ",
"  i zlziklzzzzikzlO% io z p Ozzz i%s k  %% O       * kk O  i    ",
"   lzzzzl zzzOiis%%fksozuz uzzzzziikOz k%O%> t oO OO i O% k  z i",
"  *lzlzzi  l O  O il iuzlzzi zzz  k zzzki%>>> %    i    i   zzz ",
" kOizzz% iis i  O ki u l>lt o z O  zzzzzl>>>>>%i Oi  z k Ozzzzzz",
" iikhz p O p ii   i zzz>>>l%kisO  Ozzzzzl >>>zz i   zzz izlzzzz ",
"  Oizzzkl i  z i O zzz>>>>>u iO ik% zzzuzzi>zlzzi  zzzzzllzzzz O",
" OOzlzzlk   zzz i %zzlz>>>llli i kOipzzlz%%%zzz   O zzzO zzlis  ",
"  p zzz    zlzzzikO uzz=>zlz i     lkl lii @ u%O iO  ziO  zOOO i",
" k  zziOO % zzl  i kklt%% z p  z i OOsilk %pik  OOOiks OiisO i  ",
"   zzz i iO ilO%i  iis lkit%  zzz i  i O iii O ii i  O ii Oiii  ",
"  zzzzzki iiisi      p ii O izzzzzi i  z iiO z i p  z i O i  z i",
" O zzz   i  zpiiz i p  z i OO zzz     zzz i zzz i  zzz i    zzz ",
"i   z O    zzz zzz i  zzz ii   z O   zzzzzizzzzzi zzzzzi   zzzzz",
"  iis     zzzzzzzzzi zzzzzi  iis    O zzz O zzz  O zzz    O zzz ",
"    O ii O zzl zzz  O zzz      O iii   z p   z Oi   z O  i   z O"
};
