/* XPM */
static char *e5ac2b9b33304c7dfa906ebf379634ffxrwcmE5cwk8LXnao[] = {
/* columns rows colors chars-per-pixel */
"64 64 54 1 ",
"  c #562D1B",
". c #4C3417",
"X c #413C13",
"o c #413C14",
"O c #6F1C23",
"+ c #771725",
"@ c #791526",
"# c #7F1827",
"$ c #6F2322",
"% c #254F0B",
"& c #27540B",
"* c #26510C",
"= c #27540C",
"- c #28550C",
"; c #29580C",
": c #2C5B0F",
"> c #2B5C0C",
", c #2D5C0F",
"< c #344510",
"1 c #344B10",
"2 c #2C5B10",
"3 c #2E5E10",
"4 c #30690A",
"5 c #316C0A",
"6 c #35720C",
"7 c #37750D",
"8 c #38770E",
"9 c #36780A",
"0 c #37780D",
"q c #2F6110",
"w c #306311",
"e c #326612",
"r c #3D6215",
"t c #386514",
"y c #336912",
"u c #346B12",
"i c #346C12",
"p c #377212",
"a c #377314",
"s c #387213",
"d c #397613",
"f c #387115",
"g c #3A7715",
"h c #3B7816",
"j c #5A4E1F",
"k c #5C4D1F",
"l c #4D571A",
"z c #4A5B19",
"x c #57521D",
"c c #55551D",
"v c #890A2B",
"b c #8B0F2C",
"n c #98002F",
"m c #980030",
/* pixels */
"%%y%%h%yhqey33q;e*=hhh%y%%%%y%%%%%%=%%%%%%%%%%=%%%%%%%%%%%y%%%%%",
"%%%%hhhhghh3333q;yhhhhhu%%%y%%h%y%;=%y%%=%%%=%%%%%%%%%=%%y%%h%y%",
"%%%hhhhhgh333333eu%ghh%%%%%%%hhh%y%y%%*%%%%==%y%%=%%=%%%%%%hhh%y",
"%%=%hhh%%f*3333hy*%%h==y%%=%hhhhhyy%*h=y%=%%y%%%%%%==%y%%=hhhhhy",
"%y%%%h%y3qy%33f*-*yqiy*%%%%=%hhh%%%*ghe%y*%y%%h%y%=%y%%%*=%hhh%%",
"%%%yyi%%%=:33qi%%;%%y%yg%yy=%%h%=%%gehghy=%%%hhh;y%y%%g%f%=%h==%",
"%%%%%;%yy%%%**3,3y%3%;hgh%y%yyi%%%=;gh3%;%*%hhhhhy%%%ggh;yyyi%%%",
"%%%=%%%*%%%%=%%%%%333hehhhy%%%=%yf%y%333y;===hhhf%=;hhehhy===yyy",
"%%==%e%%=%%==%y%%33333ehh%%%%%%%%%%y33333qy%%yh%=%%-%ehh3%;y*%%%",
"%%%y**%;%%*%y%%%*%333%%h%=%%%%%%%%%*h333hy%%fgihheg=;%g333y;%h%y",
"%%y%%e%y%=%y%%h;y%;3%iyi=%%%%%=%%%;=%g3h*%%%%%ghggyeye33333;ghh%",
"%%%%egh3y;%*%ghh%q;q%%%=%yy%=%%%%%y%;;ey=%=%%hhhhegf%*;333*hhhhh",
"%%%ghh333%;%gghehee*%e;y%=%==%y%%=%%yfy%;;%%=;hheh%3;:%-3*q%ehh*",
"%%;=h33333;=%ehh**%;hhg%y%%%y%%%%%%%y%=hyf%yf%=hh=333%:333;;%h%=",
"%y%y*h333%y%;%h3=:%gghhgy%%y%%h%y%=%%%hhh%y%%uggg333333333333i;%",
"%%yqyh%3%-=%yy333%;3heh*%%%%%hhh%y%%%hhhhhy%%;i=iy333*%333h333%q",
"%%%%heeqf==%y33333333g;;%%*%hhhhhy%%=%hhh%%%%yf;g%q3;*%%3h33333;",
"%%%hhhhgy;q%*%33333333;%%%%=%ghh%%%y%%%h%=%%%f%heeeq;%;;;gh333%%",
"%%=%hhh*%y%;h%y3-e333=y3y;y-%%h%=%%%%yyi=%%%%%hehh3f;;q%;=e;3%*%",
"%y%%%h*-%;%hge;3%%%3hg333%;=yfi%=%X<%%==<yy%%=hhh333*;%;yyq;;%%%",
"%%%yyi%;*%hhhhhe%:qeh33333;y%%=%rt%%%=1%y%%=y;%h33333:==%y=%yy;;",
"%%%=%=;yy3%egg%%%=%gge333%y%%h%r 1vO%.r%O%%<f%uyh333;%%3%;%*%%%%",
"%%==%e*%333*e%=%y%%;h%=3%*%%hhh%xO%%%yO%h%y%=%egg%3y*%333h;y%=%%",
"%%%y%=;33333e%%=%%yyiq;;=%%hhhhhx%mmvvXhhhOy<%y%;ewg%33333e%y%%%",
"%%y=%e*y333%-%yy%%%y-*yq%;;%hhh%%mmmm#hhhhhl%%%%hhg%q;333hghy%%%",
"%%==heh333%;h%y%=%y%%e%y%u%%%h%=mmmbmbmhhhmO<%%hhhhey%=3ggh%%%%%",
"%%%ghh33333ehh%y%%%%egh3y;%eyi%nmmbbkt%mhm1%%%=%hhh%%q;,&h5=%&%%",
"%%u%hgh333heehhy%%%hgg333%;%%=mkxmmk@<yyc<o%Oy%<%h%=%%%e6q;%%%%%",
"%y%%ehh=3=*hhh%%=%=%h33333;%%<=mmmj+%hOl$=ly%%%yyi%%%%%5;=9y6;&%",
"%%%hhheew%%%h%;%%y%%eh333y%=O==%k%.1hhh%tOOOm%O%1=%yy%%=a999%4=%",
"%%=%hhhye%qqi==%y%%qyih3h*y=%%lO+%%hhhhhy%%mmm=O%%%%%%%f999994;%",
"%y%%%g%=%%%%=%fy%%%%%eeehgy%%y%%h%zOhhh%%%mmmbbOy%%=%%%y%999yfu%",
"%%%eyi%%%%=%%y%%h%y%;%hgg;;y%%=hhg%y%h%=%<%mmmy%%%%%%%4%hh9hgg%%",
"%%**=;%yy%%%%%%hhh%i*%;h%y%%%%hhhhgfyi%%O=%%my<%h%y%=%%;870ghyh%",
"%%=;%%%==%y%%=hhhhhu;yyiy%%h%y%hgh==%y%yu%OO+%%hhh%y%%f-%fgh58hh",
"%=;%y3%;y*%%%=%hhh%;%%3=;yghg%y*g%;y%*==%y%%1%hhhhhy%%e-f3h%fhhh",
"%%y%333y;%h%f%=%h==y%333%ehghhfyq%y%%h%f%=%%%=%hhh%%%%*:y3i=ihhh",
"%y%33333;hhh%yyyiy%%33333;hgh%%;=%3yehg%yh%yy=%=h%-%%%:2=3i:yeh%",
"%%*g333yhhhhhy%%y%yg%333==%g%==%%333hehhhhh%y%uuyy;;=*3%333:3ei=",
"%;hhh3hy%hhh%%%%%%ehh;3%3fqi*%%%33333ehhhhhhy%%y>;qi*-=333333%=%",
"=;%eeey%%%h%=%%%%ghheeq333%e%fy-=333=hi=hhh%%%y;,gfg=,e33333q%y%",
"yy%%h*=;qyi%%%%;;%hhh%33333eh%q%%y3yif%%%h%=%%%qgg3f33;3333ihh%y",
"y%yhiy%=%%=%yy;u%f%h;-%333hhhhy%q;;g%yhfgi=%%%ygg333g33333efhhhy",
"%%hhh%fy%%%=%==fyyyi;%%%3%ghh%%%%%gheehh%y%yy%=%333333333,eqqh%%",
"%hhhhgy%%=%%%%g%%h%f%uqq;%%h%==%%hhhhhhhhy%%%y%gh333gg333f%:q%=%",
"=%hgh=%%==%y%y=%hhg%a%%%-yqq=%%%=%hghhhh%%%%%%;uhh3eghf3h*uyi%%%",
"%%;d%f%%;y%%%%%hhhhgf%=%%%%;=yfy%=yh%;h%=%%*%yff;eegg;qqi%%%==yy",
"%yyg%y%%y%%h%yhghhhy%==%y%%=y%%%%yyiyii%%*%%%%%ggggh;;%*=;qy%%%%",
"%%fu%hyf%;hhhayhhh%;%;y%*%%y%%h%y%;,%fy=ye%;%=*%%aagggf%%%;=%y%%",
"%%y%hghyfghhhhyfhg=;%y*%h%u%=hhh%y;i%f%%;;%=%%%%%%%>%ff%=%%y%%%%",
"%%%ghhhhg%hhh=yyi;;pfi*heh%ehhhhhyyf=h%f;=;3%q%*=%==%y%=;%f%%h%y",
"%%>ghghhy%%g%=%%=%yg%yehghhy%hhh%%f%hhhfy;333%;%%%%y%%%%y%%%hhh%",
"%f=yhhh;%yyi%y%%=%fy%e%g3gq%*%h%=%%hhhhhg33333;y%=y%%h%f%=hhhhhh",
"%yyfsh%u%=%u%yy%%%y%hhh333g;fyi=%%=hhhhhg%333hh%y%%%hhh%yhghhhh%",
"%%=yhhhfg%y%%h%y%=%hhh33333e%y=%yf;%hhhehhy3hghhy%%hhhhhgghhhh%=",
"%==hghhgf%%%hhh%y%;hhgh333gggy%y%f=yuhhgh;;;hhh%%%=%hhh=%hhgyi%%",
"%%u%hhh%%%%hghhhyf=%ehh,3hgh%y%%%%%gfg%gyy%-%e;=%y=%%hy=%%h===%y",
"%f%%hhy==%;%hhg%%y%ffgq;;%h%u%%h%y%==iygf%;uyf%%===yfi%=yyi=%y%%",
"%%%hhh%y%y=%yg=;y%%yyi%gfyq;%%hhh%y%%y%=%yyy%=%yy%y%%=%yy%=yyy%%",
"%%hhhhhfy%yyyiy%%%%%%u%yy%=%yhhhhhy%y%%h%yy=%h%y%u%%h%y%=%y%%h%y",
"%=%hhh%%%y%%huyyh%y%u%%h%y%==%hhh%%%%%hhh%y%hhh%y%%hhh%y%%%%hhh%",
"y%%%h%=%%%%hhh%hhh%y%%hhh%yy%%%h%=%%%hhhhhyhhhhhy%hhhhhy%%%hhhhh",
"%%yyi%%%%%hhhhhhhhhy%hhhhhy%%yyi%%%%=%hhh%=%hhh%%=%hhh%%%%=%hhh%",
"%%%%=%yy%=%hhg%hhh%%=%hhh%%%%%%=%yyy%%%h%u%%%h%=y%%%h%=%%y%%%h%="
};
