/* XPM */
static char *_f8af698fc104c4ad2110ca7309ce6e0muRwL2cyAmP1xbqa[] = {
/* columns rows colors chars-per-pixel */
"64 64 87 1 ",
"  c None",
". c black",
"X c #040A01",
"o c #130202",
"O c #140006",
"+ c #1D3C0A",
"@ c #0A0C33",
"# c #5F0E0E",
"$ c #63001F",
"% c #7C162A",
"& c #781929",
"* c #254F0B",
"= c #26510B",
"- c #27530C",
"; c #27540D",
": c #28550D",
"> c #29560C",
", c #29560D",
"< c #28570D",
"1 c #29570D",
"2 c #2B5A0D",
"3 c #2B5B0D",
"4 c #2A5B0E",
"5 c #2B5B0E",
"6 c #2B5B0F",
"7 c #2B5C0E",
"8 c #2C5C0F",
"9 c #2C5D0F",
"0 c #2D5E0F",
"q c #2D5D10",
"w c #2E5E10",
"e c #2E6010",
"r c #2F6010",
"t c #2F6110",
"y c #2F6210",
"u c #306311",
"i c #316411",
"p c #316511",
"a c #326512",
"s c #326612",
"d c #336812",
"f c #356C12",
"g c #366F13",
"h c #366E14",
"j c #377214",
"k c #387114",
"l c #397415",
"z c #3A7615",
"x c #3A7715",
"c c #3B7716",
"v c #3A7815",
"b c #3B7816",
"n c #20246E",
"m c #741355",
"M c #7E2675",
"N c #2E4F40",
"B c #950E1F",
"V c #941616",
"C c #951218",
"Z c #951319",
"A c #970827",
"S c #970628",
"D c #98052A",
"F c #98042B",
"G c #98012D",
"H c #98022C",
"J c #98022D",
"K c #99012F",
"L c #9B002E",
"P c #98022E",
"I c #99022E",
"U c #960533",
"Y c #980030",
"T c #990030",
"R c #920D33",
"E c #A7062B",
"W c #AB082A",
"Q c #A80236",
"! c #A30339",
"~ c #87293A",
"^ c #8F2F3F",
"/ c #C61322",
"( c #CC1620",
") c #3D2F8B",
"_ c #2F3699",
"` c #575FDA",
"' c #4D6DF3",
/* pixels */
"sbblbwwwbbbblbwwwbbbbbbbbbbbswwwwwsbbbbbsbbbbbbb8blb;wwb*sjbbbbb",
"bbwbsbwblbbsbbbwblbbbbb__bbblbwwwbbbbbbsbbwbsbl8bs*b8w471bbwbsbl",
"bwwwsrsbbbbbbsssbbbb___@@_bsbbbwllssbbbbbwwwbsbbb***s1bbgb;;wbsb",
"wwwwwslbsN____blbss___@@@@_bbsssbbbbbbbbwwwwwsbb*****7lsswwwwwsb",
"bwwwlbbbb_nn___bbb_____@(__bbbblbssbbbblbwwwbbbjb***bllbsbwwwjbb",
"bbwblbbbb_nnn___bb_((/'___T((bbbbKbKbbsbblwbkb8lbb*bjbssbbb8blbb",
"sssbsbblb__'n'__b__)''__((TT(bbbTbKbbbblsssbbbll814blsbbws8rl7bb",
"bbsbssbbbb__'___b_//'mTT/(((((W(bbKbbbllbskbrsbsbbjb88bwwwb1bssb",
"bsbbwbsblb___'_'__(M_(((((((TWT(TbTb bbsbbsbbbsbbwbsblwwww;sb*b8",
"bbbwwwbsbbb___'___M'(T(TTT((TT(TTTbTbbsbbwbswlsbwwwbslbwwwbs***b",
"bbw8wwwsblbb______'_TTTTTTTTTTTTTTTTbbbbwwwwwwbwwwwwrbbbwbs*****",
"bgbwwwblbbbbb__''_'TTTTTW((((/(TTTbbbbbwwwwwwwwswwwbbbsssbjb***b",
"ujb8wbglbsbbl_____`.TTT(TT..$TT(Tb bbblbwwwwwwbbbwbllbbbl8sww*w8",
"b8sssbbsbbbbb____mTT(T(T!T!!..$WEbbbbsbbswllwblsssbllbsbbll8;-wb",
"8bb*l8rubwbsbl___''TW!!!!T(T&~..ObTTbbbsssrsslbbblbsrbbbbsbbb8b7",
"bb***b8bwwwbsb__TT'!!!TTTTTT&~~^^..bbbbbbsbswlrrlblsbbwbsblsssbb",
"b*****8wwwwwsbb..T!!T!TTTTT(T&&~&^..bbbbbbbwwwbsbbbbb8wwbsblblbs",
"jb***blbwwwbbbbb.T!T!!TTTTTT(T&~&^^..bbbbbwwwwwwbsbgwwwwwsbbbbbb",
"bjl*b8bblwblbbbb..T&!TTTTTTTTTT%~^^~..bbblbwwwwwwbugb;wwglbsbblb",
"j48=bbjsssbbbbbb..^&__T_TTTTTT(T&&&&~.bbsbbbwwwwwwr8bbwblsbbbbbb",
"b8sjb;8sbkbssbbb.^^_&_T_TTTTTTTTTTT_&..bbbssslwwwb8bs*s8sjbwbsbl",
"8bb*w;wgssbblbbb.^^~_T_T_TTTTTTTT_TTTT..bbbslbswblbb***b1swwwjsb",
"bb***w;wsbbbbbbb.^^~&TTT_TTTTTTTT_TTKTT.bbllbrssllb*****1ww8wwsb",
"b*****;bbwbsbl*b.^^~~&TTT__TTTTT_TKTTTTT.bbsbbbkbsub***blb88w8bb",
"js***wblwwwbsbbb.^~~~&_TTTT_TT___KKTDTTK.bsbbwlsb1bbl*buwbs;llbb",
"bbb*srbwwwwwsbbb.~~~~&__TTT_'TTTTTDTTTTTT.bbwwwssbb884bwww1rb*b8",
"b884bllswwwbbbbb..~~~&TTTTTTTTTTKWTKTTDTK.bwwwwwswbslgw;;wws***b",
"bbbjl18blwblbbbbb.~~~&TTT_TTTTTTTTTTTTTDT.lbwwwbwwwbslbwwwb*****",
"bblbbblsssbjbbbbb..~~&TTTTTTTTTTKKTTTTTKT+.bbwbwwwwwwbblwbgb***b",
"bllbslllsgbssbb*bb..~&TTTTTTTTTTTKTTTTTTTT.ssslbwwwbbbsss8lbb*bj",
"bbsbbbsbjjb8bbjbbbl...TTTTTTTTTTKKKTTTKKTT.bbsbsswblwbsbkls114bl",
"bsbbwssbw8sblbbblbbbb...TTTTT.TTTTTTTTTTTT.bbbbsssbwwwbsbbsbbjb8",
"bbbwwwbw;wb*b8bglbsbblb(......TTTTTTTTKDKT.bbbbbblwwwwwsbsbbwbsb",
"bjwwwwwwww***l8bsbbbbbb((bb((.TTKTTTTVTKTT.bbbbblkbwwwbbbbbwwwbs",
"blbwwwbww*****8sbbwbsblb(b((b.TDTTATSZVBTT.bbblbslbswbkbbbwwwwws",
"s8bb4bls8b***blbbwwwbsbb(b(((..TTDDSZVTUUQ.bbllbsssssbbbblbwwwbb",
"bbsssbs1sww*bubbwwwwwsbb(b(((b.TBTTKU!U!!!.bbbsbsbbwlssssbbbwblb",
"b*b8lgssw;;-wsblbwwwbbbbb(b((b...TU!!R!!..bbbsbbwbwwwbsbbbssslbb",
"***b8lslbww8b81blbwblbbbb(b(b(bb...Xo.##.bbbbbbwwwwwwwsbbbbllbss",
"****8ssbwbwbkblbsssbblbbbbbb((bbbbjjb8bbgbbbbbwwwwwwwbbbblllbsbb",
"***lbsbwwwssbllbsblkssbbb((b(((*b*b8bblbbbbbbllwwwlwbsbllbbsbbbb",
"b*bubbwwwwwssssbbbllbsbblbbbbb(bbb*bb*l8sjblsbbbwssrbbllbusblwbs",
"84sbbwbwwwbbbsbbwbsslbbbb((b(bbb(bbb***b8bbllbrsslslbws8blbbwwwb",
"bjb8;wwbwblbbbbwwwssbwbsblbb((bb(bb*****;bsbsbbblbssww4js;bw8www",
"bbbwwwwwrbbbbbwwwwwswwwbsbbbbbbb(bjb***wwwbrbbwbsblwwww;wwwbwwwb",
"bblbwwwblbssllbwwwbwwwwwsb((bbbbb7bbb*w8wwwsb8wwbskbww;ww*w;s8bl",
"bsbblwblbbblsbsbwlkbwwwbbbbbbb(lbbb884bwwwbjwwwwwrbbbwll***s1sbb",
"bbbssssbblbbsbssssblbwblbbbbbbllbsbbsjb8;bggb;wwgbsssrb*****8lbs",
"bbjbslbssbbsbbwbsbsrsrbblbbbbbbsbbbbbbsssbs8bbwbsbbbbljr***blbbb",
"jbbsbbwbsblbbwwwbsbsblbssbbblbsbbwbsblbblb1ss*s1bjwbs8lbb*lusbbb",
"jb8bb8wwbsbbwwwwwssbbwbsbllbbbbbwwwbsbbbblbb***b1wwwbsb784lbsbbl",
"8bbbwwwwwsbkbwwwbbbbwwwbsllbsbbwww8wsbblbbb*****;wwwwsbbbjs88bbb",
"bb*l8w8wblsbbbwbllbwwwwwsbsbbblb8wwblbllbsjb***lbwwwllbsbslbwbsb",
"b***b8wbklbsssslbblbwwwbbsbbwssjgw7lbjbsb8bbb*sjbbwblsbbbbb8wwbs",
"*****1sbbsjbbbklswbblwblbblwwwbr1slbsbslbwb184bbsssbsbbwbuwwrwws",
"b***bblb8sbwbsbsbbbsssbblbwwwww1ll*s1bjbwwwbsjb87bljssww8gd;wwjb",
"bb*ljbbjjb;wwjrbbwbsbkbsslswwwlbb***w8swwwwwsblbbjbbbwwww1dbhbll",
"874bbbbb8wwwwwsbwwwbsbbbrbbbwlkb*****;lswwwbbllbujb7lb8w;bk*s8bj",
"lljs88l8lb*w;bjwwwwwsbbsbbwsrbsjb***wwwsbwblbbsbb8bsbbbwbl***b4s",
"bsbbbbbsb***b7lbwwwbbbbbbwwwlr1swl*w8wbsssbbbsbb;bs*l1srb*****8l",
"sbbwbsbl*****1bbbwblbbbbwwwwwsbw;;4swblbblbssbbwww***b8ljs***bbl",
"bbwwwbsjb***bsssssbbbbblbwwwbbwwww8r18bbbbbbbbwww*****88blb*bjbb",
"bwwwww1bbb*bjbbbblbssbsbbbwbllbwwwbblbssbbbbblbw8w***bbbl884bblb",
"lbwwwbbb884bbbbbbbbbbbbbsssbsbbbwblbbbbbbbbbsbb8wbl*bjbbbbljb88b"
};
