/* XPM */
static char *c43625762a2e478bb18aece43cf7ed18BonccF9TfbZdqGPQ[] = {
/* columns rows colors chars-per-pixel */
"64 64 66 1 ",
"  c gray2",
". c #130405",
"X c #140709",
"o c #24060B",
"O c #20090D",
"+ c #30060E",
"@ c #4C0613",
"# c #4F121C",
"$ c #750109",
"% c #7A030B",
"& c #760611",
"* c #780410",
"= c #750813",
"- c #730C1C",
"; c #7D0D1E",
": c #77151D",
"> c #7A141D",
", c #791A1E",
"< c #67231A",
"1 c #7F0F21",
"2 c #691724",
"3 c #771625",
"4 c #7B1424",
"5 c #771827",
"6 c #781827",
"7 c #781929",
"8 c #1F4709",
"9 c #1F4809",
"0 c #20460A",
"q c #254F0B",
"w c #26530C",
"e c #28550D",
"r c #26590A",
"t c #2A5A0E",
"y c #2E5E10",
"u c #2D620E",
"i c #31670F",
"p c #31690E",
"a c #2E6210",
"s c #2F6610",
"d c #306310",
"f c #326612",
"g c #306911",
"h c #336A12",
"j c #346B11",
"k c #336D10",
"l c #346E13",
"z c #366E14",
"x c #377213",
"c c #377413",
"v c #377214",
"b c #397613",
"n c #387214",
"m c #3A7714",
"M c #3B7816",
"N c #445014",
"B c #4C5C17",
"V c #83070E",
"C c #85080F",
"Z c #870910",
"A c #84071F",
"S c #810A1B",
"D c #820B1F",
"F c #820E1F",
"G c #800D20",
"H c gray99",
/* pixels */
"qqqqqqhqqqqqqwewqhweteqeqqhqqwwqqqqqeqwwqeqqewqqqqeeqhqqeqqqqqqq",
"hqqeqhqqMqhqeeeuewteqeeeqhwwfqfweqqeeqheqeewqqqqqqqhqqqqqeqqqqqq",
"qqqqqqqMMMqletlwubqmtmeyteemMMqeqqqqhqeqqyeeheqewqhqqMqlqeqqqqqq",
"MqhqeqMMMlmluvexmqqqleyyytfmyMehwqqeeexqyeyeeqqqqwqqMMMehhqqeqqq",
"MMqhqeqlMMqvnhmmqqqqqyyyyytdtyqeqqqtwMmeydyyfyheewqMMMMMhqqqqqqq",
"MMMhhqqqlwnhtmmqqqqqtmyyyxuuyyyqqqqqtmtbdqftytyheeeqmMMqqMqhqeqq",
"MMqqqqhwswqhMheMqqqfvmmymaxieytuqqqkhumbqqqyeyyyehqeqMqeMMMqhqqq",
"MqeqqqqqqqaqeesheqehlffffmtyiwpsxqkhmkkqqqqqeyyqqyqahjqMMMMMhqqq",
"lqqqqqeqqqqxqeseeehmeekbmeyyqueewwewwwhsqqqlayewyyyheeehMMMqqqqq",
"eqhhqeeqqqqqqqqee    xkukyyqqqeqtwwwewrBNqltateyyyyyehqqqMqeqqqq",
"qqqqqqaqqqqqqqqw ZZZZ   uuqqqqqwwqeqeoo@oXrsehhayyyMqhqlhlqqqeqq",
"qqqqqwqqmeqqqqq ZZZZZZZ  eeqqqkeeqq oDZZZZ+o.eeqqyMmMqhqqeqlhqqq",
"qqqqqqqewwqqqq ZZZZZZZZZZ  eqqqeeq  ZZ>ZZ4SFO weefMMMMhqqqeeqhqq",
"qqqqqqmeqhwqeq ZZZZZZZZZZZ  eeaqh ZZZZF1ZC;D*F..ewMffqqqqqqhqqqq",
"qqqqqeemvqqqq ZZZZHZZZZZZZZ  mqe  ZZZZ4ZZ4*44GGG  qMqeqwqqhqqMqh",
"qqqqlqhqlm0hq ZZZZHZZZZZZZZZZ mf ZZ>ZZZZZ*4D$D$FDD lqwqqqqqqMMMq",
"qqqeeqnhmmmqh ZZZZHZZZZZZZZZZZ  ZZ<;ZZZZZZZ$$$>*1G ewhheqqwMMMMM",
"qqqqhqqmmmmmh ZZZZHHZZZZZZZZZZ XZZFZZZZZZZ$$$$$&%DD qeqqqqeqMMMq",
"qqqhqqmqmmmqq ZZZZZHZZZZZZZZZZ oZ>ZZZ1ZZZ;4$$$$$4%FXeeqyqaewqMqe",
"qqqqqmMMqmqeq ZZZZZHHZZZZZZZZZZZZFZZZZZZ%Z%C$$$$$&AF hyyyqehllqq",
"qqqqMMMlcjqqq ZZZZZZHZZZZZZZZZZZZZZZZZZZZZ%$$$$$$4;FXyyyyyeeqeqh",
"qqqeqMMeqeqhh ZZZZZZHZZZZZZZZZZZZZZZZ4ZZZZ%$$$$$$%S4 qyyyelqhqqe",
"qqhqqqMwwqqqqq ZZZZ>ZZZZZZZZZZZZZZZZ1ZZZZZV%$$$$$$34 mMyMmnqqqqq",
"qqqqhhzwqqqqqq ZZ,ZZZZZZZZZZZZZZZZZZZZZ1Z%Z%$$$$$$GF effMhqqMqhq",
"qqqqqqehwqqqqqq ZZZ>ZZZZZZZZZZZZZZZZZ4ZZZZ$%$$$$$&FF qqmqeeMMMqh",
"qqqqqqhqqwqqqqq ZZZ:>ZZZZZZZZZZZZZZZGZZZZZ%V$$$$$D4F hvlqeMMMMMh",
"qqqqqqqqewqqqqeq ZZ:ZZZZZZZZZZZZZZZ1ZZZZZC%$$$$$$%44 qqeqlhMMMqq",
"qqqqqeqMevqqeqqq ZZ:>ZZZZZZZZZZZZZZZZ4ZCZZ%Z$$$==%D qqMqnqeqMqeq",
"qqqeqqeqtlqeeqhqq ZZ:ZZZZZZZZZZZZZZZGZCCC$ZZ$$$;%*F eMMMqhhhlqqq",
"qqeeqnqqwlqqhqqqqq Z:ZZZZZZZZZZZZZZZZ4C%CZZ$$$$$=DF MMMMMhqqeqhh",
"qqqhqqqhwwqhqqmqhe ZZ:ZZZZZZZZZZZZZZZC%Z=$C%$$$&*44 qMmMqqeqqqqq",
"qqhqqMehqwqqqmmmqxM ZZ:FZZZZZZZZZZZZZC&C$$$C%$Z;DFF hqMqeeeqhqqe",
"qqqqMMMqnqqqmmmmmckM ZZ:ZZZZZZZZZZZZZ%&$$$$$$%446F yhflwqqhqqqqq",
"qqqMMMMMhqqeqbmmqwhM  ZZZ:ZZZZZZZZZZC&C$$$$%441&=F yyheqhnqqMqhq",
"qqeqMMMqMqxwqqmqeqsqe  Z:ZZZZZZZZZZZZ$$$$$$$456;F yyyyeqeqqMMMqh",
"qhqqqMeMMeeehvjqeqsqeq ZZZZZZZZZZZZZ&C$$$$$&GDFFF yyyqeqqqMMMMMh",
"qqqhllMMMMehqqeqhhwwlh  ZZ,:ZZZZZZZZ%C$$$$&&*D4F- lyqeeqheqMMMqq",
"qqqeeehMMMhqqMqhqeqetwq  ZZZZZZZZZZZ%$$$$$=5FFF: eeehhhqhqqqMqeq",
"qqqqnqqqMqwqMMMqhqwewhMe  ZZZZZZZZZZCZ$$$7==4FF eqqeqaeqMqnhzqqq",
"qqqhqqMhmqwMMMMMhqqhqtmmqq ZZ;ZZZZZ%ZZZ$4;**F: qweeeqqqMMMqheqhh",
"qqqqqMMMehlwMMMqqqhqwmxlqh  ZZZ>ZZZ64%*&11654 qqeeqhqqMMmMMhqqeq",
"qqqqMMMMMnqqqMqeqqqwbmfhhwq  ZZ:ZZZ1Z1431*=6 qqqqhqqqewMMMqqeqqq",
"qqqeqMMMeqhhhlqqqqqmfmmmhbqh  ZZZ>4ZZ471G652wqeqhqqMhhwefqeeeqhq",
"qqhqqqMqlqqqqeqfhqeemmywfmbqh  ZZ>ZZ444GF4#wqhqqqqMMMqfhlqqqhqqq",
"qqqqhhlhqqMqhqeq8hqhqyyybfbmhq  ZZZZZZGZ4#ttmhqqqMMMMfhqyqanwqMq",
"qqqqqqeqhMMMqhwqqqqhyyyyyfmeqqq ZZZZ>ZZZ MeeqqqqeqMMMqqyyyqeqMMM",
"qqqqqqeqMMMMMhqqw8qwmyyybbqeqqq  ZZZZZZ wqeeewqhqeqMqeyyyyyeMMMM",
"qqqqeqqeqMMMqqqqqqeeqmymbhhqeqeq ZZZZZ qqwyeeqqqelhmqweyyyqeqMMM",
"qqqeeqnqqeMqeqqqqqh0eefmbmqxhhqq  ZZZ hyyyyyahqqqhqeehhqyqhqewMq",
"qqqqhqqqhhlqqqqqqqwqihbmffmhqqqhh Z  qwqyyyqeqqqhqqMqheeeqeqhhlq",
"qqqhqqMqhqeqhhqqqqqqwqembbqqqqeeq   heqMMyqhqqqqqqMMMqhqweeehqee",
"qqqqqMMMqhqeqqqqqqqehw0qmqeqqqqhqq waqMfffMhqqqqqMMMMMhqqqhqqqqq",
"qqqqMMMMMlqqqqqqqqeqeefhhqqqqqhqqmqhqeqMMmqeeqqqeqMMMqqqqhqqMqhq",
"qqqeqMMMeeqhqqeqehqqqeq0eqhhqqqqmmmqhqeeMheqeqqlqeeMheqeqqqMMMqh",
"qqhqqeMqehqqqqqeeqhhhwq00qqqqqqmmmmmhqhnlqqqqeqqqhnlqqqqqqMMMMMh",
"qqqehhlqhqqMqhqehqqqqeqqqqqqqqeqmmmqqqhqeMhneeqhqheeMhnqeeqMMMqq",
"qqeeqheqlhMMMqhhqqMqhqewqqqqqhqqqmqeqqqqMMMqhhqqqqqMMMqlhqqqMqeq",
"qqqhqqqqqMMMMMhqqMMMqhqhqqqqqqqhhhqqeqqMMMMMnqqMqhMMMMMlqhhhzqqq",
"qqhqqMqheeMMMqqqMMMMMhhqqw0qqqqqqeqhhqeqMMMqqqMMMehMMMqhqqqqeqhh",
"qqqqMMMhhqqMqeqeqMMMqqqqMMqqqqqqqeqhqlqqqMqeqMMMMMhqMqlqqMqhqeqq",
"qqqMMMMMhhhlqqhqqqMqeqqMMMMM89qqweeqhqqhhlqqeqMMMqhhlqqqMMMqhqqq",
"qqeqMMMqqqqeqhhqhhlqqqeqMMMqqqqMeeMMhqqqqeqnhqqMqeqqeqhMMMMMhqqq",
"qhqqqMqeqqqqqqqqqqeqhnqqqMqeqqeqMMMqqqqqqqqqqhhlqqqqqqeqMMMqqqqq",
"qqqhhlqqqqqqqqqqqqqqqqqhhlqqqhqqqMqeqqqqqqqqqqqeqhhqqhqqqMqeqqqq"
};
