/* XPM */
static char *_7721194316f4457ec7b52048dec519bMc9dIdWsp9Tbgorc[] = {
/* columns rows colors chars-per-pixel */
"64 64 32 1 ",
"  c None",
". c black",
"X c #090909",
"o c #130202",
"O c #2D2D2D",
"+ c #503F3F",
"@ c #7E2222",
"# c #792424",
"$ c #7A2525",
"% c #7E2929",
"& c #464646",
"* c #5B4A4A",
"= c #656565",
"- c #686868",
"; c #6D6D6D",
": c #726161",
"> c #8C1919",
", c #961313",
"< c #961414",
"1 c #990030",
"2 c #8A2E2E",
"3 c #9A2727",
"4 c #873232",
"5 c #9E4242",
"6 c #9C4747",
"7 c #A14C4C",
"8 c gray60",
"9 c #A39292",
"0 c #B09F9F",
"q c gray65",
"w c #B4B4B4",
"e c white",
/* pixels */
"                                                                ",
"                                                                ",
"           ................     .....               ......      ",
"          ..wwwwwwwwwwwwww..XX.O.wqw....          ..wwwwwX      ",
"        ..wwwwwwwwwwwwwwwwwww;wwwwwwwwww...    ...wwwwwqww.     ",
"      ..wwwwwwwwwwwwwwwwwwww;ww&w;wqwwwwww.....wwwwwwwqqw;w.    ",
"     ...wwwwwwwwwwwwwwwwwwwwww&&&w;wwwwwwwwwwwwwwwwwwww;www.    ",
"     .wwwwwwwwwwwwwwwwwwwwwww&&&&&;wwwwww&&&&&&wwwwwww;ww&wO.   ",
"     .wwwwwwwww&&&&&wwwwwwwwqw&&&wwwwww&&111111&&&wwwwww&&&wO   ",
"    .wwwwwwww&&11111&&&&&ww;www&wqwwww&&111111111&&wwww&&&&&O   ",
"    .wwwwwww&&1111e11111&&www;;=wwwww&1111111111111&wwqw&&&w.   ",
"   ..wwwwww&111111e111111&&wwwwqw;;w&11111111ee1111&w;www&wq.   ",
"   .wwwwwww&1111ee111111111&wwwwwww&&111111ee111111&www;;=ww.   ",
"   .wwwwww&&111ee1111111111&wwwwwww&111111ee1111111&wwwwwqw;O   ",
"    .wwwww&111ee11111111111&&wwwwww&11111ee11111111&wwwwwwww.   ",
"    .wwwww&1ee11111111111111&wwwwww&11111e111111111&wwwwwwww.   ",
"    ..wwww&1e111111111111111&wwwwww&11111e111111111&wwwwwwww.   ",
"     .wwww&11111111111111111&wwwwww&11111e111111111&wwwwwww.    ",
"     .wwww&11111111111111111&wwwwww&11111e111111111&wwwwwww.    ",
"      .wwww&1111111111111111&wwwww&11111e111111111&wwwwwww.     ",
"       .www&1111111111111111&wwwww&111111111111111&wwwwww.      ",
"       .www&&11111111111111&&wwwww&11111111111111&&wwwwww.      ",
"       .wwww&11111111111111&wwwwww&1111111111111&&0wwwww.       ",
"       .wwww&&1111111111111&wwwwwww&111111111111+wwwwwww.       ",
"      ..wwwww&11111111111111&wwww&&&&&1111111&&+0w7ww0w.        ",
"      .wwwwwww&1111111111111&&&&&wwww&&&&&&&&&ww7wwwww..        ",
"      .wwwwwww&&111111111&&&&wwwwwwwwwwwwwwwwww7ww<w7wo         ",
"      .wwwwwwww+&&&&&&&&&&wwwwwwwwwwwwwwwwwwwwwwq<<<w7.         ",
"     ..wwwwww0wwwwwwwwwwwwwwwwwwwwwwwwwwwwwwwwqw<<<<<7.         ",
"     .wwwwww00w7wq0wwwwwwwwwwwwwwwwwwwwwwwwwwqq0;<<<ww.         ",
"     .wwwwwww7wqwwwwwwwwwwwwwwwwwwwwwwwww&wwww4wqw<w0w.         ",
"      .wwwww7wq<w4w0qwwwwwwwwwwwwwwwwwwww&www:qw$72wqw.         ",
"      ..wwwwww<<<w7wwwwwwwwwwwwwwwwwwwwww&w0wqq&&&0-77.         ",
"       .wwwww<<,<<6;wqwwww&wwwwwwwwwwwww&&00w7&&+&&;ww.         ",
"        .www00<<<&&w;wwwww&&wwwwwwwwwww&&ww7q-w&&&;wqw.         ",
"        .ww700w,&++&;qwwwww&&&wwwwwww&&&ww6w;<w$&+q;ww.         ",
"         .www365&&&wwwwwwwwww&&wwww&&&wwwqqw<<<&$&&;ww.         ",
"         .ww7;w<w>$9;wqwwwwwwww&&&&&wwwwww;<<<<<$&;;w.          ",
"         .wwww<<<&$&w;wwwwwwwwwwwwwwwwwww;0w<<<w&wqww.          ",
"          .ww<<<<<$&&;wwwwwwwwwwwwwwwwwww7w&&<;*=www.           ",
"          .w0w<<<&&&wwwwwwwwwwwwwwwwwwwwww&$$@&;qw;O            ",
"          .7ww;<w0&wqwwwwwwwwwwwwwwwwwwwwqw&&+w77w.             ",
"          .ww775;;=wwwwwwwwwwwwwwwwwwwww;www&wqww..             ",
"          .wwww0w76w;;wwwwwwwwwqwwwwwwwwww;;=wwww.              ",
"         .wwwwwwwwwwwwwwwwwwwqwwwwwww0wwwwwwqw;;w.              ",
"         .wwwwwwwwwwwwwwwwwwqqw;wwq0wwwwwwwwwwwww.              ",
"         .wwwwwwwwwwwwwwwwwww;wwww90w7ww0wwwwwwww.              ",
"         .wwwwwwwwwwwwwwwwww;ww&q;w6wwwwwwwwwwwww.              ",
"         .wwwwwwwwwwwwwwwwwwww&&&w%ww<w7w0wwwwwww.              ",
"         .wwwwwwwwwwwwwwwwwww&&&&&;w<<<w7wwwwwwww.              ",
"         ..wwwwwwwwwwwwwwwwwqw&&&w&<<<<<7wwwwwwwww.             ",
"          ..wwwwwwwwwwwwwww;www&w&+&<<<wwwwwwwwwww.             ",
"            ...wwwwwwwwwwwwww;;=&$&&&<w0wwwwwwwwww.             ",
"               ......wwwwwwwwww8w&&$75wwwwwwwwwww.              ",
"                    ...wwwwwww;www&wq0w77wwwwwwww.              ",
"                      ..wwwwwwww;;=wwwwwwwwwwwww..              ",
"                        ...wwwwwwwqw;;wwwwwwwww..               ",
"                          ......wwwwwwwwwww....                 ",
"                                ...........                     ",
"                                                                ",
"                                                                ",
"                                                                ",
"                                                                ",
"                                                                "
};
