/* XPM */
static char *ee30631ff31b4f9ed443886f55881855q7CjOBJeBD4pzwQZ[] = {
/* columns rows colors chars-per-pixel */
"64 64 191 2 ",
"   c None",
".  c black",
"X  c #201A07",
"o  c #343E2D",
"O  c #5C6D4F",
"+  c #624774",
"@  c #747474",
"#  c #A07F24",
"$  c #BB6A37",
"%  c #FF7E00",
"&  c #F47B0C",
"*  c #E97A19",
"=  c #C8763D",
"-  c #D17A3D",
";  c #AC725B",
":  c #B77953",
">  c #8C6970",
",  c #B47D62",
"<  c #C67B48",
"1  c #C37950",
"2  c #3FAA42",
"3  c #22B14C",
"4  c #3EB449",
"5  c #3EB652",
"6  c #56B747",
"7  c #B18F1B",
"8  c #B6903F",
"9  c #B79834",
"0  c #ACBD3F",
"q  c #B9BF3E",
"w  c #FE8503",
"e  c #FF8E02",
"r  c #F7830B",
"t  c #FF9606",
"y  c #ED811A",
"u  c #ED8116",
"i  c #F6851A",
"p  c #FC9714",
"a  c #FC9C12",
"s  c #FFAA0A",
"d  c #FEA60F",
"f  c #FFBA0C",
"g  c #FFB10A",
"h  c #F4AD1B",
"j  c #FCA819",
"k  c #FCBC13",
"l  c #FBB21C",
"z  c #F2B11C",
"x  c #EEB319",
"c  c #DC8837",
"v  c #D48D35",
"b  c #E78627",
"n  c #F68C25",
"m  c #F58D2B",
"M  c #F18721",
"N  c #F69325",
"B  c #F59D2D",
"V  c #EC923A",
"C  c #F49132",
"Z  c #F49933",
"A  c #F2933A",
"S  c #E99336",
"D  c #DFB237",
"F  c #ECAB24",
"G  c #F6A32B",
"H  c #F8AD25",
"J  c #F4B622",
"K  c #F2AA3A",
"L  c #F7BC33",
"P  c #EFB822",
"I  c #FFC20E",
"U  c #FCC21D",
"Y  c #DDC23A",
"T  c #FAC22A",
"R  c #F7C539",
"E  c #F8C433",
"W  c #F5D138",
"Q  c #B79757",
"!  c #BE9C46",
"~  c #BEA774",
"^  c #BDA874",
"/  c #CD874A",
"(  c #CB8147",
")  c #D68942",
"_  c #CE8B59",
"`  c #EA9749",
"'  c #E39349",
"]  c #E38D44",
"[  c #C0A540",
"{  c #CAA54F",
"}  c #D1AF49",
"|  c #D2B54C",
" . c #C3A559",
".. c #CAAE53",
"X. c #CBB253",
"o. c #D5BA5F",
"O. c #EFA942",
"+. c #EEA94C",
"@. c #F0AA42",
"#. c #EAB94D",
"$. c #E8AB58",
"%. c #E9B95E",
"&. c #C5956D",
"*. c #C8A866",
"=. c #C7B46E",
"-. c #C8B56E",
";. c #CEB765",
":. c #CEA476",
">. c #E3BB6A",
",. c #F3BD63",
"<. c #AAC76A",
"1. c #F1CA4B",
"2. c #F3C944",
"3. c #EDCB59",
"4. c #F0D25B",
"5. c #E9C764",
"6. c #EAD765",
"7. c #EBD866",
"8. c #E7D367",
"9. c #F5D47A",
"0. c #F5C86A",
"q. c #2F3699",
"w. c #3C4BB3",
"e. c #4A438B",
"r. c #4A4E97",
"t. c #604D81",
"y. c #6F6E83",
"u. c #4659AD",
"i. c #545BA3",
"p. c #5867A1",
"a. c #707DB6",
"s. c #5B7DDE",
"d. c #5373DF",
"f. c #6B74C5",
"g. c #697DCC",
"h. c #5572E3",
"j. c #5978E0",
"k. c #7A8EB7",
"l. c #7E85AE",
"z. c #5E82DB",
"x. c #728AC4",
"c. c #668CD7",
"v. c #688ED6",
"b. c #6185D9",
"n. c #6289D9",
"m. c #6C95D3",
"M. c #6F99D1",
"N. c #709AD1",
"B. c #688DCA",
"V. c #96929A",
"C. c #ACA88D",
"Z. c #9196A4",
"A. c #8395B6",
"S. c #829EB7",
"D. c #829ABD",
"F. c #8195BB",
"G. c #82A0BD",
"H. c #94ADAD",
"J. c #B4AFBD",
"K. c #B4B4B4",
"L. c #B7B1AA",
"P. c #C7A98B",
"I. c #C9BC93",
"U. c #C5AA90",
"Y. c #C2AAB8",
"T. c #B8DAA4",
"R. c #BEE1B7",
"E. c #C2D795",
"W. c #ECDF8C",
"Q. c #D8E89B",
"!. c #E9E291",
"~. c #E7E090",
"^. c #C5EAAD",
"/. c #D9EAA4",
"(. c #D6EFA7",
"). c #D7F3AB",
"_. c #D8F4AB",
"`. c #D8F6AC",
"'. c #CFEFBF",
"]. c #C7EAB4",
"[. c #CCF3BA",
"{. c #D6F5B2",
"}. c #D7F9B3",
"|. c #D0F6BA",
" X c #D3FABB",
".X c #D9F7B4",
"XX c #89B3CB",
"oX c #BEAAC0",
"OX c #B4A6CE",
"+X c #B5A5D5",
"@X c #BDBBCE",
/* pixels */
"K.K.K.  I.    R   R   Y.  2.                      R           9.9.9.  9.  K             I                         A   A K.K.K.  ",
"K.K.K.K.K.  R R R +X5.  1.@X  R   1.          2.            9.9.9.9.9.0.%   L W K   B 2.5.  W   1.  %.        A m   A K.K.K.K.K.",
"K.K.K.    R R R R R [ O ^.^.R R R ^.[ O O o 9 o o R O [ O Q.^.9.9.9.].^.^.^.O O O o o o o o o o o o o . o . . . . . ` A K.K.K.  ",
"  K.        R R R .  X'.'.R R R R R 6. X X X X[.R R R  X4.[.[.(.9./.]._.#.#._.`._. X{.}.{.}.}.}.}.}.}. X{.K     A @ A A ` K.A ` ",
"K.K.  R       R +XE.'. X). XR R R  X X X].].R.R R R R R 8. X!.!.W. X X X X X X X).).(.).`.`.)._.{.{.{.A `.A % $.A . A P.P.U.P.  ",
"      K.J.R R >.+X. +X6. X X XR 3 4 3 3 3  X_. XR R R  X X X X X.X X!.!. X X X X X X X X X X X X X X X X X{.).>.$.. A A K.`   L.",
"K.  OX          +X# 6. X X6.7.q 3 3 3 3 3 7. X X XR  X). X X X X X X X X X X X X3 3  X X3 3 3 3 3 3 3  X X X(./.G . n P.A A K.  ",
"  J.    +X+X+X    o   _. X X X4 3 6.6. X X X X7.7.4. X X3 3  X X X3 3 3  X X X X3 3  X X3 3 3 3 3 3 3  X_. X X X#.. %     K.K.K.",
"K.K.  +X+X+X  +X|.E. X X X X X3 3  X X X X X X X X). X6.0 3 3  X X3 3 3  X X X X2 5  X X X X3 3  X X X).). X6. X% X w G K.K.K.K.",
"    +X+X+X+X+X+X  X  X6. X X).3 3 3 4 3 3  X X X X X X X X3 3  X3 3 3  X X X/.{.3 3  X X X X3 3  X X X X6. X X/.I . s M w K.K.K.",
"    +X+X+X+X      #     p.XX X3 6 3 3 3 2  X X). X X X X X3 3 3 3 3  X X X/.Q.{.7 <. X/.{. X3 3  X X X6. X XR I T . :.s % % K.  ",
"+X+X    +X  Y.  2..   R N.6._.6 4  X3. X XQ. X X X X X X X). X3 3 3  X X X XO.!.3 3  X X X X3 3  X X X X XR R R I # I s K.K.K.  ",
"K.K.+X+XoX+X  +X  . R R R H.6.3 Y /./._.K _. X3. X X_._. X X3 3 3 3 3  X X@.!. X% 9.@.!./..X3 3  X X X XR R R R R # s   % %     ",
"    +XoXoX+X>.+X  R R R R R 1.0 3 3 p 3 0 7._. X X X_._. X0 3 3 _.3 3 3  X X X% 9.9.9.O.!.).3 W `. X X_.|.R R R I . I   I %     ",
"      +X>.+X      . R R R | ].3 R p R R % 6.O.R /.6.^.9 E.3 3 (.|.|.3 3 |.|.% 9.9.9.9.9.~.|.[.[.T.. # . . . R . X . % t         ",
"+X    R +X  R R Q N.G.R n.x.h.R R R R % % % R p R  XR |.|.E h.~ h.i.w.2 e.e.r.% 9.9.9.d * G x I w w % % H H T N w I d I % w     ",
"    +X+X+XR R R q.#.-.;.n.h.R R R R % % % % % p R L *.s.a E R { ~ f.x.a.) C.$ y.% 0.> C ; Z ! g % f f w % N w % T T I % g %     ",
"        R R R R R -.m.x.h.*.#.R R L R % % % R R R M.< R R U R R *.f.s./ / Z.) %.+.E.i + q.A q.n % j s % n / % A I G I k s I     ",
"          R R R N.N.m.h.~ h.z.M.p -.o.-.% N.A.R M.) g.m.s R p I f.F m.) l.C.% P b V.e $.,.m A e.n Z.% N e / A A A I G w % %     ",
"    R       R N.G.N.h.h.N.s.-.=.;.N.) / M #.-.;.s.^ m.% % % I I I n.X.% S.f % s & c u w A m m A V V e b.k A A A A A n t %   %   ",
"        R R Q N.N.N.h.h.h.h.M.m.D.N.-.-.A.M.< ( m.-.% % % I I I I I s % f s % I % f % v w m n &., N.f A t n A A A d % n %       ",
"          q.G.N.-.-.h.h.h.m.M.N.N.N.N.N.M.z.h.m.m.f.h.% w % I I I % % % s % I I I s f w y % = > u.A A A A k.n A % m % s s       ",
"          q.N.N.N.N.h.h.h.v.M.N.N.N.N.N.m.m.M.m.1 j.n...% s.A.I F.S.% % % I I I I I f % % % y A.m A A A A A C m n % % Z % A     ",
"        q.N.N.N.N.h.h.h.h.M.N.N.N.N.N.M.m.M.m.h.j.h.1 1 <  . .h v.M.m.% v I I I I I s % % % % Z A C A A A = w k % N A A A   A   ",
"        q.N.N.N.N.h.h.h.h.M.N.N.N.N.N.M.m.m.h.h.h.h.h.h.f.h.1 ( m.F F k S.M.I I I e % % % w $ & A m Z A D.w N./ w Z A l A A Z   ",
"        q.N.N.N.N.h.h.h.m.m.N.N.N.N.N.M.m.N.h.h.h.h.h.h.h.h.h.h.h.s.m.} N.k f I u y % % w w % 8 r m c ' k.; &.$ ) h A A A       ",
"        q.N.N.N.N.h.h.h.v.m.N.N.N.N.N.M.m.h.h.h.h.h.h.h.n.h.h.h.s.h.m.m.v.X. .z * f f % % s % w r M } &.; : ; &.! ' ; I % k     ",
"        q.N.N.N.N.h.h.h.m.v.N.N.N.N.N.M.s.h.h.h.h.h.n.h.h.h.h.h.h.h.h.N.v.s.h.S.N.F h b s % % I s d r c < m A ; V ] I I I A l   ",
"      q.N.N.N.N.N.h.h.h.m.s.N.N.N.N.N.M.h.z.h.h.h.n.h.h.N.h.v.h.h.h.h.h.s.n.s.h.h.y N.V.h.% I I I N.I u.l C Z A ; I I I I I l A ",
"      q.N.N.N.N.N.h.h.h.m.s.N.N.N.N.N.M.m.s.h.h.h.d.h.N.M.N.h.n.h.h.h.h.h.v.n.h.N.N./ y y I I I I I I I w l m A Z A I I I A A A ",
"      q.N.N.N.N.N.h.h.h.m.h.m.N.N.N.N.N.M.s.s.h.h.h.N.M.M.N.M.n.h.s.h.h.h.h.h.s.n.N.M.N.( - I I I I I I I s C l t.D.A I A Z     ",
"      q.N.N.N.N.N.h.h.h.n.h.m.N.N.N.N.N.m.m.h.h.h.h.h.N.M.N.n.h.h.h.h.h.h.h.v.h.h.v.N. .v.n.f.I % I I I % % A ) : l H l A A   A ",
"      q.N.N.N.N.N.h.m.h.h.m.v.M.N.N.N.N.N.M.s.h.n.h.h.m.N.h.N.h.m.h.s.h.h.h.h.n.n.v.v.h.h. .P D % % I % w i _ q.A A A V Z l l A ",
"      q.N.N.N.N.N.h.m.h.h.m.h.M.N.N.N.N.N.m.z.h.h.h.n.m.v.N.N.N.n.m.h.h.h.h.n.h.h.N.h.n.n.y * Z.X.f f % V.D.e.A A A Z A A A A A ",
"      q.N.N.N.N.N.h.m.h.h.h.m.M.N.N.N.N.N.M.z.h.h.h.h.h.N.N.N.N.N.m.h.n.h.h.j.h.N.N.N.h.n.h.1 y % % w M.} ..D.q.A Z Z A l A A Z ",
"      q.N.N.N.N.N.h.s.h.h.h.n.s.N.N.N.N.N.M.h.s.h.h.h.s.N.N.N.N.N.m.h.h.h.h.h.N.N.N.N.N.n.h.h.m./ c b y % r M.M.q.A } e.A A A   ",
"      q.N.N.N.N.N.N.h.h.h.h.m.s.N.N.N.N.N.M.m.z.h.h.m.h.h.N.N.N.v.h.h.N.h.n.h.m.N.N.N.h.h.h.h.m.m.N.A.M./ / u., , H N.) I A I   ",
"      q.N.N.N.N.N.N.h.v.h.h.m.s.m.N.N.N.N.N.M.h.s.h.n.h.m.m.N.h.h.h.N.N.N.n.v.s.s.N.h.h.h.h.h.n.m.N.N.M.N.N.M.M.B.D.u.I I I   l ",
"      q.N.N.N.N.N.N.h.N.h.h.m.h.m.N.N.N.N.N.M.s.z.h.h.h.n.n.m.h.m.N.N.N.N.N.n.m.v.m.h.h.h.h.h.m.m.N.N.M.N.N.M.N.N.N.I I I I I l ",
"        q.N.N.N.N.N.N.h.h.h.h.m.m.N.N.N.N.N.m.M.s.n.h.h.h.h.h.h.v.n.N.N.N.h.N.N.h.s.h.n.n.h.h.m.M.N.N.M.N.N.M.M.N.S.q.I I I     ",
"        q.N.N.N.N.N.N.h.N.h.h.m.h.m.N.N.N.N.N.M.m.z.z.h.h.h.h.n.h.h.h.N.h.m.m.N.m.h.h.h.h.h.h.M.m.N.N.M.N.N.M.N.X.N.q.  I       ",
"        q.N.N.N.N.N.N.N.h.h.h.n.h.m.m.N.N.N.N.N.M.m.s.z.z.h.h.h.h.n.n.v.h.h.N.N.h.h.h.h.h.h.h.M.m.N.N.M.N.N.M.N.N.N.8 I I       ",
"        q.N.N.N.N.N.N.m.h.h.h.h.m.n.v.N.N.N.N.N.m.M.m.s.s.s.s.s.j.n.m.s.h.n.v.s.h.h.h.h.h.z.n.m.N.N.N.M.N.M.M.N.N.N.q.      I I ",
"        q.N.N.N.N.N.s.N.m.h.h.h.h.m.m.m.N.N.N.N.N.N.M.M.m.m.s.s.n.M.s.s.N.N.N.N.h.h.s.z.z.z.s.M.N.N.N.M.N.M.N.N.N.N.q.          ",
"          q.N.N.N.N.N.N.h.h.h.h.h.m.h.m.m.N.N.N.N.N.N.M.M.n.m.m.v.z.s.N.M.N.M.M.v.z.s.s.h.M.M.s.N.N.N.M.N.M.N.N.N.q.            ",
"          q.N.N.N.N.N.N.s.N.h.h.h.h.m.m.m.m.N.N.N.N.N.N.N.N.M.m.n.m.M.M.M.M.M.n.v.s.m.M.M.m.m.N.N.N.M.N.N.M.M.N.N.q.            ",
"            q.N.N.N.N.N.N.h.h.h.h.h.h.m.m.m.m.N.N.N.N.N.N.N.N.N.N.M.m.M.M.M.M.m.m.M.M.v.s.N.N.N.N.N.M.N.M.m.N.N.q.              ",
"            q.N.N.N.N.N.m.h.h.h.h.h.h.h.m.M.m.m.N.N.N.N.N.N.N.N.N.N.N.N.M.M.m.M.m.v.N.N.N.N.N.N.N.N.M.m.m.M.N.N.q.              ",
"            q.N.N.N.N.h.m.N.h.h.h.h.h.h.h.m.M.M.M.N.N.N.N.N.N.N.N.N.N.N.N.N.N.N.N.N.N.N.N.N.N.N.N.N.M.s.v.N.N.N.q.              ",
"              q.N.N.N.s.N.h.h.h.N.h.N.h.h.h.h.M.M.M.M.N.N.N.N.N.N.N.N.N.N.N.N.N.N.N.N.N.N.N.N.N.N.m.n.h.M.M.N.q.                ",
"                q.N.N.N.N.s.s.s.s.h.h.h.h.h.h.h.h.m.M.M.M.M.N.N.N.N.N.N.N.N.N.N.N.N.N.N.N.N.N.M.m.s.h.M.M.N.q.                  ",
"                q.N.N.N.N.N.N.m.N.s.h.h.h.h.h.h.h.h.h.s.m.M.M.M.m.N.N.N.N.N.N.N.N.N.N.N.N.M.v.s.m.m.M.M.N.N.q.                  ",
"                  q.N.N.N.N.N.N.N.h.h.h.h.h.h.h.h.h.h.h.h.h.s.m.M.M.M.M.N.N.N.N.N.N.M.M.v.s.h.M.m.v.N.N.N.q.                    ",
"                    q.N.N.N.N.N.m.N.h.h.h.h.h.h.h.h.h.h.h.h.h.h.h.s.m.M.M.M.M.M.m.m.s.s.m.M.M.N.h.h.N.N.q.                      ",
"                    q.N.N.N.N.s.N.N.N.h.N.v.h.h.h.h.h.h.h.h.h.h.h.h.h.h.s.h.m.M.m.M.m.M.m.n.N.h.h.N.N.N.q.                      ",
"                      q.N.N.N.N.N.s.s.s.h.h.s.N.h.h.h.h.h.h.h.h.h.h.h.h.h.h.h.h.h.h.h.h.s.N.h.h.N.N.N.q.                        ",
"                        q.N.N.N.N.N.N.m.N.s.h.h.h.h.h.h.h.h.h.h.h.h.h.h.h.h.h.h.h.h.h.n.N.h.h.N.N.N.q.                          ",
"                          q.N.N.N.N.N.N.N.N.N.N.m.m.h.h.h.h.h.h.h.h.h.h.h.h.h.h.h.h.m.h.h.h.N.N.N.q.                            ",
"                            q.q.N.N.N.N.N.N.N.N.N.N.N.N.N.N.h.h.h.h.h.h.h.h.h.m.m.h.h.h.h.N.N.q.q.                              ",
"                                q.N.N.N.N.N.N.N.N.N.N.N.N.N.N.N.m.m.h.h.h.h.h.h.h.h.N.N.N.N.q.                                  ",
"                                  q.q.N.N.N.N.N.N.N.N.N.N.N.N.N.N.N.N.N.N.N.N.N.N.N.N.N.q.q.                                    ",
"                                      q.N.N.N.N.N.N.N.N.N.N.N.N.N.N.N.N.N.N.N.N.N.N.N.q.                                        ",
"                                        q.q.q.N.N.N.N.N.N.N.N.N.N.N.N.N.N.N.N.N.q.q.q.                                          ",
"                                              q.q.q.N.N.N.N.N.N.N.N.N.N.N.q.q.q.                                                "
};
