/* XPM */
static char *da6054041e114118f8117dd5f8cb947cRzyAWVGBqkzvYOcb[] = {
/* columns rows colors chars-per-pixel */
"64 64 138 2 ",
"   c None",
".  c gray27",
"X  c #464646",
"o  c gray29",
"O  c gray30",
"+  c #474B5D",
"@  c #535353",
"#  c gray33",
"$  c #555555",
"%  c gray34",
"&  c #585858",
"*  c #5A5A5A",
"=  c gray36",
"-  c gray37",
";  c #484F71",
":  c gray38",
">  c #626262",
",  c #656565",
"<  c gray40",
"1  c #676767",
"2  c #6A6A6A",
"3  c gray42",
"4  c #6C6C6C",
"5  c #6D6D6D",
"6  c #696D7F",
"7  c #717171",
"8  c #787778",
"9  c gray47",
"0  c #7E7D7E",
"q  c gray50",
"w  c #545E8D",
"e  c #5F6688",
"r  c #767C83",
"t  c #727688",
"y  c #797D8F",
"u  c #6D7596",
"i  c #737A9C",
"p  c #737B9C",
"a  c #4A5FB6",
"s  c #5B6AA7",
"d  c #6D77A7",
"f  c #787FA1",
"g  c #4C63C2",
"h  c #5168C3",
"j  c #556AC1",
"k  c #566BC2",
"l  c #576CC3",
"z  c #546BC8",
"x  c #576FCB",
"c  c #596FCB",
"v  c #5B70C7",
"b  c #5E73CA",
"n  c #5970CD",
"m  c #5970CF",
"M  c #4C66D0",
"N  c #4C66D3",
"B  c #4B68DD",
"V  c #6075CC",
"C  c #697ED5",
"Z  c #6A7FD6",
"A  c #677EDB",
"S  c #4D6CED",
"D  c #516EE3",
"F  c #506EE6",
"G  c #5370E5",
"H  c #5773E8",
"J  c #5270EE",
"K  c #5875EA",
"L  c #4C6CF2",
"P  c #4C6CF3",
"I  c #4C6DF3",
"U  c #4D6DF3",
"Y  c #4E6EF2",
"T  c #4D6DF4",
"R  c #5070F0",
"E  c #677FE2",
"W  c #7D838A",
"Q  c #7F8295",
"!  c #728DB1",
"~  c #7290B7",
"^  c #7B95BA",
"/  c #6E83DA",
"(  c #6A80DE",
")  c #7085DC",
"_  c #7186DC",
"`  c #6C94D6",
"'  c #7099D1",
"]  c #709AD1",
"[  c #6A81E0",
"{  c #868586",
"}  c #868686",
"|  c #8B8A8B",
" . c #8B8B8B",
".. c #8C8B8C",
"X. c #838699",
"o. c #838799",
"O. c #908F90",
"+. c #909090",
"@. c #939393",
"#. c gray58",
"$. c #979797",
"%. c gray62",
"&. c #9F9F9F",
"*. c #9498AA",
"=. c #8D94B0",
"-. c #809BBF",
";. c #9A9EB0",
":. c #9BA2BE",
">. c #A0A0A0",
",. c gray63",
"<. c #A2A2A2",
"1. c gray64",
"2. c #A4A4A4",
"3. c #A5A5A5",
"4. c gray65",
"5. c #A7A7A7",
"6. c #ACACAC",
"7. c gray68",
"8. c #AEAEAE",
"9. c #AFAFAF",
"0. c #A0A4B6",
"q. c #A4AAB1",
"w. c #A9AFB6",
"e. c #A7ABBD",
"r. c #A5AABE",
"t. c #ABB1B8",
"y. c gray69",
"u. c #B1B1B1",
"i. c #B2B2B2",
"p. c gray70",
"a. c #B4B4B4",
"s. c #939EC8",
"d. c #85A0C4",
"f. c #87A2C6",
"g. c #88A3C7",
"h. c #83A1C8",
"j. c #9BA3C5",
"k. c #A0A6C0",
/* pixels */
"                                                                                                                                ",
"                 											                                                                     ",
"                                                                                                          P                     ",
"                          S P N P                                                                     P                         ",
"                      P P N P P P P     P P P P                                                     P   P P P P                 ",
"                  P P P N T P g P N P S P P P P                                             P   P T P P P P P P P               ",
"                      T P P g g g P N P P P P                                           P     P P     P P P P P P               ",
"                        P g g g g g N P P P P P                                       P     P   P       P P P P                 ",
"                      P S P g g g P P P P P P P       .             p.a.          a.e.  P P P P   P P P P P P                   ",
"                    E N P S P g                   .             p.a.          a.a.    P P P P P P P P P P P                     ",
"              8 %.    S P N N N v 8 8 8         -     .   .   %.a.  a.a.p.a.a.p.  a.P T 6.P P P P P 8         P P               ",
"          8 8 %.8 8 :.S P N P S x s s 8 8   p.    . . . .   .     a.a.a.a.p.a.  a._ P a.P *.P P u 8 8                           ",
"        8 8 8 8 8 a.e.c P P P P 8 q 8 8 8 %.    5 . . . . . .   a.a.a.a.a.a.a.a.e.a.P P P P P P 8 a.q 4.  p.                    ",
"      8 8 a.8 8 a._ c a.a.g P N P S 8 8 8 8 8 a.4.a.. . .   .   p.a.a.a.a.p.} X.e.a.P P P P T v A _ p.<.%.a.                    ",
"      8 8 8 8 q 8 a.a._ g g g P N P P 8 q 8 a.5 a.. . . . . , 6.8 8 a.a.a.6.p.P v e.a.P P P P P a.4.a.a.%.a.  p.                ",
"      8 8 a.%.8 8 8 a.g g g g g N P P 8 q q 8 a.4.5 . . . 8 8 8 %.p.p.a.a.a.%.P _ P P P P P i P P ;.a.8 a.a.a.a.p.              ",
"      8 8 a.a.8 %.%.=.8 g g g P P P P %.%.q 8 * a.8 q . 8 # # 8 q 8 a.p.a.p.6.P P P P P P P P 8 P a.7 a.a.a.a.a.p.              ",
"      8 8 a.a.8 8 h q 8 P g P S P a.a.8 6.8 <.<.<., # # q 8 8 %.8 q q a.%.q P P P P P P T P P P P , q a.a.a.a.a.a.              ",
"    8 8 8 8 a.8 8 8 8 h N N P P a.a.a.a.%.8 8 %.q 8 %.@.8 # # 8 8 %.6.<.8 r P t 8 P P P P P P P . , } %.a.a.a.                  ",
"    8 8 8 8 a.a.8 8 8 8 P S P h c a.a.8 a.8 6.8 q a.8 %.8 q a.8 8 a.8 W a.P / 8 q k P 7 e.P P + | 6.8 %.%.p.    8 8 8           ",
"    8 8 8 8 8 a.a.8 8 q P %.%.8 a.a.8 a.a.a.8 %.a.a.a.8 %.8 8 8 8 8 t.t.a.P 8 P P P P P P P . %.7 } q 6.6.6.8 %.%.q 8 8         ",
"    8 8 8 8 8 8 a.8 8 8 %.8 8 %.%.<.a.a.a.a.a.a.a.a.a.a.%.8 8 8 q 8 a.g.a.P P %.8 8 e.a.l z , k k 8 8 } 8 } 8 6.6.} 8 8         ",
"    8 8 8 8 8 8 a.8 8 %.8 8 a.8 %.} q a.a.a.q 8 a.a.a.8 8 8 q 8 8 q ! a.a.] a.! 8 W 8 a.a.a.<.| * ] %.8 } q q | 8 %.8 8 q       ",
"      8 8 8 q a.8 8 8 8 8 a.a.a.%.%.8 8 a.%.q 8 8 a.8 q 8 q q 8 6.] ] ] ] ] ] 8 -.8 8 8 a.6.q 6.a.8 6.8 } 8 } 4.8 6.8 8 } 8     ",
"      8 8 q q a.%.8 8 q a.a.a.a.a.%.%.%.p.8 8 <.%.<.8 8 8 8 %.8 8 8 ] ] ] ] ] ] ! 8 %.%.<.8 6.a.a.a.a.w.%.@.<.6.8 a.8 %.8 q 8   ",
"      8 8 8 %.8 8 8 8 q 8 a.a.a.8 8 8 8 a.8 <.<.8 <.8 %.<.%.8 8 a.8 ] 8 ] ] ] %.8 8 8 8 q 8 a.a.a.t.] a.6.4.6.6.a.a.a.6.%.} 8   ",
"      8 8 %.8 8 a.8 6.8 q 8 a.8 q q 8 4.a.8 8 %.8 8 8 8 8 8 8 a.a.] ] %.8 ] a.r 8 8 8 8 8 } 8 a.t.t.a.] a.p.r a.a.a.a.a.p.8 8   ",
"        8 8 8 a.a.a.8 %.%.a.p.a.8 4.p.8 7 8 %.8 8 a.8 %.8 q a.a.] a.a.-.! h.a.8 8 8 8 8 6.8 } q a.g.a.a.6.] q a.a.a.a.a.6.8 8   ",
"        8 8 a.a.a.a.a.%.a.8 } | $.%.q # q 8 7 8 a.a.a.8 %.q 8 a.] a.8 q a.t.8 ! ! 8 8 8 q 6.p.6.f.a.a.] <.-.] t.a.a.a.} 8 8 8   ",
"          q 8 a.a.a.8 8 8 8 } 4.O., %.8 - } 8 4.a.a.a.a.6.8 q 8 a.8 ] q 8 %.8 8 q 8 q 8 8 8 8 6.p.p.] ] ] a.g.a.a.p.p.} 8 8 8   ",
"        p.8 8 8 a.8 q 8 8 8 %.6.2 a.5 . 8 - q 7 a.a.a.8 q 8 %.%.<.a.a.%.8 8 8 8 8 q q 8 %.8 8 q 8 ] ] ] ] ] g.a.a.p.%.%.%.8 8   ",
"          8 %.%.<.8 q 8 8 8 6.6.a.5 . . . p.@ 8 4.a.8 } q 8 a.8 a.q 6.] 8 a.8 %.8 q %.8 8 8 8 8 r 8 ] ] ] 8 a.a.a.@.8 6.6.8     ",
"          8 8 8 } 8 %.%.8 8 8 a.a.. . . . . - , %.p.8 8 %.8 8 8 8 8 8 8 a.a.a.8 %.%.8 8 a.8 %.! q 8 8 ] 8 q.6.a.8 q 8 8 8 8     ",
"        8 8 8 q q 8 %.8 8 q q a.4.a.. . . . . # 8 q a.6.%.8 a.8 %.8 q a.a.4.a.a.a.a.8 a.a.a.8 %.8 ! ! ~ 8 %.<.4.8 6.6.8 8       ",
"        %.8 8 q %.8 8 8 8 %.} - a.4.a.. . . } 8 8 8 a.8 8 a.a.a.8 %.q 7 a.a.a.8 8 8 a.a.a.a.a.%.8 8 8 r q ! ! q 8 %.%.8 8       ",
"    p.  8 8 8 %.8 8 a.8 %.6.6.<., 5 5 , . %.7 8 q 8 a.a.a.a.a.a.a.6.9 7 8 5 8 q 7 q 8 a.a.a.8 8 a.8 8 q q 8 %.8 8 q 8 8 q       ",
"  p.    a.8 %.8 q a.a.a.7 %.6.6.p.p.5 , > 2 2 8 } } 8 a.8 a.a.a.8 q q > 6.<.8 q @.8 q 8 a.8 q 8 a.8 8 8 %.8 8 8 8 8 q } 8       ",
"      a.a.a.8 %.a.a.4.a.a.%.q 8 6.6.p.p.4.a.# , 8 q %.a.8 8 a.8 q 7 , 8 8 . 7 , <.7 %.%.<.8 8 8 a.8 8 %.8 8 a.8 %.q @.O.%.a.    ",
"    a.a.a.a.a.<.8 4.4.a.* 8 8 7 8 8 6.6.a.a.a.6.p.} | } %.%.<.8 7 @.8 # . . . q O 8 %.7 q q %.%.a.8 8 8 8 a.a.a.8 %.<.6.8 a.    ",
"      a.a.a.%.8 8 8 5 q } 8 %.8 8 q 8 a.a.a.a.a.p.6.8 a.8 8 q 8 %., 8 . . . . . , 8 8 8 8 8 8 8 8 a.8 8 a.a.a.a.a.6.%.6.a.a.p.a.",
"p.      a.8 q 8 %., <.8 . 8 # 8 7 8 q a.a.a.a.a.a.6.%.a.8 q } 8 # 8 4.. . . . %.. 8 5 8 @.8 q 8 8 a.8 q 8 a.a.a.7 8 6.a.a.a.a.p.",
"    p.p.p.  8 8 8 8 q . . . a.# %.%...} a.a.a.a.%.a.a.8 8 8 8 8 8 * . . . . , . . . a.5 8 %.8 8 8 8 %.8 8 } a.7 9 8 5 a.a.4.a.a.",
"            <.%.8 8 . . . . . 5 8 p.6.%.%.p.a.<.p.a.a.a.%.6.q } %.. . . . . . . . . . 5 a.%.8 8 8 a.8 } <.%.<.8 # q } a.a.a.a.a.",
"          8 8 8 8 7 8 . . ; a.5 a.%.7 6.p.p.6.%.%.a.a.a.a.%.6.8 7 8 . . . 2 a.. . . a.a.q } 8 a.a.r O.} } 6.q # 6.p.. 8 5 a.4.  ",
"          8 %.8 # q 8 i . 6 4.a.8 q 8 a.a.p.} 6.p.a.a.a.a.a.6.- 8 8 8 . * 4.a.a.. %.4.} q } 8 r 8 } O.6.6.8 8 } 8 . . . p.5 8   ",
"        %.8 8 8 8 8 e w o D a.. i # 8 4.8 8 8 | ..a.a.a.a.} 8 8 8 * - * a.a.5 5 , 6.4.O.%.6.r W } ^ p.} q.a.8 6.. . . . . 2 %.p.",
"      p.8 8 a.8 %.8 y F @.C . . + %.# 8 q } <.6.8 8 a.a.O.@.%.6.} ..} 9 8 5 5 a.7 8 , 2 <.p.8 ! @.6.6.6.a.a.a.7 6.. . . 8 }   a.",
"        8 a.a.a.8 %.D n 8 P . B . ; # 8 } | q 6.6.p.p.6.%.6.q | O.<.p.6.q } p.8 q %.6.6.a.a.-.6...] 8 g.a.t.5 a.6.8 . 8 7 q     ",
"        a.a.a.a.a.*.v 8 P P P a B e.8 %.8 6.%.8 8 8 q <.p.p.a.a.p.p.q } %.*.<.8 8 q 6.a.a.a.a.p.] ] ] a.g.a.a.p.# # # q 8 8     ",
"        8 a.a.a.u t 8 P P P T P R 4.a.8 p.%.8 a.a.6.%.} q a.a.a.a.a.a.e.6.6.| } %.<.a.a.a.a.e.] ] ] ] ] g.a.a.6.8 8 9 q # ,     ",
"    p.      e.8 q v f P P P P P _ a.a.a.%.8 a.a.a.a.6.%.a.a.a.a.a.a.e.e.a./ 6.8 t <.6.a.e.a.t.a.] ] ] a.a.a.p.q 8 8 8 %.8 8     ",
"        p.k.s.8 D G X.T P P P d a.5 5 8 8 a.a.a.a.a.a.<.} a.a.a.a.a.a._ a.a.6.8 %.p.} e.e.g._ p.p.` a.t.a.a.p.6.6.8 %.8 8 a.  p.",
"            J   %.C P P P P v t 8 a.8 q } q a.a.a.a.%.6.8 8 a.a.a.p._ a.a.P 8 v 8 0.a.p._ p.a.f.g.h.a.a.e.a.p.6.q 8 8 8 a.a.a.  ",
"          P P   P T P P T P / K H 4.8 6.%.8 8 a.a.@.} 8 %.p.p.p.8 a.a.a.P P P 8 v } a._ a.p.P p._ t.j.g.g.a.p.6.8 8 8 a.a.a.a.a.",
"        P     P P P P P P e.a./ C q 8 %.%.6.p.p.4.8 8 8 8 8 q <.p.p.p.P P P P P C } 8 a.a.P P P a.( e.a._ a.6.*.8 q q 8 a.a.a.  ",
"      P     P P P P T P a.e.a.a.%.8 8 8 8 8 } $.} p.p.%.} q 8 8 8 q Q 6.P P P 8 p.8 <.6.P P P P P C C a.a.a.a.8 %.%.8 8 8 a.    ",
"          P P P P P J [ a.a.a.8 8 8 8 8 8 8 8 6.%.8 8 8 8 8 8 8 8 v 8 8 8 P a.e.8 %.6.0.6.P P P 8 C %.a.P a._ a.*.8 8 %.p.p.    ",
"        P P P P P E     a._ V q 8 8 8 8 8 8 6.%.8 a.a.6.%.} q 8 8 8 8 v _ [ a.a.a.%.v 8 } 8 P 6.t %.<.P P P a.v 8 8 8 8       p.",
"          P P P P   a.p.a.p.  8 8 8 8 8 8 8 8 8 a.a.a.a.6.%.8 8 8 8 8 q 8 e.a._ v 8 8 8 v v n 8 8 %.P P P P P b 8 8 8           ",
"    P       P       P P     a.p.%.8 8 8 8 8 8 a.a.a.a.a.a.p.  8 8 8 %.8 8 8 a.8 q 8 8 8 8 8 t 8 v n 8 P P P 8 8 8 8 8           ",
"        P P P                                   a.a.a.a.          8 8 8 %.%.<.8 8           8 8 v 8 8 8 P q t p.p.              ",
"                P P                       a.p.    a.a.                          p.p.                P P P                       ",
"                                              a.p.a.p.                                                      P P                 ",
"                                                      a.p.p.                                                                    "
};
